; G-Code generated by Simplify3D(R) Version 4.0.0
; Jul 14, 2020 at 8:53:42 AM
; Settings Summary
;   processName,Process1
;   applyToModels,Left Side
;   profileName,Cat_Fast (modified)
;   profileVersion,2020-01-05 00:41:03
;   baseProfile,Default (modified)
;   printMaterial,PLA
;   printQuality,Fast
;   printExtruders,
;   extruderName,Primary Extruder
;   extruderToolheadNumber,0
;   extruderDiameter,0.4
;   extruderAutoWidth,0
;   extruderWidth,0.4
;   extrusionMultiplier,1
;   extruderUseRetract,1
;   extruderRetractionDistance,10
;   extruderExtraRestartDistance,0
;   extruderRetractionZLift,0.3
;   extruderRetractionSpeed,6000
;   extruderUseCoasting,0
;   extruderCoastingDistance,0.2
;   extruderUseWipe,1
;   extruderWipeDistance,2
;   primaryExtruder,0
;   layerHeight,0.3
;   topSolidLayers,3
;   bottomSolidLayers,3
;   perimeterOutlines,3
;   printPerimetersInsideOut,1
;   startPointOption,3
;   startPointOriginX,100
;   startPointOriginY,150
;   sequentialIslands,1
;   spiralVaseMode,0
;   firstLayerHeightPercentage,90
;   firstLayerWidthPercentage,100
;   firstLayerUnderspeed,0.5
;   useRaft,0
;   raftExtruder,0
;   raftTopLayers,3
;   raftBaseLayers,2
;   raftOffset,3
;   raftSeparationDistance,0.14
;   raftTopInfill,100
;   aboveRaftSpeedMultiplier,0.3
;   useSkirt,1
;   skirtExtruder,0
;   skirtLayers,1
;   skirtOutlines,3
;   skirtOffset,5.2
;   usePrimePillar,0
;   primePillarExtruder,999
;   primePillarWidth,12
;   primePillarLocation,7
;   primePillarSpeedMultiplier,1
;   useOozeShield,0
;   oozeShieldExtruder,999
;   oozeShieldOffset,2
;   oozeShieldOutlines,1
;   oozeShieldSidewallShape,1
;   oozeShieldSidewallAngle,30
;   oozeShieldSpeedMultiplier,1
;   infillExtruder,0
;   internalInfillPattern,Rectilinear
;   externalInfillPattern,Rectilinear
;   infillPercentage,15
;   outlineOverlapPercentage,30
;   infillExtrusionWidthPercentage,100
;   minInfillLength,5
;   infillLayerInterval,1
;   internalInfillAngles,45,-45
;   overlapInternalInfillAngles,0
;   externalInfillAngles,45,-45
;   generateSupport,1
;   supportExtruder,0
;   supportInfillPercentage,25
;   supportExtraInflation,0
;   supportBaseLayers,0
;   denseSupportExtruder,0
;   denseSupportLayers,0
;   denseSupportInfillPercentage,70
;   supportLayerInterval,1
;   supportHorizontalPartOffset,0.3
;   supportUpperSeparationLayers,1
;   supportLowerSeparationLayers,1
;   supportType,0
;   supportGridSpacing,4
;   maxOverhangAngle,40
;   supportAngles,0
;   temperatureName,Primary Extruder,Bed
;   temperatureNumber,0,0
;   temperatureSetpointCount,1,1
;   temperatureSetpointLayers,1,1
;   temperatureSetpointTemperatures,205,60
;   temperatureStabilizeAtStartup,1,1
;   temperatureHeatedBed,0,1
;   temperatureRelayBetweenLayers,0,0
;   temperatureRelayBetweenLoops,0,0
;   fanLayers,1,2
;   fanSpeeds,0,100
;   blipFanToFullPower,0
;   adjustSpeedForCooling,1
;   minSpeedLayerTime,15
;   minCoolingSpeedSlowdown,20
;   increaseFanForCooling,0
;   minFanLayerTime,30
;   maxCoolingFanSpeed,100
;   increaseFanForBridging,0
;   bridgingFanSpeed,100
;   use5D,1
;   relativeEdistances,0
;   allowEaxisZeroing,1
;   independentExtruderAxes,0
;   includeM10123,0
;   stickySupport,1
;   applyToolheadOffsets,0
;   gcodeXoffset,0
;   gcodeYoffset,0
;   gcodeZoffset,0
;   overrideMachineDefinition,1
;   machineTypeOverride,0
;   strokeXoverride,220
;   strokeYoverride,220
;   strokeZoverride,250
;   originOffsetXoverride,0
;   originOffsetYoverride,0
;   originOffsetZoverride,0
;   homeXdirOverride,-1
;   homeYdirOverride,-1
;   homeZdirOverride,-1
;   flipXoverride,1
;   flipYoverride,-1
;   flipZoverride,1
;   toolheadOffsets,0,0|0,0|0,0|0,0|0,0|0,0
;   overrideFirmwareConfiguration,0
;   firmwareTypeOverride,RepRap (Marlin/Repetier/Sprinter)
;   GPXconfigOverride,r2
;   baudRateOverride,115200
;   overridePrinterModels,0
;   printerModelsOverride
;   startingGcode,G28 ; home all axes,G29; BLTOUCH mesh generation,G92 E0.0,G1 Z5;,G1 X10 Y10 Z0 F6000;,G1 X60.0 E9.0  F1000.0 ; intro line,G1 X100.0 E12.5  F1000.0 ; intro line,G92 E0.0
;   layerChangeGcode,G4 P1
;   retractionGcode,
;   toolChangeGcode,
;   endingGcode,G28 X0 Y0 ; home X axis and y axis,;G1 Z180 F300 ; lower platform to bottom,M104 S0 ; kill extruder temperature,M140 S0 ; kill bed temperature,M107; kill fan,M84 ; disable motors
;   exportFileFormat,gcode
;   celebration,0
;   celebrationSong,Funky Town
;   postProcessing,curl -k -H "X-Api-Key: B48F0C35933E47C49712EE720641ACF0" -F "select=false" -F "print=false" -F "file=@[output_filepath]" "http://192.168.0.5/api/files/local" {STRIP "; postProcessing"}
;   defaultSpeed,4200
;   outlineUnderspeed,0.5
;   solidInfillUnderspeed,0.8
;   supportUnderspeed,0.8
;   rapidXYspeed,4800
;   rapidZspeed,1002
;   minBridgingArea,50
;   bridgingExtraInflation,1
;   bridgingExtrusionMultiplier,1
;   bridgingSpeedMultiplier,1
;   useFixedBridgingAngle,0
;   fixedBridgingAngle,0
;   applyBridgingToPerimeters,0
;   filamentDiameters,1.75|1.75|1.75|1.75|1.75|1.75
;   filamentPricesPerKg,25.99|46|46|46|46|46
;   filamentDensities,1.25|1.25|1.25|1.25|1.25|1.25
;   useMinPrintHeight,0
;   minPrintHeight,0
;   useMaxPrintHeight,0
;   maxPrintHeight,5
;   useDiaphragm,0
;   diaphragmLayerInterval,20
;   robustSlicing,1
;   mergeAllIntoSolid,0
;   onlyRetractWhenCrossingOutline,1
;   retractBetweenLayers,1
;   useRetractionMinTravel,0
;   retractionMinTravel,3
;   retractWhileWiping,0
;   onlyWipeOutlines,1
;   avoidCrossingOutline,1
;   maxMovementDetourFactor,3
;   toolChangeRetractionDistance,12
;   toolChangeExtraRestartDistance,-0.5
;   toolChangeRetractionSpeed,600
;   externalThinWallType,0
;   internalThinWallType,2
;   thinWallAllowedOverlapPercentage,10
;   singleExtrusionMinLength,1
;   singleExtrusionMinPrintingWidthPercentage,50
;   singleExtrusionMaxPrintingWidthPercentage,200
;   singleExtrusionEndpointExtension,0.2
;   horizontalSizeCompensation,0
G90
M82
M106 S0
M140 S60
M190 S60
M104 S205 T0
M109 S205 T0
G28 ; home all axes
G29; BLTOUCH mesh generation
G92 E0.0
G1 Z5;
G1 X10 Y10 Z0 F6000;
G1 X60.0 E9.0  F1000.0 ; intro line
G1 X100.0 E12.5  F1000.0 ; intro line
G92 E0.0
G92 E0
G1 E-10.0000 F6000
G1 Z0.570 F1002
; process Process1
; layer 1, Z = 0.270
G4 P1
T0
; tool H0.300 W0.400
; skirt
G1 X20.510 Y39.122 F4800
G1 Z0.270 F1002
G1 E0.0000 F1800
G92 E0
G1 X20.877 Y38.970 E0.0198 F2100
G1 X105.215 Y38.964 E4.2275
G1 X105.582 Y39.116 E4.2473
G1 X108.910 Y42.444 E4.4821
G1 X109.062 Y42.811 E4.5019
G1 X109.064 Y74.964 E6.1060
G1 X199.117 Y74.958 E10.5988
G1 X199.485 Y75.110 E10.6186
G1 X202.812 Y78.437 E10.8534
G1 X202.965 Y78.805 E10.8732
G1 X202.970 Y158.042 E14.8264
G1 X202.818 Y158.410 E14.8463
G1 X199.489 Y161.738 E15.0811
G1 X199.121 Y161.890 E15.1010
G1 X165.482 Y161.881 E16.7792
G1 X164.314 Y162.965 E16.8587
G1 X164.308 Y162.971 E16.8591
G1 X164.243 Y163.030 E16.8635
G1 X164.237 Y163.035 E16.8639
G1 X162.568 Y164.490 E16.9744
G1 X162.563 Y164.495 E16.9748
G1 X162.503 Y164.545 E16.9787
G1 X162.498 Y164.550 E16.9790
G1 X161.136 Y165.674 E17.0671
G1 X161.130 Y165.678 E17.0674
G1 X161.070 Y165.727 E17.0713
G1 X161.064 Y165.731 E17.0717
G1 X159.688 Y166.805 E17.1588
G1 X159.683 Y166.809 E17.1591
G1 X159.626 Y166.852 E17.1626
G1 X159.621 Y166.855 E17.1629
G1 X158.219 Y167.894 E17.2500
G1 X158.212 Y167.899 E17.2504
G1 X158.131 Y167.957 E17.2554
G1 X158.124 Y167.962 E17.2558
G1 X156.011 Y169.415 E17.3838
G1 X156.004 Y169.420 E17.3842
G1 X155.925 Y169.473 E17.3889
G1 X155.918 Y169.477 E17.3894
G1 X154.462 Y170.409 E17.4756
G1 X154.456 Y170.413 E17.4759
G1 X154.387 Y170.455 E17.4800
G1 X154.381 Y170.459 E17.4803
G1 X152.911 Y171.342 E17.5659
G1 X152.905 Y171.346 E17.5662
G1 X152.836 Y171.386 E17.5702
G1 X152.830 Y171.389 E17.5706
G1 X151.337 Y172.230 E17.6560
G1 X151.331 Y172.233 E17.6564
G1 X151.263 Y172.271 E17.6603
G1 X151.257 Y172.274 E17.6606
G1 X149.736 Y173.077 E17.7464
G1 X149.729 Y173.080 E17.7468
G1 X149.651 Y173.120 E17.7511
G1 X149.644 Y173.123 E17.7515
G1 X147.717 Y174.066 E17.8586
G1 X147.709 Y174.070 E17.8590
G1 X147.618 Y174.112 E17.8640
G1 X147.611 Y174.116 E17.8644
G1 X145.632 Y174.999 E17.9725
G1 X145.625 Y175.003 E17.9729
G1 X145.539 Y175.039 E17.9776
G1 X145.532 Y175.042 E17.9780
G1 X143.514 Y175.865 E18.0867
G1 X143.507 Y175.868 E18.0871
G1 X143.421 Y175.902 E18.0917
G1 X143.413 Y175.905 E18.0921
G1 X141.351 Y176.669 E18.2018
G1 X141.344 Y176.672 E18.2022
G1 X141.266 Y176.699 E18.2063
G1 X141.259 Y176.702 E18.2067
G1 X139.567 Y177.274 E18.2958
G1 X139.561 Y177.276 E18.2961
G1 X139.499 Y177.296 E18.2994
G1 X139.493 Y177.298 E18.2997
G1 X137.773 Y177.835 E18.3896
G1 X137.767 Y177.837 E18.3899
G1 X137.694 Y177.859 E18.3937
G1 X137.688 Y177.861 E18.3940
G1 X135.499 Y178.481 E18.5075
G1 X135.493 Y178.482 E18.5078
G1 X135.424 Y178.501 E18.5114
G1 X135.418 Y178.503 E18.5117
G1 X133.638 Y178.959 E18.6034
G1 X133.632 Y178.961 E18.6037
G1 X133.557 Y178.979 E18.6075
G1 X133.551 Y178.980 E18.6079
G1 X131.358 Y179.480 E18.7201
G1 X131.351 Y179.482 E18.7204
G1 X131.267 Y179.500 E18.7247
G1 X131.260 Y179.501 E18.7251
G1 X129.084 Y179.929 E18.8357
G1 X129.077 Y179.931 E18.8361
G1 X128.997 Y179.945 E18.8401
G1 X128.989 Y179.947 E18.8405
G1 X127.239 Y180.239 E18.9290
G1 X127.231 Y180.240 E18.9294
G1 X127.139 Y180.254 E18.9341
G1 X127.131 Y180.255 E18.9345
G1 X124.556 Y180.600 E19.0641
G1 X124.548 Y180.601 E19.0645
G1 X124.452 Y180.612 E19.0693
G1 X124.444 Y180.613 E19.0697
G1 X122.707 Y180.786 E19.1568
G1 X122.700 Y180.787 E19.1572
G1 X122.615 Y180.794 E19.1615
G1 X122.607 Y180.795 E19.1618
G1 X120.467 Y180.943 E19.2689
G1 X120.458 Y180.944 E19.2693
G1 X120.358 Y180.949 E19.2743
G1 X120.349 Y180.949 E19.2747
G1 X118.205 Y181.023 E19.3818
G1 X118.196 Y181.023 E19.3822
G1 X118.099 Y181.025 E19.3871
G1 X118.090 Y181.025 E19.3875
G1 X115.951 Y181.025 E19.4942
G1 X115.942 Y181.025 E19.4947
G1 X115.845 Y181.023 E19.4995
G1 X115.836 Y181.023 E19.5000
G1 X113.694 Y180.950 E19.6069
G1 X113.685 Y180.950 E19.6073
G1 X113.586 Y180.944 E19.6123
G1 X113.577 Y180.944 E19.6127
G1 X111.432 Y180.796 E19.7200
G1 X111.425 Y180.795 E19.7204
G1 X111.339 Y180.788 E19.7247
G1 X111.331 Y180.787 E19.7251
G1 X109.596 Y180.614 E19.8120
G1 X109.588 Y180.613 E19.8125
G1 X109.493 Y180.602 E19.8172
G1 X109.484 Y180.601 E19.8177
G1 X106.916 Y180.257 E19.9470
G1 X106.908 Y180.256 E19.9473
G1 X106.826 Y180.244 E19.9515
G1 X106.819 Y180.243 E19.9518
G1 X105.491 Y180.026 E20.0190
G1 X105.484 Y180.025 E20.0193
G1 X105.404 Y180.010 E20.0234
G1 X105.397 Y180.009 E20.0237
G1 X102.796 Y179.506 E20.1559
G1 X102.788 Y179.505 E20.1563
G1 X102.695 Y179.485 E20.1610
G1 X102.687 Y179.483 E20.1614
G1 X100.486 Y178.982 E20.2741
G1 X100.479 Y178.980 E20.2744
G1 X100.397 Y178.960 E20.2787
G1 X100.390 Y178.958 E20.2790
G1 X98.170 Y178.383 E20.3935
G1 X98.162 Y178.381 E20.3938
G1 X98.076 Y178.357 E20.3983
G1 X98.068 Y178.355 E20.3987
G1 X95.460 Y177.590 E20.5343
G1 X95.451 Y177.588 E20.5347
G1 X95.356 Y177.558 E20.5397
G1 X95.348 Y177.555 E20.5401
G1 X92.808 Y176.714 E20.6736
G1 X92.800 Y176.711 E20.6741
G1 X92.706 Y176.678 E20.6790
G1 X92.697 Y176.675 E20.6795
G1 X90.625 Y175.907 E20.7897
G1 X90.617 Y175.904 E20.7902
G1 X90.524 Y175.867 E20.7952
G1 X90.516 Y175.864 E20.7956
G1 X88.104 Y174.873 E20.9257
G1 X88.096 Y174.869 E20.9262
G1 X87.997 Y174.827 E20.9315
G1 X87.988 Y174.823 E20.9320
G1 X86.018 Y173.925 E21.0400
G1 X86.010 Y173.921 E21.0404
G1 X85.923 Y173.880 E21.0453
G1 X85.915 Y173.876 E21.0457
G1 X83.986 Y172.917 E21.1532
G1 X83.978 Y172.913 E21.1536
G1 X83.883 Y172.863 E21.1590
G1 X83.875 Y172.859 E21.1594
G1 X81.626 Y171.633 E21.2872
G1 X81.618 Y171.629 E21.2877
G1 X81.523 Y171.575 E21.2931
G1 X81.515 Y171.570 E21.2936
G1 X79.664 Y170.468 E21.4011
G1 X79.656 Y170.463 E21.4016
G1 X79.561 Y170.404 E21.4071
G1 X79.553 Y170.399 E21.4076
G1 X77.396 Y168.997 E21.5359
G1 X77.388 Y168.992 E21.5364
G1 X77.292 Y168.927 E21.5422
G1 X77.284 Y168.921 E21.5427
G1 X75.172 Y167.424 E21.6718
G1 X75.164 Y167.418 E21.6723
G1 X75.074 Y167.352 E21.6779
G1 X75.067 Y167.346 E21.6784
G1 X73.000 Y165.757 E21.8084
G1 X72.993 Y165.752 E21.8089
G1 X72.917 Y165.691 E21.8137
G1 X72.911 Y165.686 E21.8141
G1 X71.536 Y164.552 E21.9031
G1 X71.530 Y164.547 E21.9034
G1 X71.463 Y164.490 E21.9078
G1 X71.458 Y164.485 E21.9082
G1 X69.462 Y162.734 E22.0406
G1 X69.455 Y162.728 E22.0411
G1 X69.382 Y162.662 E22.0460
G1 X69.376 Y162.656 E22.0464
G1 X67.722 Y161.100 E22.1597
G1 X67.717 Y161.095 E22.1601
G1 X67.654 Y161.035 E22.1644
G1 X67.649 Y161.029 E22.1648
G1 X65.715 Y159.095 E22.3013
G1 X65.709 Y159.090 E22.3016
G1 X65.647 Y159.026 E22.3061
G1 X65.642 Y159.020 E22.3065
G1 X64.087 Y157.365 E22.4198
G1 X64.081 Y157.359 E22.4202
G1 X64.017 Y157.289 E22.4249
G1 X64.011 Y157.283 E22.4253
G1 X62.252 Y155.280 E22.5583
G1 X62.246 Y155.273 E22.5588
G1 X62.176 Y155.190 E22.5642
G1 X62.170 Y155.183 E22.5647
G1 X60.509 Y153.140 E22.6960
G1 X60.503 Y153.133 E22.6965
G1 X60.438 Y153.051 E22.7017
G1 X60.433 Y153.044 E22.7022
G1 X59.114 Y151.296 E22.8114
G1 X59.109 Y151.288 E22.8118
G1 X59.048 Y151.205 E22.8170
G1 X59.043 Y151.198 E22.8174
G1 X57.571 Y149.091 E22.9457
G1 X57.565 Y149.083 E22.9461
G1 X57.506 Y148.995 E22.9515
G1 X57.501 Y148.987 E22.9519
G1 X56.335 Y147.178 E23.0593
G1 X56.330 Y147.171 E23.0597
G1 X56.277 Y147.085 E23.0648
G1 X56.272 Y147.077 E23.0652
G1 X55.173 Y145.232 E23.1723
G1 X55.168 Y145.224 E23.1728
G1 X55.116 Y145.132 E23.1781
G1 X55.111 Y145.123 E23.1786
G1 X53.880 Y142.870 E23.3067
G1 X53.875 Y142.860 E23.3072
G1 X53.820 Y142.753 E23.3133
G1 X53.815 Y142.744 E23.3138
G1 X52.677 Y140.433 E23.4423
G1 X52.673 Y140.424 E23.4428
G1 X52.628 Y140.329 E23.4481
G1 X52.624 Y140.320 E23.4485
G1 X51.737 Y138.337 E23.5569
G1 X51.734 Y138.328 E23.5574
G1 X51.693 Y138.233 E23.5625
G1 X51.690 Y138.224 E23.5630
G1 X50.708 Y135.797 E23.6936
G1 X50.705 Y135.788 E23.6941
G1 X50.668 Y135.692 E23.6992
G1 X50.665 Y135.684 E23.6997
G1 X49.910 Y133.602 E23.8102
G1 X49.907 Y133.594 E23.8106
G1 X49.876 Y133.503 E23.8154
G1 X49.873 Y133.495 E23.8158
G1 X49.624 Y132.727 E23.8561
G1 X20.861 Y132.586 E25.2911
G1 X20.495 Y132.433 E25.3109
G1 X17.187 Y129.109 E25.5448
G1 X17.036 Y128.743 E25.5646
G1 X17.030 Y42.818 E29.8514
G1 X17.182 Y42.450 E29.8713
G1 X20.510 Y39.122 E30.1060
G1 X20.736 Y39.461 F4800
G92 E0
G1 X20.957 Y39.370 E0.0119 F2100
G1 X105.135 Y39.364 E4.2116
G1 X105.356 Y39.456 E4.2235
G1 X108.571 Y42.670 E4.4503
G1 X108.662 Y42.891 E4.4622
G1 X108.664 Y75.364 E6.0823
G1 X199.038 Y75.358 E10.5911
G1 X199.258 Y75.449 E10.6030
G1 X202.473 Y78.664 E10.8298
G1 X202.565 Y78.884 E10.8417
G1 X202.570 Y157.963 E14.7870
G1 X202.479 Y158.184 E14.7989
G1 X199.263 Y161.399 E15.0258
G1 X199.042 Y161.490 E15.0377
G1 X165.325 Y161.481 E16.7198
G1 X164.043 Y162.671 E16.8071
G1 X164.040 Y162.674 E16.8073
G1 X163.976 Y162.731 E16.8116
G1 X163.973 Y162.734 E16.8118
G1 X162.306 Y164.188 E16.9221
G1 X162.303 Y164.191 E16.9223
G1 X162.245 Y164.239 E16.9261
G1 X162.242 Y164.242 E16.9263
G1 X160.882 Y165.364 E17.0143
G1 X160.879 Y165.367 E17.0145
G1 X160.820 Y165.414 E17.0182
G1 X160.817 Y165.416 E17.0184
G1 X159.443 Y166.489 E17.1054
G1 X159.440 Y166.491 E17.1056
G1 X159.385 Y166.532 E17.1090
G1 X159.382 Y166.535 E17.1092
G1 X157.982 Y167.572 E17.1961
G1 X157.978 Y167.575 E17.1964
G1 X157.900 Y167.630 E17.2012
G1 X157.895 Y167.633 E17.2014
G1 X155.786 Y169.085 E17.3292
G1 X155.782 Y169.088 E17.3294
G1 X155.705 Y169.139 E17.3340
G1 X155.701 Y169.141 E17.3343
G1 X154.247 Y170.071 E17.4204
G1 X154.244 Y170.074 E17.4206
G1 X154.178 Y170.114 E17.4244
G1 X154.174 Y170.117 E17.4247
G1 X152.706 Y170.999 E17.5101
G1 X152.702 Y171.001 E17.5103
G1 X152.636 Y171.039 E17.5141
G1 X152.632 Y171.041 E17.5143
G1 X151.142 Y171.881 E17.5997
G1 X151.139 Y171.883 E17.5999
G1 X151.072 Y171.919 E17.6036
G1 X151.069 Y171.921 E17.6039
G1 X149.550 Y172.722 E17.6895
G1 X149.546 Y172.724 E17.6897
G1 X149.471 Y172.762 E17.6939
G1 X149.467 Y172.764 E17.6942
G1 X147.542 Y173.706 E17.8011
G1 X147.538 Y173.708 E17.8013
G1 X147.451 Y173.749 E17.8061
