; G-Code generated by Simplify3D(R) Version 4.0.0
; Jul 15, 2020 at 1:49:54 PM
; Settings Summary
;   processName,Process1
;   applyToModels,Left Handle
;   profileName,Cat_Fast (modified)
;   profileVersion,2020-01-05 00:41:03
;   baseProfile,Default (modified)
;   printMaterial,PLA
;   printQuality,Fast
;   printExtruders,
;   extruderName,Primary Extruder
;   extruderToolheadNumber,0
;   extruderDiameter,0.4
;   extruderAutoWidth,0
;   extruderWidth,0.4
;   extrusionMultiplier,1
;   extruderUseRetract,1
;   extruderRetractionDistance,10
;   extruderExtraRestartDistance,0
;   extruderRetractionZLift,0.3
;   extruderRetractionSpeed,6000
;   extruderUseCoasting,0
;   extruderCoastingDistance,0.2
;   extruderUseWipe,1
;   extruderWipeDistance,2
;   primaryExtruder,0
;   layerHeight,0.3
;   topSolidLayers,3
;   bottomSolidLayers,3
;   perimeterOutlines,3
;   printPerimetersInsideOut,1
;   startPointOption,3
;   startPointOriginX,100
;   startPointOriginY,150
;   sequentialIslands,1
;   spiralVaseMode,0
;   firstLayerHeightPercentage,90
;   firstLayerWidthPercentage,100
;   firstLayerUnderspeed,0.5
;   useRaft,0
;   raftExtruder,0
;   raftTopLayers,3
;   raftBaseLayers,2
;   raftOffset,3
;   raftSeparationDistance,0.14
;   raftTopInfill,100
;   aboveRaftSpeedMultiplier,0.3
;   useSkirt,1
;   skirtExtruder,0
;   skirtLayers,1
;   skirtOutlines,3
;   skirtOffset,5.2
;   usePrimePillar,0
;   primePillarExtruder,999
;   primePillarWidth,12
;   primePillarLocation,7
;   primePillarSpeedMultiplier,1
;   useOozeShield,0
;   oozeShieldExtruder,999
;   oozeShieldOffset,2
;   oozeShieldOutlines,1
;   oozeShieldSidewallShape,1
;   oozeShieldSidewallAngle,30
;   oozeShieldSpeedMultiplier,1
;   infillExtruder,0
;   internalInfillPattern,Rectilinear
;   externalInfillPattern,Rectilinear
;   infillPercentage,15
;   outlineOverlapPercentage,30
;   infillExtrusionWidthPercentage,100
;   minInfillLength,5
;   infillLayerInterval,1
;   internalInfillAngles,45,-45
;   overlapInternalInfillAngles,0
;   externalInfillAngles,45,-45
;   generateSupport,1
;   supportExtruder,0
;   supportInfillPercentage,25
;   supportExtraInflation,0
;   supportBaseLayers,0
;   denseSupportExtruder,0
;   denseSupportLayers,0
;   denseSupportInfillPercentage,70
;   supportLayerInterval,1
;   supportHorizontalPartOffset,0.3
;   supportUpperSeparationLayers,1
;   supportLowerSeparationLayers,1
;   supportType,0
;   supportGridSpacing,4
;   maxOverhangAngle,40
;   supportAngles,0
;   temperatureName,Primary Extruder,Bed
;   temperatureNumber,0,0
;   temperatureSetpointCount,1,1
;   temperatureSetpointLayers,1,1
;   temperatureSetpointTemperatures,205,60
;   temperatureStabilizeAtStartup,1,1
;   temperatureHeatedBed,0,1
;   temperatureRelayBetweenLayers,0,0
;   temperatureRelayBetweenLoops,0,0
;   fanLayers,1,2
;   fanSpeeds,0,100
;   blipFanToFullPower,0
;   adjustSpeedForCooling,1
;   minSpeedLayerTime,15
;   minCoolingSpeedSlowdown,20
;   increaseFanForCooling,0
;   minFanLayerTime,30
;   maxCoolingFanSpeed,100
;   increaseFanForBridging,0
;   bridgingFanSpeed,100
;   use5D,1
;   relativeEdistances,0
;   allowEaxisZeroing,1
;   independentExtruderAxes,0
;   includeM10123,0
;   stickySupport,1
;   applyToolheadOffsets,0
;   gcodeXoffset,0
;   gcodeYoffset,0
;   gcodeZoffset,0
;   overrideMachineDefinition,1
;   machineTypeOverride,0
;   strokeXoverride,220
;   strokeYoverride,220
;   strokeZoverride,250
;   originOffsetXoverride,0
;   originOffsetYoverride,0
;   originOffsetZoverride,0
;   homeXdirOverride,-1
;   homeYdirOverride,-1
;   homeZdirOverride,-1
;   flipXoverride,1
;   flipYoverride,-1
;   flipZoverride,1
;   toolheadOffsets,0,0|0,0|0,0|0,0|0,0|0,0
;   overrideFirmwareConfiguration,0
;   firmwareTypeOverride,RepRap (Marlin/Repetier/Sprinter)
;   GPXconfigOverride,r2
;   baudRateOverride,115200
;   overridePrinterModels,0
;   printerModelsOverride
;   startingGcode,G28 ; home all axes,G29; BLTOUCH mesh generation,G92 E0.0,G1 Z5;,G1 X10 Y10 Z0 F6000;,G1 X60.0 E9.0  F1000.0 ; intro line,G1 X100.0 E12.5  F1000.0 ; intro line,G92 E0.0
;   layerChangeGcode,G4 P1
;   retractionGcode,
;   toolChangeGcode,
;   endingGcode,G28 X0 Y0 ; home X axis and y axis,;G1 Z180 F300 ; lower platform to bottom,M104 S0 ; kill extruder temperature,M140 S0 ; kill bed temperature,M107; kill fan,M84 ; disable motors
;   exportFileFormat,gcode
;   celebration,0
;   celebrationSong,Funky Town
;   postProcessing,curl -k -H "X-Api-Key: B48F0C35933E47C49712EE720641ACF0" -F "select=false" -F "print=false" -F "file=@[output_filepath]" "http://192.168.0.5/api/files/local" {STRIP "; postProcessing"}
;   defaultSpeed,4200
;   outlineUnderspeed,0.5
;   solidInfillUnderspeed,0.8
;   supportUnderspeed,0.8
;   rapidXYspeed,4800
;   rapidZspeed,1002
;   minBridgingArea,50
;   bridgingExtraInflation,1
;   bridgingExtrusionMultiplier,1
;   bridgingSpeedMultiplier,1
;   useFixedBridgingAngle,0
;   fixedBridgingAngle,0
;   applyBridgingToPerimeters,0
;   filamentDiameters,1.75|1.75|1.75|1.75|1.75|1.75
;   filamentPricesPerKg,25.99|46|46|46|46|46
;   filamentDensities,1.25|1.25|1.25|1.25|1.25|1.25
;   useMinPrintHeight,0
;   minPrintHeight,0
;   useMaxPrintHeight,0
;   maxPrintHeight,5
;   useDiaphragm,0
;   diaphragmLayerInterval,20
;   robustSlicing,1
;   mergeAllIntoSolid,0
;   onlyRetractWhenCrossingOutline,1
;   retractBetweenLayers,1
;   useRetractionMinTravel,0
;   retractionMinTravel,3
;   retractWhileWiping,0
;   onlyWipeOutlines,1
;   avoidCrossingOutline,1
;   maxMovementDetourFactor,3
;   toolChangeRetractionDistance,12
;   toolChangeExtraRestartDistance,-0.5
;   toolChangeRetractionSpeed,600
;   externalThinWallType,0
;   internalThinWallType,2
;   thinWallAllowedOverlapPercentage,10
;   singleExtrusionMinLength,1
;   singleExtrusionMinPrintingWidthPercentage,50
;   singleExtrusionMaxPrintingWidthPercentage,200
;   singleExtrusionEndpointExtension,0.2
;   horizontalSizeCompensation,0
G90
M82
M106 S0
M140 S60
M190 S60
M104 S205 T0
M109 S205 T0
G28 ; home all axes
G29; BLTOUCH mesh generation
G92 E0.0
G1 Z5;
G1 X10 Y10 Z0 F6000;
G1 X60.0 E9.0  F1000.0 ; intro line
G1 X100.0 E12.5  F1000.0 ; intro line
G92 E0.0
G92 E0
G1 E-10.0000 F6000
G1 Z0.570 F1002
; process Process1
; layer 1, Z = 0.270
G4 P1
T0
; tool H0.300 W0.400
; skirt
G1 X39.199 Y93.152 F4800
G1 Z0.270 F1002
G1 E0.0000 F1800
G92 E0
G1 X39.221 Y93.143 E0.0012 F2100
G1 X39.477 Y93.048 E0.0148
G1 X39.499 Y93.040 E0.0160
G1 X40.655 Y92.671 E0.0765
G1 X40.678 Y92.665 E0.0777
G1 X40.938 Y92.595 E0.0912
G1 X40.961 Y92.590 E0.0923
G1 X42.155 Y92.330 E0.1533
G1 X42.179 Y92.325 E0.1545
G1 X42.447 Y92.280 E0.1681
G1 X42.471 Y92.277 E0.1693
G1 X43.702 Y92.130 E0.2312
G1 X43.727 Y92.127 E0.2324
G1 X44.006 Y92.108 E0.2463
G1 X44.030 Y92.107 E0.2476
G1 X45.220 Y92.082 E0.3069
G1 X45.232 Y92.082 E0.3075
G1 X45.367 Y92.082 E0.3142
G1 X45.378 Y92.082 E0.3148
G1 X175.476 Y95.526 E6.8077
G1 X175.488 Y95.527 E6.8083
G1 X175.626 Y95.534 E6.8152
G1 X175.638 Y95.534 E6.8158
G1 X176.787 Y95.621 E6.8733
G1 X176.806 Y95.623 E6.8742
G1 X177.028 Y95.648 E6.8854
G1 X177.047 Y95.651 E6.8863
G1 X177.914 Y95.784 E6.9301
G1 X177.934 Y95.788 E6.9311
G1 X178.163 Y95.833 E6.9428
G1 X178.183 Y95.837 E6.9438
G1 X179.366 Y96.121 E7.0045
G1 X179.389 Y96.127 E7.0056
G1 X179.648 Y96.202 E7.0191
G1 X179.671 Y96.209 E7.0203
G1 X180.819 Y96.602 E7.0809
G1 X180.842 Y96.610 E7.0821
G1 X181.098 Y96.712 E7.0958
G1 X181.120 Y96.722 E7.0970
G1 X182.216 Y97.219 E7.1570
G1 X182.237 Y97.229 E7.1582
G1 X182.472 Y97.350 E7.1714
G1 X182.493 Y97.361 E7.1726
G1 X183.531 Y97.954 E7.2322
G1 X183.550 Y97.966 E7.2333
G1 X183.770 Y98.105 E7.2463
G1 X183.789 Y98.118 E7.2475
G1 X184.759 Y98.797 E7.3065
G1 X184.777 Y98.811 E7.3077
G1 X184.986 Y98.971 E7.3208
G1 X185.004 Y98.986 E7.3220
G1 X185.908 Y99.752 E7.3811
G1 X185.926 Y99.768 E7.3823
G1 X186.124 Y99.953 E7.3958
G1 X186.141 Y99.969 E7.3970
G1 X186.973 Y100.822 E7.4564
G1 X186.988 Y100.839 E7.4576
G1 X187.159 Y101.030 E7.4703
G1 X187.173 Y101.047 E7.4715
G1 X187.916 Y101.960 E7.5302
G1 X187.930 Y101.978 E7.5313
G1 X188.085 Y102.188 E7.5443
G1 X188.098 Y102.207 E7.5455
G1 X188.758 Y103.189 E7.6045
G1 X188.770 Y103.209 E7.6057
G1 X188.910 Y103.440 E7.6191
G1 X188.922 Y103.460 E7.6203
G1 X189.494 Y104.516 E7.6802
G1 X189.504 Y104.536 E7.6814
G1 X189.616 Y104.767 E7.6942
G1 X189.626 Y104.788 E7.6953
G1 X190.097 Y105.884 E7.7548
G1 X190.107 Y105.906 E7.7560
G1 X190.203 Y106.164 E7.7698
G1 X190.211 Y106.187 E7.7710
G1 X190.581 Y107.341 E7.8314
G1 X190.587 Y107.364 E7.8326
G1 X190.658 Y107.626 E7.8462
G1 X190.663 Y107.649 E7.8474
G1 X190.925 Y108.850 E7.9087
G1 X190.930 Y108.874 E7.9099
G1 X190.975 Y109.142 E7.9235
G1 X190.978 Y109.166 E7.9247
G1 X191.124 Y110.385 E7.9859
G1 X191.126 Y110.410 E7.9871
G1 X191.146 Y110.686 E8.0010
G1 X191.147 Y110.710 E8.0022
G1 X191.175 Y111.984 E8.0657
G1 X191.175 Y112.008 E8.0669
G1 X191.168 Y112.284 E8.0807
G1 X191.167 Y112.308 E8.0819
G1 X191.076 Y113.516 E8.1423
G1 X191.074 Y113.534 E8.1433
G1 X191.050 Y113.746 E8.1539
G1 X191.048 Y113.764 E8.1548
G1 X190.915 Y114.645 E8.1992
G1 X190.912 Y114.666 E8.2003
G1 X190.865 Y114.906 E8.2125
G1 X190.860 Y114.927 E8.2136
G1 X190.576 Y116.112 E8.2744
G1 X190.570 Y116.136 E8.2756
G1 X190.491 Y116.404 E8.2896
G1 X190.484 Y116.428 E8.2908
G1 X190.087 Y117.572 E8.3512
G1 X190.079 Y117.593 E8.3523
G1 X189.984 Y117.833 E8.3652
G1 X189.975 Y117.854 E8.3664
G1 X189.480 Y118.949 E8.4263
G1 X189.470 Y118.970 E8.4275
G1 X189.348 Y119.210 E8.4409
G1 X189.337 Y119.231 E8.4421
G1 X188.745 Y120.267 E8.5016
G1 X188.733 Y120.287 E8.5028
G1 X188.590 Y120.512 E8.5160
G1 X188.577 Y120.531 E8.5172
G1 X187.898 Y121.498 E8.5762
G1 X187.885 Y121.517 E8.5773
G1 X187.727 Y121.721 E8.5902
G1 X187.713 Y121.739 E8.5913
G1 X186.943 Y122.647 E8.6507
G1 X186.928 Y122.665 E8.6519
G1 X186.748 Y122.858 E8.6651
G1 X186.732 Y122.874 E8.6662
G1 X185.894 Y123.696 E8.7248
G1 X185.877 Y123.712 E8.7259
G1 X185.683 Y123.886 E8.7389
G1 X185.665 Y123.900 E8.7401
G1 X184.743 Y124.652 E8.7994
G1 X184.725 Y124.667 E8.8006
G1 X184.508 Y124.827 E8.8141
G1 X184.488 Y124.841 E8.8152
G1 X183.500 Y125.502 E8.8746
G1 X183.481 Y125.514 E8.8757
G1 X183.259 Y125.648 E8.8886
G1 X183.240 Y125.659 E8.8897
G1 X182.196 Y126.227 E8.9490
G1 X182.176 Y126.238 E8.9501
G1 X181.941 Y126.352 E8.9632
G1 X181.920 Y126.361 E8.9643
G1 X180.820 Y126.836 E9.0241
G1 X180.798 Y126.845 E9.0253
G1 X180.538 Y126.942 E9.0391
G1 X180.515 Y126.950 E9.0404
G1 X179.357 Y127.320 E9.1010
G1 X179.335 Y127.327 E9.1022
G1 X179.075 Y127.397 E9.1156
G1 X179.052 Y127.402 E9.1168
G1 X177.852 Y127.665 E9.1780
G1 X177.828 Y127.669 E9.1792
G1 X177.558 Y127.715 E9.1929
G1 X177.534 Y127.718 E9.1941
G1 X176.296 Y127.866 E9.2563
G1 X176.272 Y127.869 E9.2576
G1 X175.992 Y127.888 E9.2715
G1 X175.968 Y127.889 E9.2727
G1 X174.778 Y127.914 E9.3321
G1 X174.766 Y127.914 E9.3327
G1 X174.631 Y127.914 E9.3395
G1 X174.619 Y127.914 E9.3400
G1 X44.544 Y124.471 E15.8318
G1 X44.532 Y124.470 E15.8324
G1 X44.397 Y124.463 E15.8391
G1 X44.385 Y124.463 E15.8397
G1 X43.200 Y124.375 E15.8990
G1 X43.180 Y124.373 E15.9000
G1 X42.950 Y124.347 E15.9116
G1 X42.930 Y124.344 E15.9126
G1 X42.063 Y124.208 E15.9563
G1 X42.044 Y124.205 E15.9573
G1 X41.817 Y124.160 E15.9688
G1 X41.798 Y124.156 E15.9699
G1 X40.628 Y123.874 E16.0299
G1 X40.605 Y123.868 E16.0311
G1 X40.348 Y123.794 E16.0444
G1 X40.326 Y123.787 E16.0456
G1 X39.174 Y123.393 E16.1063
G1 X39.151 Y123.384 E16.1075
G1 X38.894 Y123.282 E16.1213
G1 X38.872 Y123.272 E16.1225
G1 X37.773 Y122.772 E16.1828
G1 X37.752 Y122.762 E16.1839
G1 X37.515 Y122.641 E16.1972
G1 X37.495 Y122.630 E16.1984
G1 X36.461 Y122.038 E16.2578
G1 X36.441 Y122.026 E16.2589
G1 X36.222 Y121.887 E16.2719
G1 X36.204 Y121.875 E16.2730
G1 X35.231 Y121.194 E16.3322
G1 X35.212 Y121.180 E16.3334
G1 X35.000 Y121.016 E16.3468
G1 X34.982 Y121.001 E16.3480
G1 X34.077 Y120.231 E16.4072
G1 X34.060 Y120.216 E16.4084
G1 X33.868 Y120.036 E16.4215
G1 X33.852 Y120.020 E16.4226
G1 X33.027 Y119.176 E16.4815
G1 X33.012 Y119.160 E16.4826
G1 X32.840 Y118.967 E16.4955
G1 X32.826 Y118.950 E16.4966
G1 X32.077 Y118.029 E16.5558
G1 X32.062 Y118.011 E16.5570
G1 X31.902 Y117.794 E16.5704
G1 X31.889 Y117.775 E16.5716
G1 X31.232 Y116.790 E16.6307
G1 X31.220 Y116.771 E16.6318
G1 X31.089 Y116.555 E16.6444
G1 X31.078 Y116.536 E16.6455
G1 X30.508 Y115.492 E16.7048
G1 X30.497 Y115.471 E16.7060
G1 X30.378 Y115.226 E16.7196
G1 X30.368 Y115.205 E16.7208
G1 X29.895 Y114.098 E16.7808
G1 X29.886 Y114.076 E16.7820
G1 X29.791 Y113.820 E16.7956
G1 X29.783 Y113.798 E16.7968
G1 X29.414 Y112.642 E16.8573
G1 X29.407 Y112.619 E16.8585
G1 X29.338 Y112.359 E16.8719
G1 X29.332 Y112.336 E16.8731
G1 X29.072 Y111.142 E16.9341
G1 X29.068 Y111.118 E16.9353
G1 X29.023 Y110.850 E16.9489
G1 X29.019 Y110.826 E16.9501
G1 X28.872 Y109.594 E17.0120
G1 X28.870 Y109.570 E17.0132
G1 X28.850 Y109.291 E17.0271
G1 X28.849 Y109.266 E17.0284
G1 X28.823 Y108.004 E17.0913
G1 X28.823 Y107.980 E17.0925
G1 X28.831 Y107.708 E17.1061
G1 X28.832 Y107.684 E17.1073
G1 X28.924 Y106.457 E17.1687
G1 X28.926 Y106.438 E17.1697
G1 X28.950 Y106.219 E17.1806
G1 X28.953 Y106.200 E17.1816
G1 X29.086 Y105.335 E17.2253
G1 X29.089 Y105.314 E17.2263
G1 X29.135 Y105.080 E17.2383
G1 X29.140 Y105.059 E17.2393
G1 X29.423 Y103.879 E17.2998
G1 X29.430 Y103.856 E17.3010
G1 X29.506 Y103.593 E17.3147
G1 X29.514 Y103.570 E17.3159
G1 X29.910 Y102.421 E17.3766
G1 X29.918 Y102.399 E17.3777
G1 X30.018 Y102.147 E17.3912
G1 X30.028 Y102.126 E17.3924
G1 X30.525 Y101.032 E17.4524
G1 X30.535 Y101.011 E17.4535
G1 X30.654 Y100.780 E17.4665
G1 X30.664 Y100.760 E17.4676
G1 X31.255 Y99.723 E17.5271
G1 X31.268 Y99.703 E17.5283
G1 X31.412 Y99.475 E17.5418
G1 X31.425 Y99.456 E17.5429
G1 X32.110 Y98.482 E17.6024
G1 X32.124 Y98.463 E17.6035
G1 X32.285 Y98.255 E17.6166
G1 X32.300 Y98.237 E17.6178
G1 X33.066 Y97.336 E17.6768
G1 X33.081 Y97.319 E17.6779
G1 X33.258 Y97.130 E17.6908
G1 X33.273 Y97.114 E17.6920
G1 X34.115 Y96.290 E17.7507
G1 X34.132 Y96.274 E17.7519
G1 X34.328 Y96.099 E17.7650
G1 X34.345 Y96.084 E17.7661
G1 X35.267 Y95.334 E17.8254
G1 X35.286 Y95.319 E17.8266
G1 X35.503 Y95.159 E17.8401
G1 X35.522 Y95.146 E17.8412
G1 X36.507 Y94.489 E17.9003
G1 X36.526 Y94.477 E17.9014
G1 X36.742 Y94.346 E17.9140
G1 X36.761 Y94.335 E17.9151
G1 X37.805 Y93.765 E17.9745
G1 X37.826 Y93.754 E17.9757
G1 X38.071 Y93.635 E17.9892
G1 X38.092 Y93.626 E17.9904
G1 X39.199 Y93.152 E18.0504
G1 X39.352 Y93.522 F4800
G92 E0
G1 X39.365 Y93.516 E0.0007 F2100
G1 X39.612 Y93.424 E0.0139
G1 X39.625 Y93.420 E0.0146
G1 X40.772 Y93.054 E0.0746
G1 X40.786 Y93.050 E0.0753
G1 X41.037 Y92.983 E0.0883
G1 X41.051 Y92.979 E0.0890
G1 X42.236 Y92.722 E0.1495
G1 X42.250 Y92.719 E0.1502
G1 X42.509 Y92.675 E0.1633
G1 X42.523 Y92.673 E0.1640
G1 X43.745 Y92.527 E0.2255
G1 X43.760 Y92.526 E0.2262
G1 X44.029 Y92.507 E0.2396
G1 X44.044 Y92.506 E0.2404
G1 X45.226 Y92.482 E0.2994
G1 X45.233 Y92.482 E0.2998
G1 X45.363 Y92.482 E0.3062
G1 X45.370 Y92.482 E0.3066
G1 X175.463 Y95.926 E6.7992
G1 X175.470 Y95.926 E6.7996
G1 X175.604 Y95.933 E6.8062
G1 X175.611 Y95.934 E6.8066
G1 X176.753 Y96.019 E6.8637
G1 X176.765 Y96.020 E6.8643
G1 X176.978 Y96.045 E6.8751
G1 X176.990 Y96.046 E6.8756
G1 X177.849 Y96.179 E6.9190
G1 X177.861 Y96.181 E6.9196
G1 X178.082 Y96.225 E6.9308
G1 X178.094 Y96.227 E6.9315
G1 X179.268 Y96.508 E6.9917
G1 X179.282 Y96.512 E6.9924
G1 X179.532 Y96.585 E7.0054
G1 X179.546 Y96.589 E7.0061
G1 X180.685 Y96.979 E7.0662
G1 X180.699 Y96.984 E7.0669
G1 X180.946 Y97.082 E7.0802
G1 X180.959 Y97.088 E7.0809
G1 X182.046 Y97.582 E7.1405
G1 X182.059 Y97.588 E7.1412
G1 X182.286 Y97.704 E7.1539
G1 X182.298 Y97.711 E7.1546
G1 X183.328 Y98.299 E7.2138
G1 X183.340 Y98.306 E7.2145
G1 X183.552 Y98.441 E7.2270
G1 X183.563 Y98.448 E7.2277
G1 X184.526 Y99.122 E7.2863
G1 X184.537 Y99.130 E7.2870
G1 X184.738 Y99.285 E7.2996
G1 X184.749 Y99.294 E7.3003
G1 X185.646 Y100.054 E7.3590
G1 X185.657 Y100.064 E7.3597
G1 X185.848 Y100.242 E7.3728
G1 X185.858 Y100.252 E7.3735
G1 X186.683 Y101.098 E7.4325
G1 X186.693 Y101.108 E7.4331
