; G-Code generated by Simplify3D(R) Version 4.0.0
; Jul 6, 2020 at 2:19:05 PM
; Settings Summary
;   processName,Process1
;   applyToModels,Right Handle
;   profileName,Cat_Fast (modified)
;   profileVersion,2020-01-05 00:41:03
;   baseProfile,Default (modified)
;   printMaterial,PLA
;   printQuality,Fast
;   printExtruders,
;   extruderName,Primary Extruder
;   extruderToolheadNumber,0
;   extruderDiameter,0.4
;   extruderAutoWidth,0
;   extruderWidth,0.4
;   extrusionMultiplier,1
;   extruderUseRetract,1
;   extruderRetractionDistance,10
;   extruderExtraRestartDistance,0
;   extruderRetractionZLift,0.3
;   extruderRetractionSpeed,6000
;   extruderUseCoasting,0
;   extruderCoastingDistance,0.2
;   extruderUseWipe,1
;   extruderWipeDistance,2
;   primaryExtruder,0
;   layerHeight,0.3
;   topSolidLayers,3
;   bottomSolidLayers,3
;   perimeterOutlines,3
;   printPerimetersInsideOut,1
;   startPointOption,3
;   startPointOriginX,100
;   startPointOriginY,150
;   sequentialIslands,1
;   spiralVaseMode,0
;   firstLayerHeightPercentage,90
;   firstLayerWidthPercentage,100
;   firstLayerUnderspeed,0.5
;   useRaft,0
;   raftExtruder,0
;   raftTopLayers,3
;   raftBaseLayers,2
;   raftOffset,3
;   raftSeparationDistance,0.14
;   raftTopInfill,100
;   aboveRaftSpeedMultiplier,0.3
;   useSkirt,1
;   skirtExtruder,0
;   skirtLayers,1
;   skirtOutlines,3
;   skirtOffset,5.2
;   usePrimePillar,0
;   primePillarExtruder,999
;   primePillarWidth,12
;   primePillarLocation,7
;   primePillarSpeedMultiplier,1
;   useOozeShield,0
;   oozeShieldExtruder,999
;   oozeShieldOffset,2
;   oozeShieldOutlines,1
;   oozeShieldSidewallShape,1
;   oozeShieldSidewallAngle,30
;   oozeShieldSpeedMultiplier,1
;   infillExtruder,0
;   internalInfillPattern,Rectilinear
;   externalInfillPattern,Rectilinear
;   infillPercentage,15
;   outlineOverlapPercentage,30
;   infillExtrusionWidthPercentage,100
;   minInfillLength,5
;   infillLayerInterval,1
;   internalInfillAngles,45,-45
;   overlapInternalInfillAngles,0
;   externalInfillAngles,45,-45
;   generateSupport,1
;   supportExtruder,0
;   supportInfillPercentage,25
;   supportExtraInflation,0
;   supportBaseLayers,0
;   denseSupportExtruder,0
;   denseSupportLayers,0
;   denseSupportInfillPercentage,70
;   supportLayerInterval,1
;   supportHorizontalPartOffset,0.3
;   supportUpperSeparationLayers,1
;   supportLowerSeparationLayers,1
;   supportType,0
;   supportGridSpacing,4
;   maxOverhangAngle,40
;   supportAngles,0
;   temperatureName,Primary Extruder,Bed
;   temperatureNumber,0,0
;   temperatureSetpointCount,1,1
;   temperatureSetpointLayers,1,1
;   temperatureSetpointTemperatures,205,60
;   temperatureStabilizeAtStartup,1,1
;   temperatureHeatedBed,0,1
;   temperatureRelayBetweenLayers,0,0
;   temperatureRelayBetweenLoops,0,0
;   fanLayers,1,2
;   fanSpeeds,0,100
;   blipFanToFullPower,0
;   adjustSpeedForCooling,1
;   minSpeedLayerTime,15
;   minCoolingSpeedSlowdown,20
;   increaseFanForCooling,0
;   minFanLayerTime,30
;   maxCoolingFanSpeed,100
;   increaseFanForBridging,0
;   bridgingFanSpeed,100
;   use5D,1
;   relativeEdistances,0
;   allowEaxisZeroing,1
;   independentExtruderAxes,0
;   includeM10123,0
;   stickySupport,1
;   applyToolheadOffsets,0
;   gcodeXoffset,0
;   gcodeYoffset,0
;   gcodeZoffset,0
;   overrideMachineDefinition,1
;   machineTypeOverride,0
;   strokeXoverride,220
;   strokeYoverride,220
;   strokeZoverride,250
;   originOffsetXoverride,0
;   originOffsetYoverride,0
;   originOffsetZoverride,0
;   homeXdirOverride,-1
;   homeYdirOverride,-1
;   homeZdirOverride,-1
;   flipXoverride,1
;   flipYoverride,-1
;   flipZoverride,1
;   toolheadOffsets,0,0|0,0|0,0|0,0|0,0|0,0
;   overrideFirmwareConfiguration,0
;   firmwareTypeOverride,RepRap (Marlin/Repetier/Sprinter)
;   GPXconfigOverride,r2
;   baudRateOverride,115200
;   overridePrinterModels,0
;   printerModelsOverride
;   startingGcode,G28 ; home all axes,G29; BLTOUCH mesh generation,G92 E0.0,G1 Z5;,G1 X10 Y10 Z0 F6000;,G1 X60.0 E9.0  F1000.0 ; intro line,G1 X100.0 E12.5  F1000.0 ; intro line,G92 E0.0
;   layerChangeGcode,G4 P1
;   retractionGcode,
;   toolChangeGcode,
;   endingGcode,G28 X0 Y0 ; home X axis and y axis,;G1 Z180 F300 ; lower platform to bottom,M104 S0 ; kill extruder temperature,M140 S0 ; kill bed temperature,M107; kill fan,M84 ; disable motors
;   exportFileFormat,gcode
;   celebration,0
;   celebrationSong,Funky Town
;   postProcessing,curl -k -H "X-Api-Key: B48F0C35933E47C49712EE720641ACF0" -F "select=false" -F "print=false" -F "file=@[output_filepath]" "http://192.168.0.5/api/files/local" {STRIP "; postProcessing"}
;   defaultSpeed,4200
;   outlineUnderspeed,0.5
;   solidInfillUnderspeed,0.8
;   supportUnderspeed,0.8
;   rapidXYspeed,4800
;   rapidZspeed,1002
;   minBridgingArea,50
;   bridgingExtraInflation,1
;   bridgingExtrusionMultiplier,1
;   bridgingSpeedMultiplier,1
;   useFixedBridgingAngle,0
;   fixedBridgingAngle,0
;   applyBridgingToPerimeters,0
;   filamentDiameters,1.75|1.75|1.75|1.75|1.75|1.75
;   filamentPricesPerKg,25.99|46|46|46|46|46
;   filamentDensities,1.25|1.25|1.25|1.25|1.25|1.25
;   useMinPrintHeight,0
;   minPrintHeight,0
;   useMaxPrintHeight,0
;   maxPrintHeight,5
;   useDiaphragm,0
;   diaphragmLayerInterval,20
;   robustSlicing,1
;   mergeAllIntoSolid,0
;   onlyRetractWhenCrossingOutline,1
;   retractBetweenLayers,1
;   useRetractionMinTravel,0
;   retractionMinTravel,3
;   retractWhileWiping,0
;   onlyWipeOutlines,1
;   avoidCrossingOutline,1
;   maxMovementDetourFactor,3
;   toolChangeRetractionDistance,12
;   toolChangeExtraRestartDistance,-0.5
;   toolChangeRetractionSpeed,600
;   externalThinWallType,0
;   internalThinWallType,2
;   thinWallAllowedOverlapPercentage,10
;   singleExtrusionMinLength,1
;   singleExtrusionMinPrintingWidthPercentage,50
;   singleExtrusionMaxPrintingWidthPercentage,200
;   singleExtrusionEndpointExtension,0.2
;   horizontalSizeCompensation,0
G90
M82
M106 S0
M140 S60
M190 S60
M104 S205 T0
M109 S205 T0
G28 ; home all axes
G29; BLTOUCH mesh generation
G92 E0.0
G1 Z5;
G1 X10 Y10 Z0 F6000;
G1 X60.0 E9.0  F1000.0 ; intro line
G1 X100.0 E12.5  F1000.0 ; intro line
G92 E0.0
G92 E0
G1 E-10.0000 F6000
G1 Z0.570 F1002
; process Process1
; layer 1, Z = 0.270
G4 P1
T0
; tool H0.300 W0.400
; skirt
G1 X38.880 Y96.747 F4800
G1 Z0.270 F1002
G1 E0.0000 F1800
G92 E0
G1 X39.134 Y96.645 E0.0136 F2100
G1 X39.156 Y96.637 E0.0148
G1 X40.301 Y96.243 E0.0752
G1 X40.323 Y96.236 E0.0764
G1 X40.580 Y96.161 E0.0897
G1 X40.603 Y96.155 E0.0909
G1 X41.772 Y95.872 E0.1509
G1 X41.792 Y95.868 E0.1519
G1 X42.017 Y95.822 E0.1634
G1 X42.037 Y95.819 E0.1644
G1 X42.919 Y95.679 E0.2089
G1 X42.939 Y95.677 E0.2100
G1 X43.169 Y95.650 E0.2215
G1 X43.189 Y95.648 E0.2226
G1 X44.349 Y95.560 E0.2806
G1 X44.361 Y95.559 E0.2812
G1 X44.499 Y95.552 E0.2881
G1 X44.511 Y95.552 E0.2887
G1 X174.611 Y92.054 E6.7817
G1 X174.623 Y92.053 E6.7823
G1 X174.757 Y92.053 E6.7890
G1 X174.769 Y92.053 E6.7896
G1 X175.898 Y92.076 E6.8459
G1 X175.921 Y92.077 E6.8471
G1 X176.184 Y92.094 E6.8603
G1 X176.207 Y92.097 E6.8614
G1 X177.433 Y92.235 E6.9229
G1 X177.456 Y92.239 E6.9241
G1 X177.725 Y92.282 E6.9377
G1 X177.749 Y92.287 E6.9389
G1 X178.956 Y92.542 E7.0005
G1 X178.979 Y92.547 E7.0017
G1 X179.243 Y92.616 E7.0152
G1 X179.266 Y92.623 E7.0164
G1 X180.474 Y93.002 E7.0796
G1 X180.498 Y93.010 E7.0809
G1 X180.766 Y93.109 E7.0951
G1 X180.789 Y93.118 E7.0964
G1 X181.901 Y93.594 E7.1567
G1 X181.923 Y93.604 E7.1579
G1 X182.167 Y93.722 E7.1714
G1 X182.188 Y93.733 E7.1726
G1 X183.232 Y94.303 E7.2320
G1 X183.251 Y94.314 E7.2331
G1 X183.468 Y94.444 E7.2457
G1 X183.486 Y94.456 E7.2468
G1 X184.472 Y95.113 E7.3059
G1 X184.491 Y95.127 E7.3071
G1 X184.708 Y95.287 E7.3205
G1 X184.727 Y95.301 E7.3217
G1 X185.649 Y96.051 E7.3810
G1 X185.667 Y96.066 E7.3821
G1 X185.862 Y96.240 E7.3952
G1 X185.879 Y96.256 E7.3964
G1 X186.721 Y97.080 E7.4552
G1 X186.737 Y97.097 E7.4563
G1 X186.913 Y97.285 E7.4692
G1 X186.928 Y97.302 E7.4703
G1 X187.696 Y98.203 E7.5293
G1 X187.710 Y98.221 E7.5305
G1 X187.871 Y98.429 E7.5436
G1 X187.885 Y98.447 E7.5448
G1 X188.571 Y99.421 E7.6042
G1 X188.584 Y99.441 E7.6053
G1 X188.728 Y99.669 E7.6188
G1 X188.740 Y99.689 E7.6200
G1 X189.332 Y100.725 E7.6795
G1 X189.343 Y100.745 E7.6806
G1 X189.461 Y100.977 E7.6936
G1 X189.471 Y100.997 E7.6948
G1 X189.969 Y102.091 E7.7547
G1 X189.978 Y102.112 E7.7559
G1 X190.079 Y102.364 E7.7694
G1 X190.087 Y102.386 E7.7706
G1 X190.484 Y103.535 E7.8312
G1 X190.491 Y103.558 E7.8324
G1 X190.568 Y103.821 E7.8461
G1 X190.574 Y103.844 E7.8473
G1 X190.858 Y105.024 E7.9078
G1 X190.863 Y105.044 E7.9089
G1 X190.909 Y105.279 E7.9208
G1 X190.913 Y105.300 E7.9218
G1 X191.044 Y106.155 E7.9650
G1 X191.047 Y106.174 E7.9660
G1 X191.071 Y106.391 E7.9769
G1 X191.073 Y106.410 E7.9778
G1 X191.167 Y107.646 E8.0397
G1 X191.168 Y107.670 E8.0409
G1 X191.176 Y107.944 E8.0545
G1 X191.176 Y107.968 E8.0557
G1 X191.151 Y109.231 E8.1188
G1 X191.149 Y109.255 E8.1200
G1 X191.130 Y109.534 E8.1339
G1 X191.128 Y109.559 E8.1352
G1 X190.981 Y110.791 E8.1971
G1 X190.978 Y110.814 E8.1982
G1 X190.933 Y111.083 E8.2118
G1 X190.928 Y111.106 E8.2130
G1 X190.669 Y112.301 E8.2740
G1 X190.663 Y112.324 E8.2752
G1 X190.594 Y112.584 E8.2886
G1 X190.587 Y112.606 E8.2898
G1 X190.219 Y113.763 E8.3503
G1 X190.211 Y113.785 E8.3515
G1 X190.116 Y114.041 E8.3651
G1 X190.107 Y114.063 E8.3663
G1 X189.634 Y115.170 E8.4264
G1 X189.624 Y115.191 E8.4275
G1 X189.506 Y115.436 E8.4411
G1 X189.495 Y115.457 E8.4423
G1 X188.925 Y116.501 E8.5016
G1 X188.914 Y116.520 E8.5027
G1 X188.783 Y116.736 E8.5153
G1 X188.771 Y116.755 E8.5164
G1 X188.115 Y117.740 E8.5755
G1 X188.101 Y117.760 E8.5767
G1 X187.941 Y117.977 E8.5901
G1 X187.927 Y117.995 E8.5913
G1 X187.178 Y118.916 E8.6505
G1 X187.164 Y118.933 E8.6516
G1 X186.992 Y119.126 E8.6645
G1 X186.976 Y119.143 E8.6657
G1 X186.152 Y119.987 E8.7245
G1 X186.136 Y120.003 E8.7257
G1 X185.944 Y120.182 E8.7388
G1 X185.927 Y120.198 E8.7399
G1 X185.023 Y120.968 E8.7992
G1 X185.005 Y120.983 E8.8003
G1 X184.792 Y121.147 E8.8137
G1 X184.773 Y121.161 E8.8149
G1 X183.801 Y121.842 E8.8741
G1 X183.783 Y121.855 E8.8753
G1 X183.564 Y121.994 E8.8882
G1 X183.544 Y122.006 E8.8893
G1 X182.511 Y122.598 E8.9488
G1 X182.490 Y122.609 E8.9499
G1 X182.254 Y122.730 E8.9632
G1 X182.233 Y122.741 E8.9643
G1 X181.134 Y123.241 E9.0246
G1 X181.112 Y123.250 E9.0258
G1 X180.856 Y123.352 E9.0395
G1 X180.833 Y123.361 E9.0407
G1 X179.683 Y123.755 E9.1014
G1 X179.661 Y123.762 E9.1025
G1 X179.403 Y123.837 E9.1159
G1 X179.381 Y123.843 E9.1171
G1 X178.208 Y124.126 E9.1773
G1 X178.188 Y124.130 E9.1783
G1 X177.962 Y124.175 E9.1898
G1 X177.942 Y124.178 E9.1908
G1 X177.078 Y124.314 E9.2345
G1 X177.058 Y124.317 E9.2355
G1 X176.830 Y124.343 E9.2469
G1 X176.810 Y124.345 E9.2479
G1 X175.646 Y124.433 E9.3062
G1 X175.634 Y124.433 E9.3068
G1 X175.496 Y124.440 E9.3136
G1 X175.484 Y124.441 E9.3142
G1 X45.391 Y127.939 E15.8069
G1 X45.379 Y127.939 E15.8075
G1 X45.245 Y127.939 E15.8142
G1 X45.233 Y127.939 E15.8148
G1 X44.060 Y127.915 E15.8734
G1 X44.036 Y127.914 E15.8746
G1 X43.762 Y127.896 E15.8883
G1 X43.738 Y127.893 E15.8895
G1 X42.493 Y127.747 E15.9520
G1 X42.469 Y127.744 E15.9532
G1 X42.196 Y127.699 E15.9670
G1 X42.172 Y127.694 E15.9682
G1 X40.986 Y127.437 E16.0288
G1 X40.963 Y127.431 E16.0299
G1 X40.706 Y127.363 E16.0432
G1 X40.683 Y127.356 E16.0444
G1 X39.520 Y126.987 E16.1053
G1 X39.496 Y126.979 E16.1065
G1 X39.234 Y126.882 E16.1205
G1 X39.211 Y126.873 E16.1217
G1 X38.107 Y126.399 E16.1817
G1 X38.086 Y126.389 E16.1828
G1 X37.852 Y126.276 E16.1958
G1 X37.831 Y126.265 E16.1969
G1 X36.792 Y125.702 E16.2559
G1 X36.772 Y125.691 E16.2571
G1 X36.552 Y125.558 E16.2699
G1 X36.533 Y125.546 E16.2710
G1 X35.543 Y124.888 E16.3303
G1 X35.524 Y124.875 E16.3315
G1 X35.307 Y124.715 E16.3449
G1 X35.288 Y124.700 E16.3461
G1 X34.363 Y123.950 E16.4056
G1 X34.345 Y123.935 E16.4067
G1 X34.149 Y123.760 E16.4198
G1 X34.132 Y123.744 E16.4210
G1 X33.286 Y122.918 E16.4800
G1 X33.270 Y122.901 E16.4811
G1 X33.091 Y122.709 E16.4942
G1 X33.075 Y122.692 E16.4954
G1 X32.313 Y121.795 E16.5541
G1 X32.299 Y121.777 E16.5553
G1 X32.141 Y121.574 E16.5681
G1 X32.127 Y121.556 E16.5692
G1 X31.439 Y120.581 E16.6288
G1 X31.426 Y120.561 E16.6299
G1 X31.282 Y120.335 E16.6433
G1 X31.270 Y120.315 E16.6445
G1 X30.678 Y119.283 E16.7039
G1 X30.667 Y119.262 E16.7050
G1 X30.545 Y119.024 E16.7184
G1 X30.535 Y119.003 E16.7195
G1 X30.040 Y117.913 E16.7793
G1 X30.031 Y117.892 E16.7804
G1 X29.935 Y117.652 E16.7933
G1 X29.927 Y117.630 E16.7944
G1 X29.526 Y116.483 E16.8551
G1 X29.519 Y116.459 E16.8563
G1 X29.440 Y116.191 E16.8703
G1 X29.433 Y116.167 E16.8715
G1 X29.148 Y114.987 E16.9320
G1 X29.144 Y114.967 E16.9331
G1 X29.097 Y114.733 E16.9450
G1 X29.094 Y114.712 E16.9461
G1 X28.959 Y113.839 E16.9901
G1 X28.956 Y113.820 E16.9911
G1 X28.931 Y113.600 E17.0021
G1 X28.929 Y113.581 E17.0031
G1 X28.835 Y112.344 E17.0650
G1 X28.834 Y112.320 E17.0662
G1 X28.826 Y112.046 E17.0798
G1 X28.826 Y112.022 E17.0810
G1 X28.851 Y110.768 E17.1436
G1 X28.852 Y110.743 E17.1449
G1 X28.872 Y110.466 E17.1587
G1 X28.874 Y110.441 E17.1600
G1 X29.020 Y109.210 E17.2218
G1 X29.023 Y109.186 E17.2230
G1 X29.068 Y108.918 E17.2366
G1 X29.072 Y108.895 E17.2378
G1 X29.332 Y107.695 E17.2990
G1 X29.338 Y107.672 E17.3002
G1 X29.408 Y107.408 E17.3138
G1 X29.415 Y107.385 E17.3150
G1 X29.781 Y106.237 E17.3752
G1 X29.789 Y106.214 E17.3764
G1 X29.885 Y105.957 E17.3900
G1 X29.894 Y105.935 E17.3912
G1 X30.364 Y104.837 E17.4508
G1 X30.373 Y104.817 E17.4519
G1 X30.484 Y104.588 E17.4646
G1 X30.494 Y104.568 E17.4657
G1 X31.066 Y103.506 E17.5259
G1 X31.078 Y103.485 E17.5271
G1 X31.220 Y103.250 E17.5408
G1 X31.233 Y103.230 E17.5420
G1 X31.888 Y102.252 E17.6007
G1 X31.901 Y102.233 E17.6019
G1 X32.056 Y102.024 E17.6148
G1 X32.070 Y102.006 E17.6160
G1 X32.812 Y101.091 E17.6747
G1 X32.826 Y101.074 E17.6759
G1 X32.996 Y100.883 E17.6886
G1 X33.011 Y100.867 E17.6897
G1 X33.851 Y100.003 E17.7498
G1 X33.868 Y99.986 E17.7510
G1 X34.067 Y99.800 E17.7646
G1 X34.085 Y99.784 E17.7658
G1 X34.977 Y99.026 E17.8242
G1 X34.995 Y99.012 E17.8254
G1 X35.201 Y98.853 E17.8384
G1 X35.220 Y98.839 E17.8395
G1 X36.186 Y98.160 E17.8984
G1 X36.205 Y98.148 E17.8995
G1 X36.423 Y98.009 E17.9125
G1 X36.442 Y97.997 E17.9136
G1 X37.487 Y97.397 E17.9737
G1 X37.507 Y97.386 E17.9749
G1 X37.746 Y97.263 E17.9883
G1 X37.768 Y97.253 E17.9894
G1 X38.858 Y96.756 E18.0492
G1 X38.880 Y96.747 E18.0504
G1 X39.032 Y97.116 F4800
G92 E0
G1 X39.277 Y97.019 E0.0132 F2100
G1 X39.291 Y97.014 E0.0139
G1 X40.426 Y96.623 E0.0738
G1 X40.440 Y96.619 E0.0745
G1 X40.688 Y96.546 E0.0874
G1 X40.701 Y96.543 E0.0881
G1 X41.862 Y96.262 E0.1477
G1 X41.874 Y96.259 E0.1483
G1 X42.092 Y96.215 E0.1593
G1 X42.104 Y96.213 E0.1599
G1 X42.977 Y96.075 E0.2041
G1 X42.989 Y96.074 E0.2047
G1 X43.211 Y96.048 E0.2158
G1 X43.224 Y96.046 E0.2165
G1 X44.377 Y95.959 E0.2741
G1 X44.384 Y95.959 E0.2745
G1 X44.517 Y95.952 E0.2812
G1 X44.525 Y95.952 E0.2815
G1 X174.619 Y92.454 E6.7743
G1 X174.626 Y92.453 E6.7747
G1 X174.756 Y92.453 E6.7811
G1 X174.763 Y92.453 E6.7815
G1 X175.885 Y92.476 E6.8375
G1 X175.899 Y92.476 E6.8382
G1 X176.153 Y92.493 E6.8509
G1 X176.167 Y92.495 E6.8516
G1 X177.383 Y92.632 E6.9126
G1 X177.397 Y92.634 E6.9133
G1 X177.656 Y92.676 E6.9265
G1 X177.671 Y92.679 E6.9272
G1 X178.868 Y92.932 E6.9883
G1 X178.882 Y92.935 E6.9890
G1 X179.137 Y93.002 E7.0021
G1 X179.150 Y93.006 E7.0028
G1 X180.350 Y93.382 E7.0655
G1 X180.364 Y93.387 E7.0663
G1 X180.622 Y93.483 E7.0800
G1 X180.636 Y93.488 E7.0807
G1 X181.739 Y93.960 E7.1406
G1 X181.752 Y93.966 E7.1413
G1 X181.988 Y94.080 E7.1544
G1 X182.001 Y94.087 E7.1551
G1 X183.037 Y94.652 E7.2140
G1 X183.048 Y94.658 E7.2146
G1 X183.257 Y94.784 E7.2268
G1 X183.268 Y94.792 E7.2275
G1 X184.246 Y95.443 E7.2861
G1 X184.258 Y95.452 E7.2868
G1 X184.467 Y95.606 E7.2998
G1 X184.478 Y95.614 E7.3005
G1 X185.393 Y96.358 E7.3593
G1 X185.404 Y96.367 E7.3600
G1 X185.593 Y96.536 E7.3726
G1 X185.603 Y96.545 E7.3733
G1 X186.438 Y97.363 E7.4317
G1 X186.448 Y97.373 E7.4323
G1 X186.618 Y97.555 E7.4448
