; G-Code generated by Simplify3D(R) Version 4.0.0
; Jul 7, 2020 at 5:17:47 PM
; Settings Summary
;   processName,Process1
;   applyToModels,Right Axle
;   profileName,Cat_Fast (modified)
;   profileVersion,2020-01-05 00:41:03
;   baseProfile,Default (modified)
;   printMaterial,PLA
;   printQuality,Fast
;   printExtruders,
;   extruderName,Primary Extruder
;   extruderToolheadNumber,0
;   extruderDiameter,0.4
;   extruderAutoWidth,0
;   extruderWidth,0.4
;   extrusionMultiplier,1
;   extruderUseRetract,1
;   extruderRetractionDistance,10
;   extruderExtraRestartDistance,0
;   extruderRetractionZLift,0.3
;   extruderRetractionSpeed,6000
;   extruderUseCoasting,0
;   extruderCoastingDistance,0.2
;   extruderUseWipe,1
;   extruderWipeDistance,2
;   primaryExtruder,0
;   layerHeight,0.3
;   topSolidLayers,3
;   bottomSolidLayers,3
;   perimeterOutlines,3
;   printPerimetersInsideOut,1
;   startPointOption,3
;   startPointOriginX,100
;   startPointOriginY,150
;   sequentialIslands,1
;   spiralVaseMode,0
;   firstLayerHeightPercentage,90
;   firstLayerWidthPercentage,100
;   firstLayerUnderspeed,0.5
;   useRaft,1
;   raftExtruder,0
;   raftTopLayers,3
;   raftBaseLayers,2
;   raftOffset,3
;   raftSeparationDistance,0.14
;   raftTopInfill,100
;   aboveRaftSpeedMultiplier,0.3
;   useSkirt,0
;   skirtExtruder,0
;   skirtLayers,1
;   skirtOutlines,3
;   skirtOffset,5.2
;   usePrimePillar,0
;   primePillarExtruder,999
;   primePillarWidth,12
;   primePillarLocation,7
;   primePillarSpeedMultiplier,1
;   useOozeShield,0
;   oozeShieldExtruder,999
;   oozeShieldOffset,2
;   oozeShieldOutlines,1
;   oozeShieldSidewallShape,1
;   oozeShieldSidewallAngle,30
;   oozeShieldSpeedMultiplier,1
;   infillExtruder,0
;   internalInfillPattern,Rectilinear
;   externalInfillPattern,Rectilinear
;   infillPercentage,15
;   outlineOverlapPercentage,30
;   infillExtrusionWidthPercentage,100
;   minInfillLength,5
;   infillLayerInterval,1
;   internalInfillAngles,45,-45
;   overlapInternalInfillAngles,0
;   externalInfillAngles,45,-45
;   generateSupport,1
;   supportExtruder,0
;   supportInfillPercentage,25
;   supportExtraInflation,0
;   supportBaseLayers,0
;   denseSupportExtruder,0
;   denseSupportLayers,0
;   denseSupportInfillPercentage,70
;   supportLayerInterval,1
;   supportHorizontalPartOffset,0.3
;   supportUpperSeparationLayers,1
;   supportLowerSeparationLayers,1
;   supportType,0
;   supportGridSpacing,4
;   maxOverhangAngle,40
;   supportAngles,0
;   temperatureName,Primary Extruder,Bed
;   temperatureNumber,0,0
;   temperatureSetpointCount,1,1
;   temperatureSetpointLayers,1,1
;   temperatureSetpointTemperatures,205,60
;   temperatureStabilizeAtStartup,1,1
;   temperatureHeatedBed,0,1
;   temperatureRelayBetweenLayers,0,0
;   temperatureRelayBetweenLoops,0,0
;   fanLayers,1,2
;   fanSpeeds,0,100
;   blipFanToFullPower,0
;   adjustSpeedForCooling,1
;   minSpeedLayerTime,15
;   minCoolingSpeedSlowdown,20
;   increaseFanForCooling,0
;   minFanLayerTime,30
;   maxCoolingFanSpeed,100
;   increaseFanForBridging,0
;   bridgingFanSpeed,100
;   use5D,1
;   relativeEdistances,0
;   allowEaxisZeroing,1
;   independentExtruderAxes,0
;   includeM10123,0
;   stickySupport,1
;   applyToolheadOffsets,0
;   gcodeXoffset,0
;   gcodeYoffset,0
;   gcodeZoffset,0
;   overrideMachineDefinition,1
;   machineTypeOverride,0
;   strokeXoverride,220
;   strokeYoverride,220
;   strokeZoverride,250
;   originOffsetXoverride,0
;   originOffsetYoverride,0
;   originOffsetZoverride,0
;   homeXdirOverride,-1
;   homeYdirOverride,-1
;   homeZdirOverride,-1
;   flipXoverride,1
;   flipYoverride,-1
;   flipZoverride,1
;   toolheadOffsets,0,0|0,0|0,0|0,0|0,0|0,0
;   overrideFirmwareConfiguration,0
;   firmwareTypeOverride,RepRap (Marlin/Repetier/Sprinter)
;   GPXconfigOverride,r2
;   baudRateOverride,115200
;   overridePrinterModels,0
;   printerModelsOverride
;   startingGcode,G28 ; home all axes,G29; BLTOUCH mesh generation,G92 E0.0,G1 Z5;,G1 X10 Y10 Z0 F6000;,G1 X60.0 E9.0  F1000.0 ; intro line,G1 X100.0 E12.5  F1000.0 ; intro line,G92 E0.0
;   layerChangeGcode,G4 P1
;   retractionGcode,
;   toolChangeGcode,
;   endingGcode,G28 X0 Y0 ; home X axis and y axis,;G1 Z180 F300 ; lower platform to bottom,M104 S0 ; kill extruder temperature,M140 S0 ; kill bed temperature,M107; kill fan,M84 ; disable motors
;   exportFileFormat,gcode
;   celebration,0
;   celebrationSong,Funky Town
;   postProcessing,curl -k -H "X-Api-Key: B48F0C35933E47C49712EE720641ACF0" -F "select=false" -F "print=false" -F "file=@[output_filepath]" "http://192.168.0.5/api/files/local" {STRIP "; postProcessing"}
;   defaultSpeed,4200
;   outlineUnderspeed,0.5
;   solidInfillUnderspeed,0.8
;   supportUnderspeed,0.8
;   rapidXYspeed,4800
;   rapidZspeed,1002
;   minBridgingArea,50
;   bridgingExtraInflation,1
;   bridgingExtrusionMultiplier,1
;   bridgingSpeedMultiplier,1
;   useFixedBridgingAngle,0
;   fixedBridgingAngle,0
;   applyBridgingToPerimeters,0
;   filamentDiameters,1.75|1.75|1.75|1.75|1.75|1.75
;   filamentPricesPerKg,25.99|46|46|46|46|46
;   filamentDensities,1.25|1.25|1.25|1.25|1.25|1.25
;   useMinPrintHeight,0
;   minPrintHeight,0
;   useMaxPrintHeight,0
;   maxPrintHeight,5
;   useDiaphragm,0
;   diaphragmLayerInterval,20
;   robustSlicing,1
;   mergeAllIntoSolid,0
;   onlyRetractWhenCrossingOutline,1
;   retractBetweenLayers,1
;   useRetractionMinTravel,0
;   retractionMinTravel,3
;   retractWhileWiping,0
;   onlyWipeOutlines,1
;   avoidCrossingOutline,1
;   maxMovementDetourFactor,3
;   toolChangeRetractionDistance,12
;   toolChangeExtraRestartDistance,-0.5
;   toolChangeRetractionSpeed,600
;   externalThinWallType,0
;   internalThinWallType,2
;   thinWallAllowedOverlapPercentage,10
;   singleExtrusionMinLength,1
;   singleExtrusionMinPrintingWidthPercentage,50
;   singleExtrusionMaxPrintingWidthPercentage,200
;   singleExtrusionEndpointExtension,0.2
;   horizontalSizeCompensation,0
G90
M82
M106 S0
M140 S60
M190 S60
M104 S205 T0
M109 S205 T0
G28 ; home all axes
G29; BLTOUCH mesh generation
G92 E0.0
G1 Z5;
G1 X10 Y10 Z0 F6000;
G1 X60.0 E9.0  F1000.0 ; intro line
G1 X100.0 E12.5  F1000.0 ; intro line
G92 E0.0
G92 E0
G1 E-10.0000 F6000
G1 Z0.750 F1002
; process Process1
; layer 1, Z = 0.450
G4 P1
T0
; tool H0.500 W0.800
; raft
G1 X104.101 Y104.820 F4800
G1 Z0.450 F1002
G1 E0.0000 F1800
G92 E0
G1 X104.913 Y104.021 E0.1895 F525
G1 X105.086 Y103.878 E0.2268
G1 X106.026 Y103.229 E0.4167
G1 X106.224 Y103.117 E0.4547
G1 X107.264 Y102.641 E0.6448
G1 X107.480 Y102.564 E0.6830
G1 X108.586 Y102.278 E0.8730
G1 X108.808 Y102.241 E0.9104
G1 X109.945 Y102.151 E1.1000
G1 X110.169 Y102.152 E1.1373
G1 X111.306 Y102.258 E1.3272
G1 X111.531 Y102.300 E1.3652
G1 X112.632 Y102.603 E1.5553
G1 X112.846 Y102.683 E1.5932
G1 X113.891 Y103.180 E1.7856
G1 X115.297 Y103.180 E2.0194
G1 X116.820 Y104.703 E2.3776
G1 X116.820 Y106.113 E2.6121
G1 X116.884 Y106.226 E2.6337
G1 X117.358 Y107.266 E2.8237
G1 X117.433 Y107.478 E2.8611
G1 X117.721 Y108.582 E3.0509
G1 X117.759 Y108.807 E3.0888
G1 X117.849 Y109.945 E3.2786
G1 X117.848 Y110.169 E3.3160
G1 X117.741 Y111.307 E3.5060
G1 X117.700 Y111.532 E3.5441
G1 X117.396 Y112.634 E3.7342
G1 X117.316 Y112.848 E3.7721
G1 X116.825 Y113.880 E3.9622
G1 X116.709 Y114.077 E4.0002
G1 X116.046 Y115.006 E4.1900
G1 X115.901 Y115.176 E4.2273
G1 X115.089 Y115.977 E4.4169
G1 X114.915 Y116.121 E4.4545
G1 X113.973 Y116.772 E4.6448
G1 X113.772 Y116.885 E4.6832
G1 X112.734 Y117.358 E4.8730
G1 X112.522 Y117.433 E4.9103
G1 X111.418 Y117.721 E5.1001
G1 X111.193 Y117.759 E5.1380
G1 X110.055 Y117.849 E5.3278
G1 X109.831 Y117.848 E5.3652
G1 X108.694 Y117.742 E5.5550
G1 X108.469 Y117.700 E5.5930
G1 X107.368 Y117.397 E5.7831
G1 X107.154 Y117.317 E5.8210
G1 X106.109 Y116.820 E6.0134
G1 X104.703 Y116.820 E6.2472
G1 X103.180 Y115.297 E6.6054
G1 X103.180 Y113.888 E6.8398
G1 X103.117 Y113.777 E6.8609
G1 X102.641 Y112.737 E7.0512
G1 X102.564 Y112.520 E7.0895
G1 X102.278 Y111.414 E7.2794
G1 X102.241 Y111.192 E7.3169
G1 X102.151 Y110.055 E7.5065
G1 X102.152 Y109.831 E7.5438
G1 X102.259 Y108.692 E7.7339
G1 X102.300 Y108.467 E7.7721
G1 X102.607 Y107.356 E7.9637
G1 X102.687 Y107.143 E8.0016
G1 X103.175 Y106.119 E8.1902
G1 X103.290 Y105.925 E8.2278
G1 X103.953 Y104.993 E8.4179
G1 X104.101 Y104.820 E8.4557
G92 E0
G1 E-10.0000 F6000
G1 Z0.750 F1002
G1 X108.438 Y103.143 F4800
G1 Z0.450 F1002
G1 E0.0000 F6000
G92 E0
G1 X111.579 Y103.143 E0.5224 F525
G1 X112.386 Y103.365 E0.6616
G1 X112.534 Y103.420 E0.6878
G1 X113.710 Y103.980 E0.9044
G1 X114.966 Y103.980 E1.1132
G1 X116.020 Y105.034 E1.3612
G1 X116.020 Y105.429 E1.4267
G1 X104.633 Y105.429 E3.3204
G1 X104.584 Y105.486 E3.3329
G1 X103.962 Y106.360 E3.5114
G1 X103.882 Y106.495 E3.5374
G1 X103.424 Y107.456 E3.7144
G1 X103.369 Y107.604 E3.7407
G1 X103.338 Y107.714 E3.7598
G1 X116.668 Y107.714 E5.9765
G1 X116.938 Y108.750 E6.1545
G1 X116.964 Y108.906 E6.1808
G1 X117.049 Y109.974 E6.3589
G1 X117.049 Y110.000 E6.3633
G1 X102.951 Y110.000 E8.7078
G1 X102.951 Y110.026 E8.7122
G1 X103.036 Y111.094 E8.8902
G1 X103.062 Y111.247 E8.9162
G1 X103.330 Y112.286 E9.0945
G1 X116.662 Y112.286 E11.3118
G1 X116.634 Y112.388 E11.3294
G1 X116.579 Y112.536 E11.3556
G1 X116.118 Y113.505 E11.5341
G1 X116.038 Y113.641 E11.5604
G1 X115.415 Y114.513 E11.7385
G1 X115.365 Y114.571 E11.7513
G1 X103.980 Y114.571 E13.6447
G1 X103.980 Y114.966 E13.7102
G1 X105.034 Y116.020 E13.9582
G1 X106.289 Y116.020 E14.1669
G1 X107.466 Y116.580 E14.3836
G1 X107.614 Y116.635 E14.4098
G1 X108.421 Y116.857 E14.5490
G1 X111.560 Y116.857 E15.0711
G92 E0
G1 E-10.0000 F6000
G1 Z1.250 F1002
; layer 2, Z = 0.950
M106 S255
G4 P1
G1 X111.418 Y117.721 F4800
G1 Z0.950 F1002
G1 E0.0000 F6000
G92 E0
G1 X111.193 Y117.759 E0.0379 F1050
G1 X110.055 Y117.849 E0.2277
G1 X109.831 Y117.848 E0.2651
G1 X108.694 Y117.742 E0.4549
G1 X108.469 Y117.700 E0.4929
G1 X107.368 Y117.397 E0.6830
G1 X107.154 Y117.317 E0.7209
G1 X106.109 Y116.820 E0.9133
G1 X104.703 Y116.820 E1.1471
G1 X103.180 Y115.297 E1.5053
G1 X103.180 Y113.888 E1.7397
G1 X103.117 Y113.777 E1.7608
G1 X102.641 Y112.737 E1.9511
G1 X102.564 Y112.520 E1.9894
G1 X102.278 Y111.414 E2.1793
G1 X102.241 Y111.192 E2.2168
G1 X102.151 Y110.055 E2.4064
G1 X102.152 Y109.831 E2.4437
G1 X102.259 Y108.692 E2.6339
G1 X102.300 Y108.467 E2.6721
G1 X102.607 Y107.356 E2.8636
G1 X102.687 Y107.143 E2.9015
G1 X103.175 Y106.119 E3.0901
G1 X103.290 Y105.925 E3.1277
G1 X103.953 Y104.993 E3.3178
G1 X104.101 Y104.820 E3.3557
G1 X104.913 Y104.021 E3.5452
G1 X105.086 Y103.878 E3.5825
G1 X106.026 Y103.229 E3.7724
G1 X106.224 Y103.117 E3.8103
G1 X107.264 Y102.641 E4.0005
G1 X107.480 Y102.564 E4.0387
G1 X108.586 Y102.278 E4.2286
G1 X108.808 Y102.241 E4.2661
G1 X109.945 Y102.151 E4.4556
G1 X110.169 Y102.152 E4.4930
G1 X111.306 Y102.258 E4.6828
G1 X111.531 Y102.300 E4.7208
G1 X112.632 Y102.603 E4.9109
G1 X112.846 Y102.683 E4.9488
G1 X113.891 Y103.180 E5.1412
G1 X115.297 Y103.180 E5.3751
G1 X116.820 Y104.703 E5.7333
G1 X116.820 Y106.113 E5.9677
G1 X116.884 Y106.226 E5.9894
G1 X117.358 Y107.266 E6.1794
G1 X117.433 Y107.478 E6.2167
G1 X117.721 Y108.582 E6.4066
G1 X117.759 Y108.807 E6.4445
G1 X117.849 Y109.945 E6.6343
G1 X117.848 Y110.169 E6.6716
G1 X117.741 Y111.307 E6.8617
G1 X117.700 Y111.532 E6.8997
G1 X117.396 Y112.634 E7.0899
G1 X117.316 Y112.848 E7.1278
G1 X116.825 Y113.880 E7.3179
G1 X116.709 Y114.077 E7.3559
G1 X116.046 Y115.006 E7.5456
G1 X115.901 Y115.176 E7.5829
G1 X115.089 Y115.977 E7.7726
G1 X114.915 Y116.121 E7.8102
G1 X113.973 Y116.772 E8.0005
G1 X113.772 Y116.885 E8.0388
G1 X112.734 Y117.358 E8.2286
G1 X112.522 Y117.433 E8.2659
G1 X111.418 Y117.721 E8.4557
G92 E0
G1 E-10.0000 F6000
G1 Z1.250 F1002
G1 X111.560 Y116.857 F4800
G1 Z0.950 F1002
G1 E0.0000 F6000
G92 E0
G1 X108.421 Y116.857 E0.5221 F1050
G1 X107.614 Y116.635 E0.6612
G1 X107.466 Y116.580 E0.6875
G1 X106.289 Y116.020 E0.9041
G1 X105.034 Y116.020 E1.1129
G1 X103.980 Y114.966 E1.3608
G1 X103.980 Y114.571 E1.4264
G1 X115.365 Y114.571 E3.3197
G1 X115.415 Y114.513 E3.3326
G1 X116.038 Y113.641 E3.5107
G1 X116.118 Y113.505 E3.5370
G1 X116.579 Y112.536 E3.7155
G1 X116.634 Y112.388 E3.7417
G1 X116.662 Y112.286 E3.7593
G1 X103.330 Y112.286 E5.9766
G1 X103.062 Y111.247 E6.1549
G1 X103.036 Y111.094 E6.1808
G1 X102.951 Y110.026 E6.3589
G1 X102.951 Y110.000 E6.3633
G1 X117.049 Y110.000 E8.7077
G1 X117.049 Y109.974 E8.7121
G1 X116.964 Y108.906 E8.8903
G1 X116.938 Y108.750 E8.9166
G1 X116.668 Y107.714 E9.0945
G1 X103.338 Y107.714 E11.3113
G1 X103.369 Y107.604 E11.3304
G1 X103.424 Y107.456 E11.3567
G1 X103.882 Y106.495 E11.5337
G1 X103.962 Y106.360 E11.5597
G1 X104.584 Y105.486 E11.7381
G1 X104.633 Y105.429 E11.7507
G1 X116.020 Y105.429 E13.6443
G1 X116.020 Y105.034 E13.7099
G1 X114.966 Y103.980 E13.9579
G1 X113.710 Y103.980 E14.1666
G1 X112.534 Y103.420 E14.3833
G1 X112.386 Y103.365 E14.4095
G1 X111.579 Y103.143 E14.5487
G1 X108.438 Y103.143 E15.0711
G92 E0
G1 E-10.0000 F6000
G1 Z1.472 F1002
; layer 3, Z = 1.172
G4 P1
; tool H0.222 W0.400
G1 X103.743 Y104.944 F4800
G1 Z1.172 F1002
G1 E0.0000 F6000
G92 E0
G1 X104.973 Y103.713 E0.0643 F3150
G1 X105.919 Y103.060 E0.1068
G1 X106.133 Y102.938 E0.1159
G1 X106.466 Y102.786 E0.1294
G1 X102.790 Y106.462 E0.3216
G1 X102.503 Y107.065 E0.3462
G1 X102.417 Y107.295 E0.3553
G1 X102.376 Y107.442 E0.3609
G1 X107.453 Y102.364 E0.6263
G1 X108.216 Y102.167 E0.6554
G1 X102.160 Y108.224 E0.9719
G1 X102.105 Y108.422 E0.9795
G1 X102.060 Y108.665 E0.9887
G1 X102.037 Y108.912 E0.9978
G1 X108.917 Y102.032 E1.3574
G1 X109.532 Y101.983 E1.3802
G1 X101.979 Y109.536 E1.7749
G1 X101.952 Y109.821 E1.7855
G1 X101.951 Y110.063 E1.7945
G1 X101.955 Y110.125 E1.7968
G1 X110.129 Y101.952 E2.2239
G1 X110.179 Y101.952 E2.2258
G1 X110.650 Y101.996 E2.2432
G1 X101.997 Y110.649 E2.6955
G1 X102.039 Y111.173 E2.7149
G1 X111.167 Y102.045 E3.1920
G1 X111.333 Y102.060 E3.1981
G1 X111.575 Y102.105 E3.2072
G1 X111.652 Y102.126 E3.2102
G1 X102.132 Y111.646 E3.7077
G1 X102.248 Y112.095 E3.7249
G1 X112.095 Y102.248 E4.2395
G1 X112.539 Y102.370 E4.2565
G1 X102.364 Y112.545 E4.7883
G1 X102.373 Y112.579 E4.7896
G1 X102.455 Y112.812 E4.7987
G1 X102.520 Y112.954 E4.8045
G1 X112.959 Y102.515 E5.3501
G1 X113.343 Y102.698 E5.3658
G1 X102.698 Y113.342 E5.9221
G1 X102.876 Y113.730 E5.9379
G1 X113.726 Y102.880 E6.5049
G1 X113.936 Y102.980 E6.5135
G1 X114.192 Y102.980 E6.5230
G1 X102.980 Y114.192 E7.1089
G1 X102.980 Y114.757 E7.1298
G1 X114.757 Y102.980 E7.7454
G1 X115.323 Y102.980 E7.7663
G1 X102.980 Y115.323 E8.4113
G1 X102.980 Y115.380 E8.4134
G1 X103.234 Y115.634 E8.4267
G1 X115.634 Y103.234 E9.0748
G1 X115.917 Y103.517 E9.0896
G1 X103.517 Y115.917 E9.7376
G1 X103.800 Y116.200 E9.7524
G1 X116.200 Y103.800 E10.4005
G1 X116.483 Y104.083 E10.4152
G1 X104.083 Y116.483 E11.0633
G1 X104.366 Y116.766 E11.0781
G1 X116.766 Y104.366 E11.7261
G1 X117.020 Y104.620 E11.7394
G1 X117.020 Y104.677 E11.7415
G1 X104.677 Y117.020 E12.3866
G1 X105.243 Y117.020 E12.4075
G1 X117.020 Y105.243 E13.0230
G1 X117.020 Y105.808 E13.0439
G1 X105.808 Y117.020 E13.6299
G1 X106.064 Y117.020 E13.6393
G1 X106.274 Y117.120 E13.6479
G1 X117.124 Y106.270 E14.2150
G1 X117.301 Y106.659 E14.2308
G1 X106.657 Y117.302 E14.7871
G1 X107.041 Y117.485 E14.8027
G1 X117.478 Y107.047 E15.3482
G1 X117.544 Y107.191 E15.3541
G1 X117.624 Y107.419 E15.3630
G1 X117.634 Y107.457 E15.3645
G1 X107.461 Y117.630 E15.8961
G1 X107.905 Y117.752 E15.9131
G1 X117.751 Y107.906 E16.4278
G1 X117.868 Y108.354 E16.4449
G1 X108.348 Y117.874 E16.9424
G1 X108.425 Y117.896 E16.9454
G1 X108.667 Y117.940 E16.9545
G1 X108.833 Y117.955 E16.9606
G1 X117.961 Y108.827 E17.4377
G1 X118.003 Y109.351 E17.4571
G1 X109.350 Y118.004 E17.9093
G1 X109.821 Y118.048 E17.9268
G1 X109.871 Y118.048 E17.9287
G1 X118.044 Y109.875 E18.3558
G1 X118.049 Y109.937 E18.3581
G1 X118.048 Y110.179 E18.3671
G1 X118.021 Y110.464 E18.3776
G1 X110.468 Y118.017 E18.7724
G1 X111.083 Y117.968 E18.7952
G1 X117.963 Y111.088 E19.1547
G1 X117.940 Y111.334 E19.1639
G1 X117.895 Y111.577 E19.1730
G1 X117.840 Y111.777 E19.1806
G1 X111.785 Y117.832 E19.4971
