; G-Code generated by Simplify3D(R) Version 4.0.0
; Jul 7, 2020 at 12:55:01 PM
; Settings Summary
;   processName,Process1
;   applyToModels,Right Side
;   profileName,Cat_Fast (modified)
;   profileVersion,2020-01-05 00:41:03
;   baseProfile,Default (modified)
;   printMaterial,PLA
;   printQuality,Fast
;   printExtruders,
;   extruderName,Primary Extruder
;   extruderToolheadNumber,0
;   extruderDiameter,0.4
;   extruderAutoWidth,0
;   extruderWidth,0.4
;   extrusionMultiplier,1
;   extruderUseRetract,1
;   extruderRetractionDistance,10
;   extruderExtraRestartDistance,0
;   extruderRetractionZLift,0.3
;   extruderRetractionSpeed,6000
;   extruderUseCoasting,0
;   extruderCoastingDistance,0.2
;   extruderUseWipe,1
;   extruderWipeDistance,2
;   primaryExtruder,0
;   layerHeight,0.3
;   topSolidLayers,3
;   bottomSolidLayers,3
;   perimeterOutlines,3
;   printPerimetersInsideOut,1
;   startPointOption,3
;   startPointOriginX,100
;   startPointOriginY,150
;   sequentialIslands,1
;   spiralVaseMode,0
;   firstLayerHeightPercentage,90
;   firstLayerWidthPercentage,100
;   firstLayerUnderspeed,0.5
;   useRaft,0
;   raftExtruder,0
;   raftTopLayers,3
;   raftBaseLayers,2
;   raftOffset,3
;   raftSeparationDistance,0.14
;   raftTopInfill,100
;   aboveRaftSpeedMultiplier,0.3
;   useSkirt,1
;   skirtExtruder,0
;   skirtLayers,1
;   skirtOutlines,3
;   skirtOffset,5.2
;   usePrimePillar,0
;   primePillarExtruder,999
;   primePillarWidth,12
;   primePillarLocation,7
;   primePillarSpeedMultiplier,1
;   useOozeShield,0
;   oozeShieldExtruder,999
;   oozeShieldOffset,2
;   oozeShieldOutlines,1
;   oozeShieldSidewallShape,1
;   oozeShieldSidewallAngle,30
;   oozeShieldSpeedMultiplier,1
;   infillExtruder,0
;   internalInfillPattern,Rectilinear
;   externalInfillPattern,Rectilinear
;   infillPercentage,15
;   outlineOverlapPercentage,30
;   infillExtrusionWidthPercentage,100
;   minInfillLength,5
;   infillLayerInterval,1
;   internalInfillAngles,45,-45
;   overlapInternalInfillAngles,0
;   externalInfillAngles,45,-45
;   generateSupport,1
;   supportExtruder,0
;   supportInfillPercentage,25
;   supportExtraInflation,0
;   supportBaseLayers,0
;   denseSupportExtruder,0
;   denseSupportLayers,0
;   denseSupportInfillPercentage,70
;   supportLayerInterval,1
;   supportHorizontalPartOffset,0.3
;   supportUpperSeparationLayers,1
;   supportLowerSeparationLayers,1
;   supportType,0
;   supportGridSpacing,4
;   maxOverhangAngle,40
;   supportAngles,0
;   temperatureName,Primary Extruder,Bed
;   temperatureNumber,0,0
;   temperatureSetpointCount,1,1
;   temperatureSetpointLayers,1,1
;   temperatureSetpointTemperatures,205,60
;   temperatureStabilizeAtStartup,1,1
;   temperatureHeatedBed,0,1
;   temperatureRelayBetweenLayers,0,0
;   temperatureRelayBetweenLoops,0,0
;   fanLayers,1,2
;   fanSpeeds,0,100
;   blipFanToFullPower,0
;   adjustSpeedForCooling,1
;   minSpeedLayerTime,15
;   minCoolingSpeedSlowdown,20
;   increaseFanForCooling,0
;   minFanLayerTime,30
;   maxCoolingFanSpeed,100
;   increaseFanForBridging,0
;   bridgingFanSpeed,100
;   use5D,1
;   relativeEdistances,0
;   allowEaxisZeroing,1
;   independentExtruderAxes,0
;   includeM10123,0
;   stickySupport,1
;   applyToolheadOffsets,0
;   gcodeXoffset,0
;   gcodeYoffset,0
;   gcodeZoffset,0
;   overrideMachineDefinition,1
;   machineTypeOverride,0
;   strokeXoverride,220
;   strokeYoverride,220
;   strokeZoverride,250
;   originOffsetXoverride,0
;   originOffsetYoverride,0
;   originOffsetZoverride,0
;   homeXdirOverride,-1
;   homeYdirOverride,-1
;   homeZdirOverride,-1
;   flipXoverride,1
;   flipYoverride,-1
;   flipZoverride,1
;   toolheadOffsets,0,0|0,0|0,0|0,0|0,0|0,0
;   overrideFirmwareConfiguration,0
;   firmwareTypeOverride,RepRap (Marlin/Repetier/Sprinter)
;   GPXconfigOverride,r2
;   baudRateOverride,115200
;   overridePrinterModels,0
;   printerModelsOverride
;   startingGcode,G28 ; home all axes,G29; BLTOUCH mesh generation,G92 E0.0,G1 Z5;,G1 X10 Y10 Z0 F6000;,G1 X60.0 E9.0  F1000.0 ; intro line,G1 X100.0 E12.5  F1000.0 ; intro line,G92 E0.0
;   layerChangeGcode,G4 P1
;   retractionGcode,
;   toolChangeGcode,
;   endingGcode,G28 X0 Y0 ; home X axis and y axis,;G1 Z180 F300 ; lower platform to bottom,M104 S0 ; kill extruder temperature,M140 S0 ; kill bed temperature,M107; kill fan,M84 ; disable motors
;   exportFileFormat,gcode
;   celebration,0
;   celebrationSong,Funky Town
;   postProcessing,curl -k -H "X-Api-Key: B48F0C35933E47C49712EE720641ACF0" -F "select=false" -F "print=false" -F "file=@[output_filepath]" "http://192.168.0.5/api/files/local" {STRIP "; postProcessing"}
;   defaultSpeed,4200
;   outlineUnderspeed,0.5
;   solidInfillUnderspeed,0.8
;   supportUnderspeed,0.8
;   rapidXYspeed,4800
;   rapidZspeed,1002
;   minBridgingArea,50
;   bridgingExtraInflation,1
;   bridgingExtrusionMultiplier,1
;   bridgingSpeedMultiplier,1
;   useFixedBridgingAngle,0
;   fixedBridgingAngle,0
;   applyBridgingToPerimeters,0
;   filamentDiameters,1.75|1.75|1.75|1.75|1.75|1.75
;   filamentPricesPerKg,25.99|46|46|46|46|46
;   filamentDensities,1.25|1.25|1.25|1.25|1.25|1.25
;   useMinPrintHeight,0
;   minPrintHeight,0
;   useMaxPrintHeight,0
;   maxPrintHeight,5
;   useDiaphragm,0
;   diaphragmLayerInterval,20
;   robustSlicing,1
;   mergeAllIntoSolid,0
;   onlyRetractWhenCrossingOutline,1
;   retractBetweenLayers,1
;   useRetractionMinTravel,0
;   retractionMinTravel,3
;   retractWhileWiping,0
;   onlyWipeOutlines,1
;   avoidCrossingOutline,1
;   maxMovementDetourFactor,3
;   toolChangeRetractionDistance,12
;   toolChangeExtraRestartDistance,-0.5
;   toolChangeRetractionSpeed,600
;   externalThinWallType,0
;   internalThinWallType,2
;   thinWallAllowedOverlapPercentage,10
;   singleExtrusionMinLength,1
;   singleExtrusionMinPrintingWidthPercentage,50
;   singleExtrusionMaxPrintingWidthPercentage,200
;   singleExtrusionEndpointExtension,0.2
;   horizontalSizeCompensation,0
G90
M82
M106 S0
M140 S60
M190 S60
M104 S205 T0
M109 S205 T0
G28 ; home all axes
G29; BLTOUCH mesh generation
G92 E0.0
G1 Z5;
G1 X10 Y10 Z0 F6000;
G1 X60.0 E9.0  F1000.0 ; intro line
G1 X100.0 E12.5  F1000.0 ; intro line
G92 E0.0
G92 E0
G1 E-10.0000 F6000
G1 Z0.570 F1002
; process Process1
; layer 1, Z = 0.270
G4 P1
T0
; tool H0.300 W0.400
; skirt
G1 X20.515 Y75.110 F4800
G1 Z0.270 F1002
G1 E0.0000 F1800
G92 E0
G1 X20.883 Y74.958 E0.0198 F2100
G1 X110.936 Y74.964 E4.5126
G1 X110.938 Y42.811 E6.1167
G1 X111.090 Y42.444 E6.1365
G1 X114.418 Y39.116 E6.3713
G1 X114.785 Y38.964 E6.3912
G1 X199.123 Y38.970 E10.5988
G1 X199.490 Y39.122 E10.6186
G1 X202.818 Y42.450 E10.8534
G1 X202.970 Y42.818 E10.8732
G1 X202.964 Y128.743 E15.1601
G1 X202.813 Y129.109 E15.1798
G1 X199.505 Y132.433 E15.4138
G1 X199.139 Y132.586 E15.4336
G1 X170.370 Y132.727 E16.8689
G1 X169.823 Y134.365 E16.9550
G1 X169.819 Y134.375 E16.9556
G1 X169.779 Y134.487 E16.9615
G1 X169.775 Y134.497 E16.9620
G1 X168.839 Y136.950 E17.0930
G1 X168.836 Y136.957 E17.0934
G1 X168.805 Y137.035 E17.0976
G1 X168.802 Y137.042 E17.0980
G1 X168.288 Y138.278 E17.1648
G1 X168.285 Y138.286 E17.1652
G1 X168.247 Y138.372 E17.1699
G1 X168.244 Y138.379 E17.1703
G1 X167.006 Y141.099 E17.3193
G1 X167.002 Y141.106 E17.3198
G1 X166.960 Y141.195 E17.3246
G1 X166.956 Y141.202 E17.3251
G1 X166.369 Y142.384 E17.3909
G1 X166.365 Y142.391 E17.3913
G1 X166.328 Y142.463 E17.3953
G1 X166.325 Y142.469 E17.3957
G1 X165.319 Y144.355 E17.5023
G1 X165.315 Y144.363 E17.5027
G1 X165.264 Y144.454 E17.5079
G1 X165.260 Y144.462 E17.5084
G1 X163.971 Y146.678 E17.6363
G1 X163.966 Y146.688 E17.6369
G1 X163.903 Y146.790 E17.6429
G1 X163.898 Y146.799 E17.6434
G1 X162.509 Y148.971 E17.7720
G1 X162.504 Y148.980 E17.7725
G1 X162.438 Y149.078 E17.7784
G1 X162.432 Y149.086 E17.7789
G1 X160.951 Y151.206 E17.9079
G1 X160.945 Y151.214 E17.9084
G1 X160.872 Y151.313 E17.9146
G1 X160.866 Y151.322 E17.9151
G1 X159.013 Y153.744 E18.0672
G1 X159.006 Y153.753 E18.0678
G1 X158.925 Y153.854 E18.0742
G1 X158.918 Y153.863 E18.0748
G1 X156.925 Y156.235 E18.2294
G1 X156.917 Y156.244 E18.2300
G1 X156.829 Y156.344 E18.2366
G1 X156.821 Y156.353 E18.2372
G1 X154.385 Y158.993 E18.4165
G1 X154.377 Y159.000 E18.4170
G1 X154.293 Y159.088 E18.4231
G1 X154.285 Y159.096 E18.4236
G1 X152.013 Y161.355 E18.5835
G1 X152.006 Y161.362 E18.5840
G1 X151.923 Y161.441 E18.5897
G1 X151.916 Y161.448 E18.5902
G1 X149.598 Y163.575 E18.7471
G1 X149.590 Y163.582 E18.7477
G1 X149.497 Y163.664 E18.7538
G1 X149.488 Y163.671 E18.7544
G1 X147.123 Y165.658 E18.9085
G1 X147.115 Y165.665 E18.9090
G1 X147.019 Y165.742 E18.9152
G1 X147.010 Y165.749 E18.9157
G1 X144.942 Y167.340 E19.0459
G1 X144.935 Y167.345 E19.0463
G1 X144.863 Y167.399 E19.0509
G1 X144.856 Y167.403 E19.0512
G1 X143.438 Y168.424 E19.1384
G1 X143.431 Y168.429 E19.1389
G1 X143.350 Y168.485 E19.1437
G1 X143.343 Y168.490 E19.1442
G1 X141.205 Y169.920 E19.2725
G1 X141.196 Y169.926 E19.2730
G1 X141.097 Y169.989 E19.2789
G1 X141.088 Y169.995 E19.2795
G1 X138.896 Y171.333 E19.4076
G1 X138.888 Y171.338 E19.4080
G1 X138.792 Y171.393 E19.4136
G1 X138.784 Y171.398 E19.4140
G1 X136.901 Y172.449 E19.5216
G1 X136.892 Y172.454 E19.5221
G1 X136.789 Y172.509 E19.5280
G1 X136.780 Y172.514 E19.5285
G1 X134.114 Y173.862 E19.6775
G1 X134.105 Y173.866 E19.6780
G1 X134.000 Y173.916 E19.6838
G1 X133.991 Y173.921 E19.6843
G1 X132.008 Y174.825 E19.7930
G1 X131.998 Y174.829 E19.7936
G1 X131.892 Y174.874 E19.7993
G1 X131.883 Y174.878 E19.7998
G1 X129.067 Y176.026 E19.9516
G1 X129.057 Y176.030 E19.9521
G1 X128.947 Y176.073 E19.9580
G1 X128.937 Y176.076 E19.9585
G1 X126.432 Y176.978 E20.0913
G1 X126.422 Y176.981 E20.0918
G1 X126.304 Y177.021 E20.0981
G1 X126.293 Y177.024 E20.0986
G1 X122.871 Y178.090 E20.2774
G1 X122.862 Y178.093 E20.2779
G1 X122.752 Y178.124 E20.2836
G1 X122.743 Y178.127 E20.2841
G1 X120.079 Y178.841 E20.4217
G1 X120.071 Y178.843 E20.4221
G1 X119.975 Y178.867 E20.4270
G1 X119.967 Y178.869 E20.4274
G1 X117.328 Y179.480 E20.5626
G1 X117.319 Y179.482 E20.5630
G1 X117.217 Y179.504 E20.5682
G1 X117.208 Y179.505 E20.5687
G1 X114.589 Y180.012 E20.7018
G1 X114.580 Y180.013 E20.7022
G1 X114.471 Y180.032 E20.7077
G1 X114.462 Y180.034 E20.7082
G1 X111.865 Y180.432 E20.8393
G1 X111.855 Y180.434 E20.8398
G1 X111.746 Y180.448 E20.8453
G1 X111.736 Y180.449 E20.8458
G1 X109.151 Y180.744 E20.9756
G1 X109.140 Y180.745 E20.9761
G1 X109.023 Y180.756 E20.9820
G1 X109.012 Y180.757 E20.9825
G1 X106.429 Y180.944 E21.1118
G1 X106.418 Y180.944 E21.1123
G1 X106.292 Y180.951 E21.1186
G1 X106.281 Y180.951 E21.1192
G1 X103.298 Y181.034 E21.2680
G1 X103.288 Y181.034 E21.2685
G1 X103.169 Y181.035 E21.2745
G1 X103.159 Y181.035 E21.2750
G1 X101.001 Y181.006 E21.3826
G1 X100.991 Y181.005 E21.3831
G1 X100.882 Y181.002 E21.3886
G1 X100.872 Y181.001 E21.3891
G1 X98.319 Y180.868 E21.5166
G1 X98.311 Y180.868 E21.5170
G1 X98.224 Y180.862 E21.5213
G1 X98.217 Y180.861 E21.5217
G1 X96.900 Y180.752 E21.5876
G1 X96.893 Y180.752 E21.5880
G1 X96.814 Y180.744 E21.5920
G1 X96.807 Y180.743 E21.5923
G1 X94.669 Y180.506 E21.6996
G1 X94.662 Y180.505 E21.7000
G1 X94.580 Y180.495 E21.7041
G1 X94.573 Y180.494 E21.7045
G1 X92.825 Y180.249 E21.7925
G1 X92.816 Y180.248 E21.7930
G1 X92.713 Y180.231 E21.7982
G1 X92.704 Y180.230 E21.7986
G1 X89.688 Y179.694 E21.9515
G1 X89.679 Y179.693 E21.9519
G1 X89.585 Y179.674 E21.9567
G1 X89.577 Y179.673 E21.9571
G1 X87.818 Y179.299 E22.0468
G1 X87.812 Y179.297 E22.0471
G1 X87.748 Y179.283 E22.0504
G1 X87.742 Y179.282 E22.0507
G1 X85.961 Y178.859 E22.1420
G1 X85.952 Y178.857 E22.1425
G1 X85.856 Y178.833 E22.1474
G1 X85.848 Y178.830 E22.1479
G1 X82.336 Y177.867 E22.3295
G1 X82.324 Y177.864 E22.3301
G1 X82.197 Y177.826 E22.3368
G1 X82.186 Y177.823 E22.3373
G1 X78.798 Y176.721 E22.5150
G1 X78.790 Y176.719 E22.5155
G1 X78.690 Y176.684 E22.5208
G1 X78.681 Y176.681 E22.5212
G1 X77.012 Y176.069 E22.6099
G1 X77.005 Y176.067 E22.6103
G1 X76.935 Y176.040 E22.6140
G1 X76.929 Y176.038 E22.6143
G1 X75.285 Y175.385 E22.7026
G1 X75.277 Y175.382 E22.7030
G1 X75.182 Y175.342 E22.7082
G1 X75.174 Y175.339 E22.7086
G1 X72.420 Y174.130 E22.8586
G1 X72.412 Y174.126 E22.8591
G1 X72.312 Y174.080 E22.8646
G1 X72.303 Y174.076 E22.8651
G1 X70.742 Y173.317 E22.9517
G1 X70.736 Y173.314 E22.9520
G1 X70.670 Y173.281 E22.9557
G1 X70.664 Y173.278 E22.9560
G1 X69.142 Y172.489 E23.0415
G1 X69.136 Y172.485 E23.0419
G1 X69.067 Y172.449 E23.0458
G1 X69.061 Y172.445 E23.0461
G1 X67.550 Y171.608 E23.1323
G1 X67.541 Y171.603 E23.1328
G1 X67.447 Y171.549 E23.1383
G1 X67.439 Y171.544 E23.1387
G1 X64.894 Y170.004 E23.2871
G1 X64.885 Y169.999 E23.2876
G1 X64.789 Y169.938 E23.2933
G1 X64.781 Y169.932 E23.2938
G1 X63.336 Y168.978 E23.3802
G1 X63.331 Y168.974 E23.3805
G1 X63.273 Y168.935 E23.3840
G1 X63.268 Y168.931 E23.3843
G1 X61.853 Y167.946 E23.4703
G1 X61.847 Y167.941 E23.4707
G1 X61.780 Y167.893 E23.4748
G1 X61.774 Y167.889 E23.4752
G1 X60.379 Y166.855 E23.5618
G1 X60.374 Y166.852 E23.5621
G1 X60.317 Y166.809 E23.5657
G1 X60.312 Y166.805 E23.5660
G1 X58.929 Y165.725 E23.6536
G1 X58.922 Y165.720 E23.6540
G1 X58.847 Y165.660 E23.6588
G1 X58.841 Y165.654 E23.6592
G1 X56.823 Y163.968 E23.7904
G1 X56.818 Y163.963 E23.7907
G1 X56.753 Y163.908 E23.7950
G1 X56.748 Y163.903 E23.7953
G1 X55.411 Y162.716 E23.8845
G1 X55.406 Y162.712 E23.8849
G1 X55.353 Y162.663 E23.8884
G1 X55.348 Y162.659 E23.8888
G1 X54.515 Y161.881 E23.9456
G1 X20.879 Y161.890 E25.6238
G1 X20.511 Y161.738 E25.6436
G1 X17.182 Y158.410 E25.8784
G1 X17.030 Y158.042 E25.8983
G1 X17.035 Y78.805 E29.8515
G1 X17.188 Y78.437 E29.8713
G1 X20.515 Y75.110 E30.1061
G1 X20.742 Y75.449 F4800
G92 E0
G1 X20.962 Y75.358 E0.0119 F2100
G1 X111.336 Y75.364 E4.5206
G1 X111.338 Y42.891 E6.1407
G1 X111.429 Y42.670 E6.1526
G1 X114.644 Y39.456 E6.3795
G1 X114.865 Y39.364 E6.3914
G1 X199.043 Y39.370 E10.5911
G1 X199.264 Y39.461 E10.6030
G1 X202.478 Y42.677 E10.8298
G1 X202.570 Y42.897 E10.8417
G1 X202.564 Y128.663 E15.1206
G1 X202.473 Y128.883 E15.1325
G1 X199.277 Y132.095 E15.3585
G1 X199.058 Y132.186 E15.3704
G1 X170.082 Y132.328 E16.8160
G1 X169.444 Y134.236 E16.9164
G1 X169.442 Y134.242 E16.9167
G1 X169.403 Y134.350 E16.9224
G1 X169.401 Y134.356 E16.9227
G1 X168.466 Y136.806 E17.0535
G1 X168.464 Y136.810 E17.0538
G1 X168.434 Y136.886 E17.0578
G1 X168.432 Y136.890 E17.0580
G1 X167.919 Y138.123 E17.1247
G1 X167.917 Y138.128 E17.1249
G1 X167.881 Y138.211 E17.1295
G1 X167.879 Y138.215 E17.1297
G1 X166.643 Y140.931 E17.2786
G1 X166.640 Y140.936 E17.2788
G1 X166.600 Y141.021 E17.2836
G1 X166.597 Y141.026 E17.2838
G1 X166.011 Y142.205 E17.3495
G1 X166.009 Y142.209 E17.3497
G1 X165.973 Y142.278 E17.3536
G1 X165.971 Y142.282 E17.3538
G1 X164.967 Y144.165 E17.4603
G1 X164.965 Y144.170 E17.4606
G1 X164.916 Y144.257 E17.4656
G1 X164.913 Y144.262 E17.4659
G1 X163.626 Y146.476 E17.5936
G1 X163.623 Y146.481 E17.5939
G1 X163.563 Y146.580 E17.5997
G1 X163.559 Y146.585 E17.6000
G1 X162.173 Y148.754 E17.7284
G1 X162.170 Y148.759 E17.7287
G1 X162.107 Y148.854 E17.7344
G1 X162.103 Y148.859 E17.7347
G1 X160.625 Y150.975 E17.8635
G1 X160.621 Y150.980 E17.8638
G1 X160.551 Y151.076 E17.8697
G1 X160.547 Y151.081 E17.8700
G1 X158.697 Y153.499 E18.0219
G1 X158.693 Y153.504 E18.0223
G1 X158.614 Y153.602 E18.0285
G1 X158.610 Y153.607 E18.0289
G1 X156.620 Y155.976 E18.1832
G1 X156.616 Y155.981 E18.1836
G1 X156.531 Y156.078 E18.1900
G1 X156.526 Y156.083 E18.1903
G1 X154.092 Y158.720 E18.3693
G1 X154.088 Y158.724 E18.3697
G1 X154.006 Y158.809 E18.3755
G1 X154.002 Y158.814 E18.3758
G1 X151.733 Y161.070 E18.5355
G1 X151.728 Y161.074 E18.5358
G1 X151.648 Y161.151 E18.5413
G1 X151.644 Y161.155 E18.5416
G1 X149.329 Y163.278 E18.6983
G1 X149.324 Y163.283 E18.6987
G1 X149.234 Y163.362 E18.7046
G1 X149.229 Y163.366 E18.7050
G1 X146.868 Y165.350 E18.8588
G1 X146.863 Y165.354 E18.8592
G1 X146.770 Y165.429 E18.8651
G1 X146.765 Y165.433 E18.8654
G1 X144.699 Y167.022 E18.9955
G1 X144.695 Y167.025 E18.9957
G1 X144.625 Y167.077 E19.0001
G1 X144.621 Y167.080 E19.0003
G1 X143.205 Y168.099 E19.0873
G1 X143.201 Y168.102 E19.0876
G1 X143.124 Y168.155 E19.0923
