; G-Code generated by Simplify3D(R) Version 4.0.0
; Jun 30, 2020 at 7:01:34 PM
; Settings Summary
;   processName,Process1
;   applyToModels,ShockBearingTest,PLAPlusPotTest
;   profileName,Cat_Fast (modified)
;   profileVersion,2020-01-05 00:41:03
;   baseProfile,Default (modified)
;   printMaterial,PLA
;   printQuality,Fast
;   printExtruders,
;   extruderName,Primary Extruder
;   extruderToolheadNumber,0
;   extruderDiameter,0.4
;   extruderAutoWidth,0
;   extruderWidth,0.4
;   extrusionMultiplier,1
;   extruderUseRetract,1
;   extruderRetractionDistance,10
;   extruderExtraRestartDistance,0
;   extruderRetractionZLift,0.3
;   extruderRetractionSpeed,6000
;   extruderUseCoasting,0
;   extruderCoastingDistance,0.2
;   extruderUseWipe,1
;   extruderWipeDistance,2
;   primaryExtruder,0
;   layerHeight,0.3
;   topSolidLayers,3
;   bottomSolidLayers,3
;   perimeterOutlines,3
;   printPerimetersInsideOut,1
;   startPointOption,3
;   startPointOriginX,100
;   startPointOriginY,150
;   sequentialIslands,1
;   spiralVaseMode,0
;   firstLayerHeightPercentage,90
;   firstLayerWidthPercentage,100
;   firstLayerUnderspeed,0.5
;   useRaft,1
;   raftExtruder,0
;   raftTopLayers,3
;   raftBaseLayers,2
;   raftOffset,3
;   raftSeparationDistance,0.14
;   raftTopInfill,100
;   aboveRaftSpeedMultiplier,0.3
;   useSkirt,0
;   skirtExtruder,0
;   skirtLayers,1
;   skirtOutlines,3
;   skirtOffset,5.2
;   usePrimePillar,0
;   primePillarExtruder,999
;   primePillarWidth,12
;   primePillarLocation,7
;   primePillarSpeedMultiplier,1
;   useOozeShield,0
;   oozeShieldExtruder,999
;   oozeShieldOffset,2
;   oozeShieldOutlines,1
;   oozeShieldSidewallShape,1
;   oozeShieldSidewallAngle,30
;   oozeShieldSpeedMultiplier,1
;   infillExtruder,0
;   internalInfillPattern,Rectilinear
;   externalInfillPattern,Rectilinear
;   infillPercentage,15
;   outlineOverlapPercentage,30
;   infillExtrusionWidthPercentage,100
;   minInfillLength,5
;   infillLayerInterval,1
;   internalInfillAngles,45,-45
;   overlapInternalInfillAngles,0
;   externalInfillAngles,45,-45
;   generateSupport,1
;   supportExtruder,0
;   supportInfillPercentage,25
;   supportExtraInflation,0
;   supportBaseLayers,0
;   denseSupportExtruder,0
;   denseSupportLayers,0
;   denseSupportInfillPercentage,70
;   supportLayerInterval,1
;   supportHorizontalPartOffset,0.3
;   supportUpperSeparationLayers,1
;   supportLowerSeparationLayers,1
;   supportType,0
;   supportGridSpacing,4
;   maxOverhangAngle,40
;   supportAngles,0
;   temperatureName,Primary Extruder,Bed
;   temperatureNumber,0,0
;   temperatureSetpointCount,1,1
;   temperatureSetpointLayers,1,1
;   temperatureSetpointTemperatures,205,60
;   temperatureStabilizeAtStartup,1,1
;   temperatureHeatedBed,0,1
;   temperatureRelayBetweenLayers,0,0
;   temperatureRelayBetweenLoops,0,0
;   fanLayers,1,2
;   fanSpeeds,0,100
;   blipFanToFullPower,0
;   adjustSpeedForCooling,1
;   minSpeedLayerTime,15
;   minCoolingSpeedSlowdown,20
;   increaseFanForCooling,0
;   minFanLayerTime,30
;   maxCoolingFanSpeed,100
;   increaseFanForBridging,0
;   bridgingFanSpeed,100
;   use5D,1
;   relativeEdistances,0
;   allowEaxisZeroing,1
;   independentExtruderAxes,0
;   includeM10123,0
;   stickySupport,1
;   applyToolheadOffsets,0
;   gcodeXoffset,0
;   gcodeYoffset,0
;   gcodeZoffset,0
;   overrideMachineDefinition,1
;   machineTypeOverride,0
;   strokeXoverride,220
;   strokeYoverride,220
;   strokeZoverride,250
;   originOffsetXoverride,0
;   originOffsetYoverride,0
;   originOffsetZoverride,0
;   homeXdirOverride,-1
;   homeYdirOverride,-1
;   homeZdirOverride,-1
;   flipXoverride,1
;   flipYoverride,-1
;   flipZoverride,1
;   toolheadOffsets,0,0|0,0|0,0|0,0|0,0|0,0
;   overrideFirmwareConfiguration,0
;   firmwareTypeOverride,RepRap (Marlin/Repetier/Sprinter)
;   GPXconfigOverride,r2
;   baudRateOverride,115200
;   overridePrinterModels,0
;   printerModelsOverride
;   startingGcode,G28 ; home all axes,G29; BLTOUCH mesh generation,G92 E0.0,G1 Z5;,G1 X10 Y10 Z0 F6000;,G1 X60.0 E9.0  F1000.0 ; intro line,G1 X100.0 E12.5  F1000.0 ; intro line,G92 E0.0
;   layerChangeGcode,G4 P1
;   retractionGcode,
;   toolChangeGcode,
;   endingGcode,G28 X0 Y0 ; home X axis and y axis,;G1 Z180 F300 ; lower platform to bottom,M104 S0 ; kill extruder temperature,M140 S0 ; kill bed temperature,M107; kill fan,M84 ; disable motors
;   exportFileFormat,gcode
;   celebration,0
;   celebrationSong,Funky Town
;   postProcessing,curl -k -H "X-Api-Key: B48F0C35933E47C49712EE720641ACF0" -F "select=false" -F "print=false" -F "file=@[output_filepath]" "http://192.168.0.5/api/files/local" {STRIP "; postProcessing"}
;   defaultSpeed,4200
;   outlineUnderspeed,0.5
;   solidInfillUnderspeed,0.8
;   supportUnderspeed,0.8
;   rapidXYspeed,4800
;   rapidZspeed,1002
;   minBridgingArea,50
;   bridgingExtraInflation,1
;   bridgingExtrusionMultiplier,1
;   bridgingSpeedMultiplier,1
;   useFixedBridgingAngle,0
;   fixedBridgingAngle,0
;   applyBridgingToPerimeters,0
;   filamentDiameters,1.75|1.75|1.75|1.75|1.75|1.75
;   filamentPricesPerKg,25.99|46|46|46|46|46
;   filamentDensities,1.25|1.25|1.25|1.25|1.25|1.25
;   useMinPrintHeight,0
;   minPrintHeight,0
;   useMaxPrintHeight,0
;   maxPrintHeight,5
;   useDiaphragm,0
;   diaphragmLayerInterval,20
;   robustSlicing,1
;   mergeAllIntoSolid,0
;   onlyRetractWhenCrossingOutline,1
;   retractBetweenLayers,1
;   useRetractionMinTravel,0
;   retractionMinTravel,3
;   retractWhileWiping,0
;   onlyWipeOutlines,1
;   avoidCrossingOutline,1
;   maxMovementDetourFactor,3
;   toolChangeRetractionDistance,12
;   toolChangeExtraRestartDistance,-0.5
;   toolChangeRetractionSpeed,600
;   externalThinWallType,0
;   internalThinWallType,2
;   thinWallAllowedOverlapPercentage,10
;   singleExtrusionMinLength,1
;   singleExtrusionMinPrintingWidthPercentage,50
;   singleExtrusionMaxPrintingWidthPercentage,200
;   singleExtrusionEndpointExtension,0.2
;   horizontalSizeCompensation,0
G90
M82
M106 S0
M140 S60
M190 S60
M104 S205 T0
M109 S205 T0
G28 ; home all axes
G29; BLTOUCH mesh generation
G92 E0.0
G1 Z5;
G1 X10 Y10 Z0 F6000;
G1 X60.0 E9.0  F1000.0 ; intro line
G1 X100.0 E12.5  F1000.0 ; intro line
G92 E0.0
G92 E0
G1 E-10.0000 F6000
G1 Z0.750 F1002
; process Process1
; layer 1, Z = 0.450
G4 P1
T0
; tool H0.500 W0.800
; raft
G1 X88.793 Y88.392 F4800
G1 Z0.450 F1002
G1 E0.0000 F1800
G92 E0
G1 X88.839 Y88.343 E0.0112 F525
G1 X89.304 Y87.878 E0.1207
G1 X89.353 Y87.831 E0.1319
G1 X90.287 Y86.990 E0.3408
G1 X90.357 Y86.931 E0.3562
G1 X91.357 Y86.150 E0.5671
G1 X91.430 Y86.097 E0.5821
G1 X92.472 Y85.395 E0.7911
G1 X92.529 Y85.359 E0.8023
G1 X93.083 Y85.026 E0.9099
G1 X93.123 Y85.003 E0.9175
G1 X93.688 Y84.690 E1.0249
G1 X93.749 Y84.658 E1.0363
G1 X94.878 Y84.107 E1.2452
G1 X94.960 Y84.071 E1.2601
G1 X96.125 Y83.599 E1.4691
G1 X96.188 Y83.575 E1.4804
G1 X96.799 Y83.365 E1.5878
G1 X96.844 Y83.350 E1.5958
G1 X97.463 Y83.161 E1.7034
G1 X97.528 Y83.143 E1.7146
G1 X98.737 Y82.843 E1.9217
G1 X98.803 Y82.828 E1.9330
G1 X99.437 Y82.705 E2.0403
G1 X99.481 Y82.697 E2.0478
G1 X100.118 Y82.597 E2.1550
G1 X100.184 Y82.588 E2.1662
G1 X101.436 Y82.456 E2.3755
G1 X101.528 Y82.449 E2.3909
G1 X102.784 Y82.406 E2.5998
G1 X102.850 Y82.406 E2.6108
G1 X103.495 Y82.417 E2.7181
G1 X103.540 Y82.418 E2.7255
G1 X104.185 Y82.451 E2.8329
G1 X104.255 Y82.457 E2.8447
G1 X105.496 Y82.588 E3.0522
G1 X105.563 Y82.597 E3.0634
G1 X106.198 Y82.697 E3.1703
G1 X106.240 Y82.705 E3.1775
G1 X106.865 Y82.826 E3.2832
G1 X106.910 Y82.835 E3.2909
G1 X107.528 Y82.977 E3.3963
G1 X107.573 Y82.989 E3.4041
G1 X108.185 Y83.152 E3.5094
G1 X108.228 Y83.165 E3.5170
G1 X108.836 Y83.350 E3.6226
G1 X108.881 Y83.365 E3.6305
G1 X109.491 Y83.575 E3.7379
G1 X109.555 Y83.599 E3.7492
G1 X110.720 Y84.071 E3.9582
G1 X110.802 Y84.107 E3.9732
G1 X111.931 Y84.658 E4.1820
G1 X111.992 Y84.689 E4.1933
G1 X112.568 Y85.009 E4.3029
G1 X112.626 Y85.043 E4.3142
G1 X113.681 Y85.703 E4.5211
G1 X113.737 Y85.739 E4.5321
G1 X114.276 Y86.116 E4.6415
G1 X114.331 Y86.157 E4.6530
G1 X115.323 Y86.931 E4.8621
G1 X115.394 Y86.990 E4.8775
G1 X116.327 Y87.831 E5.0865
G1 X116.376 Y87.878 E5.0976
G1 X116.841 Y88.343 E5.2071
G1 X116.888 Y88.392 E5.2183
G1 X117.722 Y89.317 E5.4255
G1 X117.767 Y89.371 E5.4372
G1 X118.173 Y89.873 E5.5446
G1 X118.201 Y89.908 E5.5520
G1 X118.588 Y90.422 E5.6590
G1 X118.626 Y90.476 E5.6700
G1 X119.325 Y91.510 E5.8776
G1 X119.365 Y91.572 E5.8898
G1 X119.702 Y92.137 E5.9992
G1 X119.733 Y92.191 E6.0096
G1 X120.318 Y93.291 E6.2168
G1 X120.350 Y93.355 E6.2286
G1 X120.627 Y93.950 E6.3379
G1 X120.653 Y94.010 E6.3487
G1 X121.120 Y95.164 E6.5557
G1 X121.143 Y95.227 E6.5669
G1 X121.354 Y95.838 E6.6743
G1 X121.369 Y95.883 E6.6823
G1 X121.558 Y96.502 E6.7899
G1 X121.576 Y96.567 E6.8011
G1 X121.876 Y97.776 E7.0082
G1 X121.891 Y97.842 E7.0195
G1 X122.014 Y98.476 E7.1269
G1 X122.022 Y98.520 E7.1343
G1 X122.122 Y99.157 E7.2416
G1 X122.131 Y99.223 E7.2527
G1 X122.263 Y100.475 E7.4620
G1 X122.270 Y100.567 E7.4774
G1 X122.313 Y101.823 E7.6863
G1 X122.313 Y101.889 E7.6974
G1 X122.302 Y102.534 E7.8046
G1 X122.301 Y102.579 E7.8120
G1 X122.268 Y103.224 E7.9195
G1 X122.262 Y103.294 E7.9312
G1 X122.131 Y104.535 E8.1387
G1 X122.122 Y104.602 E8.1499
G1 X122.021 Y105.237 E8.2569
G1 X122.014 Y105.280 E8.2641
G1 X121.894 Y105.903 E8.3696
G1 X121.884 Y105.949 E8.3774
G1 X121.742 Y106.567 E8.4829
G1 X121.730 Y106.612 E8.4906
G1 X121.551 Y107.284 E8.6063
G1 X121.937 Y107.624 E8.6919
G1 X122.427 Y107.964 E8.7911
G1 X122.893 Y108.212 E8.8788
G1 X123.338 Y108.385 E8.9583
G1 X123.774 Y108.497 E9.0331
G1 X124.206 Y108.559 E9.1057
G1 X124.625 Y108.575 E9.1755
G1 X125.225 Y108.537 E9.2754
G1 X125.943 Y108.410 E9.3966
G1 X126.695 Y108.174 E9.5277
G1 X127.004 Y108.047 E9.5832
G1 X127.095 Y108.014 E9.5994
G1 X127.498 Y107.882 E9.6698
G1 X127.612 Y107.851 E9.6895
G1 X128.046 Y107.751 E9.7637
G1 X128.433 Y107.634 E9.8308
G1 X128.599 Y107.596 E9.8592
G1 X129.019 Y107.527 E9.9299
G1 X129.407 Y107.522 E9.9945
G1 X130.222 Y107.634 E10.1312
G1 X130.322 Y107.645 E10.1480
G1 X130.903 Y107.737 E10.2459
G1 X131.015 Y107.759 E10.2649
G1 X131.422 Y107.860 E10.3345
G1 X131.511 Y107.886 E10.3499
G1 X131.899 Y108.013 E10.4179
G1 X131.987 Y108.045 E10.4334
G1 X132.364 Y108.198 E10.5011
G1 X132.441 Y108.233 E10.5152
G1 X132.804 Y108.409 E10.5823
G1 X132.885 Y108.452 E10.5975
G1 X133.248 Y108.661 E10.6671
G1 X133.342 Y108.721 E10.6858
G1 X133.835 Y109.065 E10.7857
G1 X133.945 Y109.151 E10.8090
G1 X134.397 Y109.545 E10.9087
G1 X134.475 Y109.619 E10.9265
G1 X134.775 Y109.927 E10.9979
G1 X134.855 Y110.017 E11.0181
G1 X135.233 Y110.486 E11.1182
G1 X135.312 Y110.595 E11.1406
G1 X135.643 Y111.106 E11.2417
G1 X135.709 Y111.220 E11.2638
G1 X135.987 Y111.764 E11.3653
G1 X136.044 Y111.891 E11.3885
G1 X136.263 Y112.464 E11.4906
G1 X136.306 Y112.595 E11.5134
G1 X136.515 Y113.381 E11.6487
G1 X136.820 Y113.416 E11.6998
G1 X136.820 Y119.432 E12.7003
G1 X135.297 Y120.955 E13.0585
G1 X132.980 Y120.955 E13.4438
G1 X132.474 Y121.214 E13.5383
G1 X132.366 Y121.263 E13.5580
G1 X131.978 Y121.419 E13.6276
G1 X131.897 Y121.448 E13.6418
G1 X131.512 Y121.574 E13.7093
G1 X131.421 Y121.600 E13.7249
G1 X131.028 Y121.698 E13.7924
G1 X130.944 Y121.716 E13.8067
G1 X130.542 Y121.788 E13.8745
G1 X130.444 Y121.801 E13.8910
G1 X130.037 Y121.843 E13.9590
G1 X129.955 Y121.849 E13.9727
G1 X129.538 Y121.864 E14.0421
G1 X129.417 Y121.863 E14.0622
G1 X128.827 Y121.831 E14.1604
G1 X128.717 Y121.820 E14.1789
G1 X128.296 Y121.761 E14.2496
G1 X128.187 Y121.741 E14.2679
G1 X127.612 Y121.610 E14.3660
G1 X127.518 Y121.584 E14.3823
G1 X107.852 Y120.694 E17.6561
G1 X107.581 Y120.768 E17.7029
G1 X107.531 Y120.780 E17.7114
G1 X106.899 Y120.925 E17.8193
G1 X106.833 Y120.939 E17.8305
G1 X105.606 Y121.154 E18.0375
G1 X105.539 Y121.165 E18.0488
G1 X104.899 Y121.243 E18.1561
G1 X104.854 Y121.248 E18.1636
G1 X104.223 Y121.304 E18.2690
G1 X104.174 Y121.307 E18.2772
G1 X103.540 Y121.340 E18.3828
G1 X103.495 Y121.341 E18.3902
G1 X102.850 Y121.352 E18.4974
G1 X102.784 Y121.352 E18.5085
G1 X101.528 Y121.309 E18.7174
G1 X101.436 Y121.302 E18.7329
G1 X100.184 Y121.170 E18.9421
G1 X100.118 Y121.161 E18.9533
G1 X99.481 Y121.061 E19.0604
G1 X99.436 Y121.053 E19.0681
G1 X98.803 Y120.930 E19.1753
G1 X98.737 Y120.915 E19.1866
G1 X97.529 Y120.615 E19.3936
G1 X97.463 Y120.597 E19.4050
G1 X96.844 Y120.408 E19.5125
G1 X96.799 Y120.393 E19.5205
G1 X96.189 Y120.183 E19.6278
G1 X96.125 Y120.159 E19.6391
G1 X94.971 Y119.692 E19.8461
G1 X94.912 Y119.666 E19.8569
G1 X94.316 Y119.389 E19.9662
G1 X94.252 Y119.357 E19.9780
G1 X93.153 Y118.772 E20.1851
G1 X93.098 Y118.741 E20.1957
G1 X92.533 Y118.404 E20.3050
G1 X92.471 Y118.364 E20.3172
G1 X91.437 Y117.665 E20.5248
G1 X91.383 Y117.627 E20.5358
G1 X90.869 Y117.240 E20.6428
G1 X90.834 Y117.212 E20.6502
G1 X90.340 Y116.813 E20.7559
G1 X90.301 Y116.780 E20.7643
G1 X89.823 Y116.362 E20.8699
G1 X89.793 Y116.336 E20.8766
G1 X89.331 Y115.906 E20.9816
G1 X89.297 Y115.873 E20.9893
G1 X88.846 Y115.422 E21.0955
G1 X88.813 Y115.388 E21.1033
G1 X88.384 Y114.926 E21.2082
G1 X88.356 Y114.896 E21.2150
G1 X87.932 Y114.410 E21.3224
G1 X87.885 Y114.354 E21.3344
G1 X87.118 Y113.370 E21.5418
G1 X87.077 Y113.315 E21.5533
G1 X86.701 Y112.776 E21.6627
G1 X86.664 Y112.720 E21.6737
G1 X86.004 Y111.665 E21.8806
G1 X85.970 Y111.607 E21.8920
G1 X85.651 Y111.031 E22.0015
G1 X85.619 Y110.970 E22.0128
G1 X85.069 Y109.841 E22.2217
G1 X85.032 Y109.759 E22.2366
G1 X84.560 Y108.594 E22.4457
G1 X84.537 Y108.531 E22.4569
G1 X84.326 Y107.920 E22.5643
G1 X84.311 Y107.875 E22.5722
G1 X84.126 Y107.267 E22.6779
G1 X84.113 Y107.224 E22.6854
G1 X83.950 Y106.612 E22.7907
G1 X83.939 Y106.567 E22.7984
G1 X83.794 Y105.938 E22.9059
G1 X83.780 Y105.872 E22.9170
G1 X83.563 Y104.634 E23.1260
G1 X83.550 Y104.546 E23.1408
G1 X83.418 Y103.294 E23.3501
G1 X83.412 Y103.224 E23.3619
G1 X83.379 Y102.579 E23.4693
G1 X83.378 Y102.534 E23.4768
G1 X83.367 Y101.900 E23.5822
G1 X83.367 Y101.856 E23.5896
G1 X83.378 Y101.224 E23.6946
G1 X83.379 Y101.180 E23.7020
G1 X83.412 Y100.534 E23.8095
G1 X83.418 Y100.464 E23.8213
G1 X83.549 Y99.223 E24.0287
G1 X83.558 Y99.157 E24.0397
G1 X83.659 Y98.519 E24.1471
G1 X83.666 Y98.475 E24.1546
G1 X83.787 Y97.853 E24.2600
G1 X83.797 Y97.808 E24.2677
G1 X83.939 Y97.192 E24.3728
G1 X83.949 Y97.149 E24.3801
G1 X84.113 Y96.536 E24.4857
G1 X84.126 Y96.491 E24.4934
G1 X84.311 Y95.883 E24.5992
G1 X84.326 Y95.838 E24.6071
G1 X84.537 Y95.227 E24.7144
G1 X84.560 Y95.164 E24.7257
G1 X85.028 Y94.008 E24.9331
G1 X85.056 Y93.945 E24.9445
G1 X85.329 Y93.361 E25.0518
G1 X85.348 Y93.323 E25.0588
G1 X85.633 Y92.760 E25.1637
G1 X85.656 Y92.718 E25.1716
G1 X85.964 Y92.161 E25.2776
G1 X85.987 Y92.123 E25.2850
G1 X86.320 Y91.568 E25.3926
G1 X86.356 Y91.511 E25.4039
G1 X87.053 Y90.478 E25.6110
G1 X87.092 Y90.422 E25.6224
G1 X87.485 Y89.901 E25.7310
G1 X87.512 Y89.867 E25.7381
G1 X87.913 Y89.371 E25.8442
G1 X87.959 Y89.317 E25.8559
G1 X88.793 Y88.392 E26.0631
G92 E0
G1 E-10.0000 F6000
G1 Z0.750 F1002
G1 X96.951 Y96.167 F4800
G1 Z0.450 F1002
G1 E0.0000 F6000
G92 E0
G1 X96.554 Y96.609 E0.0988 F525
G1 X96.187 Y97.079 E0.1980
G1 X96.049 Y97.276 E0.2380
G1 X95.721 Y97.802 E0.3412
G1 X95.603 Y98.012 E0.3812
G1 X95.337 Y98.560 E0.4825
G1 X95.233 Y98.808 E0.5272
G1 X95.138 Y99.055 E0.5712
G1 X94.953 Y99.624 E0.6707
G1 X94.810 Y100.199 E0.7692
G1 X94.764 Y100.434 E0.8090
G1 X94.679 Y101.050 E0.9125
G1 X94.657 Y101.292 E0.9528
G1 X94.636 Y101.900 E1.0540
G1 X94.641 Y102.143 E1.0944
G1 X94.683 Y102.743 E1.1945
G1 X94.766 Y103.332 E1.2934
G1 X94.811 Y103.567 E1.3332
G1 X94.959 Y104.162 E1.4351
G1 X95.038 Y104.414 E1.4791
G1 X95.126 Y104.670 E1.5240
G1 X95.349 Y105.222 E1.6230
G1 X95.607 Y105.752 E1.7212
G1 X95.735 Y105.981 E1.7647
G1 X95.872 Y106.209 E1.8090
G1 X96.207 Y106.704 E1.9084
G1 X96.559 Y107.155 E2.0035
G1 X96.957 Y107.597 E2.1024
G1 X97.128 Y107.768 E2.1426
G1 X97.590 Y108.183 E2.2460
G1 X97.776 Y108.334 E2.2857
G1 X98.271 Y108.693 E2.3875
G1 X98.497 Y108.839 E2.4321
G1 X98.723 Y108.975 E2.4760
G1 X99.269 Y109.265 E2.5788
G1 X99.486 Y109.366 E2.6187
