; G-Code generated by Simplify3D(R) Version 4.0.0
; Jul 15, 2020 at 5:01:40 PM
; Settings Summary
;   processName,Process1
;   applyToModels,Shock Bearing
;   profileName,Cat_Fast (modified)
;   profileVersion,2020-01-05 00:41:03
;   baseProfile,Default (modified)
;   printMaterial,PLA
;   printQuality,Fast
;   printExtruders,
;   extruderName,Primary Extruder
;   extruderToolheadNumber,0
;   extruderDiameter,0.4
;   extruderAutoWidth,0
;   extruderWidth,0.4
;   extrusionMultiplier,1
;   extruderUseRetract,1
;   extruderRetractionDistance,10
;   extruderExtraRestartDistance,0
;   extruderRetractionZLift,0.3
;   extruderRetractionSpeed,6000
;   extruderUseCoasting,0
;   extruderCoastingDistance,0.2
;   extruderUseWipe,1
;   extruderWipeDistance,2
;   primaryExtruder,0
;   layerHeight,0.3
;   topSolidLayers,3
;   bottomSolidLayers,3
;   perimeterOutlines,3
;   printPerimetersInsideOut,1
;   startPointOption,3
;   startPointOriginX,100
;   startPointOriginY,150
;   sequentialIslands,1
;   spiralVaseMode,0
;   firstLayerHeightPercentage,90
;   firstLayerWidthPercentage,100
;   firstLayerUnderspeed,0.5
;   useRaft,0
;   raftExtruder,0
;   raftTopLayers,3
;   raftBaseLayers,2
;   raftOffset,3
;   raftSeparationDistance,0.14
;   raftTopInfill,100
;   aboveRaftSpeedMultiplier,0.3
;   useSkirt,1
;   skirtExtruder,0
;   skirtLayers,1
;   skirtOutlines,3
;   skirtOffset,5.2
;   usePrimePillar,0
;   primePillarExtruder,999
;   primePillarWidth,12
;   primePillarLocation,7
;   primePillarSpeedMultiplier,1
;   useOozeShield,0
;   oozeShieldExtruder,999
;   oozeShieldOffset,2
;   oozeShieldOutlines,1
;   oozeShieldSidewallShape,1
;   oozeShieldSidewallAngle,30
;   oozeShieldSpeedMultiplier,1
;   infillExtruder,0
;   internalInfillPattern,Rectilinear
;   externalInfillPattern,Rectilinear
;   infillPercentage,15
;   outlineOverlapPercentage,30
;   infillExtrusionWidthPercentage,100
;   minInfillLength,5
;   infillLayerInterval,1
;   internalInfillAngles,45,-45
;   overlapInternalInfillAngles,0
;   externalInfillAngles,45,-45
;   generateSupport,1
;   supportExtruder,0
;   supportInfillPercentage,25
;   supportExtraInflation,0
;   supportBaseLayers,0
;   denseSupportExtruder,0
;   denseSupportLayers,0
;   denseSupportInfillPercentage,70
;   supportLayerInterval,1
;   supportHorizontalPartOffset,0.3
;   supportUpperSeparationLayers,1
;   supportLowerSeparationLayers,1
;   supportType,0
;   supportGridSpacing,4
;   maxOverhangAngle,40
;   supportAngles,0
;   temperatureName,Primary Extruder,Bed
;   temperatureNumber,0,0
;   temperatureSetpointCount,1,1
;   temperatureSetpointLayers,1,1
;   temperatureSetpointTemperatures,205,60
;   temperatureStabilizeAtStartup,1,1
;   temperatureHeatedBed,0,1
;   temperatureRelayBetweenLayers,0,0
;   temperatureRelayBetweenLoops,0,0
;   fanLayers,1,2
;   fanSpeeds,0,100
;   blipFanToFullPower,0
;   adjustSpeedForCooling,1
;   minSpeedLayerTime,15
;   minCoolingSpeedSlowdown,20
;   increaseFanForCooling,0
;   minFanLayerTime,30
;   maxCoolingFanSpeed,100
;   increaseFanForBridging,0
;   bridgingFanSpeed,100
;   use5D,1
;   relativeEdistances,0
;   allowEaxisZeroing,1
;   independentExtruderAxes,0
;   includeM10123,0
;   stickySupport,1
;   applyToolheadOffsets,0
;   gcodeXoffset,0
;   gcodeYoffset,0
;   gcodeZoffset,0
;   overrideMachineDefinition,1
;   machineTypeOverride,0
;   strokeXoverride,220
;   strokeYoverride,220
;   strokeZoverride,250
;   originOffsetXoverride,0
;   originOffsetYoverride,0
;   originOffsetZoverride,0
;   homeXdirOverride,-1
;   homeYdirOverride,-1
;   homeZdirOverride,-1
;   flipXoverride,1
;   flipYoverride,-1
;   flipZoverride,1
;   toolheadOffsets,0,0|0,0|0,0|0,0|0,0|0,0
;   overrideFirmwareConfiguration,0
;   firmwareTypeOverride,RepRap (Marlin/Repetier/Sprinter)
;   GPXconfigOverride,r2
;   baudRateOverride,115200
;   overridePrinterModels,0
;   printerModelsOverride
;   startingGcode,G28 ; home all axes,G29; BLTOUCH mesh generation,G92 E0.0,G1 Z5;,G1 X10 Y10 Z0 F6000;,G1 X60.0 E9.0  F1000.0 ; intro line,G1 X100.0 E12.5  F1000.0 ; intro line,G92 E0.0
;   layerChangeGcode,G4 P1
;   retractionGcode,
;   toolChangeGcode,
;   endingGcode,G28 X0 Y0 ; home X axis and y axis,;G1 Z180 F300 ; lower platform to bottom,M104 S0 ; kill extruder temperature,M140 S0 ; kill bed temperature,M107; kill fan,M84 ; disable motors
;   exportFileFormat,gcode
;   celebration,0
;   celebrationSong,Funky Town
;   postProcessing,curl -k -H "X-Api-Key: B48F0C35933E47C49712EE720641ACF0" -F "select=false" -F "print=false" -F "file=@[output_filepath]" "http://192.168.0.5/api/files/local" {STRIP "; postProcessing"}
;   defaultSpeed,4200
;   outlineUnderspeed,0.5
;   solidInfillUnderspeed,0.8
;   supportUnderspeed,0.8
;   rapidXYspeed,4800
;   rapidZspeed,1002
;   minBridgingArea,50
;   bridgingExtraInflation,1
;   bridgingExtrusionMultiplier,1
;   bridgingSpeedMultiplier,1
;   useFixedBridgingAngle,0
;   fixedBridgingAngle,0
;   applyBridgingToPerimeters,0
;   filamentDiameters,1.75|1.75|1.75|1.75|1.75|1.75
;   filamentPricesPerKg,25.99|46|46|46|46|46
;   filamentDensities,1.25|1.25|1.25|1.25|1.25|1.25
;   useMinPrintHeight,0
;   minPrintHeight,0
;   useMaxPrintHeight,0
;   maxPrintHeight,5
;   useDiaphragm,0
;   diaphragmLayerInterval,20
;   robustSlicing,1
;   mergeAllIntoSolid,0
;   onlyRetractWhenCrossingOutline,1
;   retractBetweenLayers,1
;   useRetractionMinTravel,0
;   retractionMinTravel,3
;   retractWhileWiping,0
;   onlyWipeOutlines,1
;   avoidCrossingOutline,1
;   maxMovementDetourFactor,3
;   toolChangeRetractionDistance,12
;   toolChangeExtraRestartDistance,-0.5
;   toolChangeRetractionSpeed,600
;   externalThinWallType,0
;   internalThinWallType,2
;   thinWallAllowedOverlapPercentage,10
;   singleExtrusionMinLength,1
;   singleExtrusionMinPrintingWidthPercentage,50
;   singleExtrusionMaxPrintingWidthPercentage,200
;   singleExtrusionEndpointExtension,0.2
;   horizontalSizeCompensation,0
G90
M82
M106 S0
M140 S60
M190 S60
M104 S205 T0
M109 S205 T0
G28 ; home all axes
G29; BLTOUCH mesh generation
G92 E0.0
G1 Z5;
G1 X10 Y10 Z0 F6000;
G1 X60.0 E9.0  F1000.0 ; intro line
G1 X100.0 E12.5  F1000.0 ; intro line
G92 E0.0
G92 E0
G1 E-10.0000 F6000
G1 Z0.570 F1002
; process Process1
; layer 1, Z = 0.270
G4 P1
T0
; tool H0.300 W0.400
; skirt
G1 X93.021 Y85.768 F4800
G1 Z0.270 F1002
G1 E0.0000 F1800
G92 E0
G1 X93.122 Y85.661 E0.0073 F2100
G1 X93.131 Y85.652 E0.0080
G1 X94.081 Y84.691 E0.0754
G1 X94.093 Y84.679 E0.0763
G1 X94.238 Y84.543 E0.0862
G1 X94.251 Y84.531 E0.0870
G1 X95.265 Y83.639 E0.1544
G1 X95.275 Y83.631 E0.1551
G1 X95.388 Y83.536 E0.1624
G1 X95.398 Y83.528 E0.1631
G1 X95.997 Y83.054 E0.2012
G1 X96.011 Y83.043 E0.2021
G1 X96.173 Y82.924 E0.2121
G1 X96.188 Y82.914 E0.2130
G1 X97.810 Y81.806 E0.3110
G1 X97.824 Y81.797 E0.3118
G1 X97.990 Y81.692 E0.3216
G1 X98.005 Y81.683 E0.3225
G1 X98.662 Y81.298 E0.3605
G1 X98.673 Y81.291 E0.3611
G1 X98.804 Y81.219 E0.3686
G1 X98.816 Y81.213 E0.3693
G1 X100.040 Y80.579 E0.4380
G1 X100.060 Y80.570 E0.4391
G1 X100.287 Y80.464 E0.4516
G1 X100.307 Y80.456 E0.4527
G1 X102.147 Y79.700 E0.5520
G1 X102.163 Y79.693 E0.5528
G1 X102.346 Y79.626 E0.5626
G1 X102.362 Y79.620 E0.5634
G1 X103.086 Y79.379 E0.6014
G1 X103.098 Y79.375 E0.6021
G1 X103.245 Y79.331 E0.6097
G1 X103.258 Y79.327 E0.6104
G1 X104.563 Y78.969 E0.6779
G1 X104.580 Y78.965 E0.6788
G1 X104.773 Y78.919 E0.6887
G1 X104.790 Y78.915 E0.6896
G1 X106.141 Y78.644 E0.7583
G1 X106.158 Y78.641 E0.7592
G1 X106.357 Y78.609 E0.7692
G1 X106.374 Y78.606 E0.7701
G1 X107.738 Y78.431 E0.8387
G1 X107.755 Y78.429 E0.8396
G1 X107.949 Y78.411 E0.8493
G1 X107.966 Y78.410 E0.8502
G1 X109.341 Y78.329 E0.9189
G1 X109.359 Y78.328 E0.9197
G1 X109.562 Y78.323 E0.9299
G1 X109.580 Y78.323 E0.9308
G1 X110.930 Y78.340 E0.9981
G1 X110.942 Y78.340 E0.9987
G1 X111.083 Y78.345 E1.0057
G1 X111.095 Y78.346 E1.0064
G1 X111.833 Y78.392 E1.0433
G1 X111.847 Y78.393 E1.0440
G1 X112.007 Y78.407 E1.0519
G1 X112.020 Y78.408 E1.0526
G1 X113.365 Y78.567 E1.1202
G1 X113.381 Y78.570 E1.1210
G1 X113.570 Y78.599 E1.1306
G1 X113.587 Y78.601 E1.1314
G1 X114.963 Y78.859 E1.2012
G1 X114.984 Y78.863 E1.2023
G1 X115.230 Y78.921 E1.2149
G1 X115.252 Y78.926 E1.2160
G1 X117.169 Y79.464 E1.3154
G1 X117.186 Y79.469 E1.3163
G1 X117.377 Y79.530 E1.3263
G1 X117.394 Y79.535 E1.3271
G1 X118.112 Y79.792 E1.3652
G1 X118.124 Y79.797 E1.3658
G1 X118.262 Y79.850 E1.3732
G1 X118.274 Y79.855 E1.3739
G1 X119.522 Y80.377 E1.4414
G1 X119.538 Y80.384 E1.4422
G1 X119.719 Y80.467 E1.4522
G1 X119.735 Y80.475 E1.4530
G1 X120.964 Y81.092 E1.5217
G1 X120.979 Y81.100 E1.5225
G1 X121.152 Y81.194 E1.5323
G1 X121.167 Y81.203 E1.5332
G1 X122.330 Y81.892 E1.6007
G1 X122.342 Y81.899 E1.6013
G1 X122.469 Y81.979 E1.6088
G1 X122.480 Y81.986 E1.6095
G1 X123.074 Y82.381 E1.6451
G1 X123.081 Y82.386 E1.6455
G1 X123.162 Y82.443 E1.6504
G1 X123.169 Y82.448 E1.6509
G1 X123.749 Y82.863 E1.6865
G1 X123.760 Y82.871 E1.6871
G1 X123.877 Y82.960 E1.6944
G1 X123.887 Y82.968 E1.6951
G1 X124.943 Y83.811 E1.7625
G1 X124.957 Y83.823 E1.7634
G1 X125.111 Y83.955 E1.7735
G1 X125.124 Y83.967 E1.7744
G1 X126.137 Y84.901 E1.8432
G1 X126.150 Y84.913 E1.8441
G1 X126.291 Y85.053 E1.8540
G1 X126.303 Y85.065 E1.8548
G1 X127.231 Y86.048 E1.9223
G1 X127.240 Y86.058 E1.9229
G1 X127.340 Y86.170 E1.9304
G1 X127.348 Y86.180 E1.9311
G1 X127.810 Y86.724 E1.9667
G1 X127.815 Y86.731 E1.9671
G1 X127.877 Y86.805 E1.9719
G1 X127.882 Y86.812 E1.9723
G1 X128.325 Y87.372 E2.0080
G1 X128.333 Y87.383 E2.0086
G1 X128.425 Y87.505 E2.0163
G1 X128.433 Y87.516 E2.0169
G1 X129.213 Y88.618 E2.0843
G1 X129.223 Y88.632 E2.0852
G1 X129.330 Y88.795 E2.0949
G1 X129.339 Y88.809 E2.0957
G1 X130.042 Y89.963 E2.1631
G1 X130.049 Y89.974 E2.1638
G1 X130.123 Y90.103 E2.1712
G1 X130.129 Y90.115 E2.1719
G1 X130.481 Y90.765 E2.2088
G1 X130.487 Y90.777 E2.2094
G1 X130.555 Y90.912 E2.2170
G1 X130.561 Y90.924 E2.2176
G1 X131.139 Y92.145 E2.2850
G1 X131.146 Y92.161 E2.2859
G1 X131.223 Y92.340 E2.2956
G1 X131.230 Y92.356 E2.2965
G1 X131.723 Y93.614 E2.3639
G1 X131.727 Y93.626 E2.3645
G1 X131.779 Y93.769 E2.3721
G1 X131.783 Y93.781 E2.3728
G1 X132.009 Y94.461 E2.4085
G1 X132.011 Y94.470 E2.4089
G1 X132.041 Y94.566 E2.4140
G1 X132.044 Y94.574 E2.4144
G1 X132.245 Y95.260 E2.4500
G1 X132.248 Y95.272 E2.4507
G1 X132.286 Y95.415 E2.4581
G1 X132.289 Y95.428 E2.4587
G1 X132.595 Y96.717 E2.5248
G1 X132.598 Y96.730 E2.5255
G1 X132.629 Y96.877 E2.5330
G1 X132.631 Y96.890 E2.5336
G1 X132.764 Y97.618 E2.5705
G1 X132.766 Y97.631 E2.5712
G1 X132.789 Y97.780 E2.5787
G1 X132.791 Y97.793 E2.5794
G1 X132.963 Y99.133 E2.6468
G1 X132.965 Y99.150 E2.6476
G1 X132.983 Y99.344 E2.6574
G1 X132.984 Y99.361 E2.6582
G1 X133.067 Y100.759 E2.7281
G1 X133.067 Y100.781 E2.7292
G1 X133.071 Y101.031 E2.7416
G1 X133.071 Y101.052 E2.7427
G1 X133.013 Y103.070 E2.8434
G1 X133.012 Y103.093 E2.8446
G1 X132.993 Y103.346 E2.8572
G1 X132.991 Y103.368 E2.8583
G1 X132.827 Y104.759 E2.9282
G1 X132.824 Y104.775 E2.9290
G1 X132.796 Y104.964 E2.9386
G1 X132.793 Y104.981 E2.9394
G1 X132.535 Y106.357 E3.0093
G1 X132.531 Y106.378 E3.0104
G1 X132.474 Y106.624 E3.0230
G1 X132.468 Y106.646 E3.0241
G1 X131.930 Y108.564 E3.1234
G1 X131.925 Y108.580 E3.1243
G1 X131.864 Y108.771 E3.1343
G1 X131.859 Y108.788 E3.1352
G1 X131.602 Y109.506 E3.1732
G1 X131.597 Y109.518 E3.1739
G1 X131.544 Y109.656 E3.1813
G1 X131.539 Y109.668 E3.1819
G1 X131.017 Y110.916 E3.2494
G1 X131.010 Y110.932 E3.2503
G1 X130.927 Y111.113 E3.2602
G1 X130.920 Y111.129 E3.2611
G1 X130.302 Y112.358 E3.3297
G1 X130.294 Y112.373 E3.3305
G1 X130.200 Y112.546 E3.3404
G1 X130.191 Y112.561 E3.3412
G1 X129.502 Y113.724 E3.4087
G1 X129.495 Y113.736 E3.4093
G1 X129.415 Y113.863 E3.4168
G1 X129.408 Y113.874 E3.4175
G1 X128.996 Y114.492 E3.4546
G1 X128.989 Y114.504 E3.4552
G1 X128.897 Y114.633 E3.4631
G1 X128.889 Y114.644 E3.4638
G1 X128.643 Y114.972 E3.4843
G1 X122.179 Y132.694 E4.4254
G1 X122.140 Y132.977 E4.4397
G1 X122.135 Y133.011 E4.4414
G1 X122.055 Y133.395 E4.4610
G1 X122.047 Y133.428 E4.4627
G1 X121.826 Y134.213 E4.5033
G1 X121.819 Y134.237 E4.5046
G1 X121.726 Y134.512 E4.5190
G1 X121.717 Y134.535 E4.5203
G1 X121.432 Y135.259 E4.5591
G1 X121.421 Y135.285 E4.5605
G1 X121.289 Y135.571 E4.5762
G1 X121.277 Y135.596 E4.5776
G1 X120.916 Y136.280 E4.6162
G1 X120.904 Y136.301 E4.6174
G1 X120.760 Y136.543 E4.6315
G1 X120.747 Y136.564 E4.6327
G1 X120.322 Y137.205 E4.6710
G1 X120.307 Y137.227 E4.6724
G1 X120.124 Y137.474 E4.6877
G1 X120.107 Y137.495 E4.6891
G1 X119.596 Y138.111 E4.7290
G1 X119.575 Y138.134 E4.7305
G1 X119.337 Y138.388 E4.7479
G1 X119.316 Y138.409 E4.7494
G1 X118.604 Y139.080 E4.7982
G1 X118.581 Y139.100 E4.7997
G1 X118.317 Y139.321 E4.8169
G1 X118.293 Y139.340 E4.8184
G1 X117.651 Y139.813 E4.8582
G1 X117.629 Y139.828 E4.8596
G1 X117.377 Y139.994 E4.8746
G1 X117.355 Y140.008 E4.8759
G1 X116.687 Y140.399 E4.9145
G1 X116.664 Y140.412 E4.9158
G1 X116.401 Y140.547 E4.9306
G1 X116.378 Y140.559 E4.9319
G1 X115.675 Y140.877 E4.9704
G1 X115.651 Y140.887 E4.9717
G1 X115.374 Y140.996 E4.9865
G1 X115.349 Y141.005 E4.9878
G1 X114.611 Y141.250 E5.0267
G1 X114.585 Y141.258 E5.0280
G1 X114.286 Y141.340 E5.0435
G1 X114.260 Y141.346 E5.0448
G1 X113.507 Y141.509 E5.0833
G1 X113.482 Y141.513 E5.0845
G1 X113.204 Y141.559 E5.0986
G1 X113.179 Y141.563 E5.0998
G1 X112.413 Y141.650 E5.1383
G1 X112.386 Y141.652 E5.1397
G1 X112.075 Y141.670 E5.1552
G1 X112.048 Y141.671 E5.1565
G1 X111.273 Y141.675 E5.1952
G1 X111.247 Y141.674 E5.1965
G1 X110.957 Y141.660 E5.2110
G1 X110.931 Y141.659 E5.2123
G1 X110.163 Y141.583 E5.2508
G1 X110.137 Y141.580 E5.2521
G1 X109.836 Y141.534 E5.2673
G1 X109.810 Y141.530 E5.2686
G1 X109.052 Y141.372 E5.3072
G1 X109.026 Y141.366 E5.3085
G1 X108.738 Y141.291 E5.3234
G1 X108.713 Y141.284 E5.3247
G1 X107.980 Y141.050 E5.3631
G1 X107.956 Y141.041 E5.3644
G1 X107.681 Y140.938 E5.3790
G1 X107.657 Y140.928 E5.3803
G1 X106.950 Y140.619 E5.4188
G1 X106.926 Y140.608 E5.4201
G1 X106.658 Y140.474 E5.4351
G1 X106.635 Y140.461 E5.4364
G1 X105.959 Y140.077 E5.4752
G1 X105.936 Y140.063 E5.4765
G1 X105.678 Y139.898 E5.4918
G1 X105.656 Y139.883 E5.4931
G1 X105.029 Y139.431 E5.5317
G1 X105.009 Y139.416 E5.5330
G1 X104.783 Y139.235 E5.5474
G1 X104.763 Y139.219 E5.5486
G1 X104.187 Y138.707 E5.5871
G1 X104.167 Y138.689 E5.5884
G1 X103.949 Y138.473 E5.6038
G1 X103.930 Y138.454 E5.6051
G1 X103.409 Y137.880 E5.6438
G1 X103.393 Y137.860 E5.6450
G1 X103.208 Y137.636 E5.6595
G1 X103.193 Y137.616 E5.6608
G1 X102.736 Y136.997 E5.6992
G1 X102.722 Y136.976 E5.7005
G1 X102.558 Y136.728 E5.7153
G1 X102.544 Y136.706 E5.7166
G1 X102.138 Y136.015 E5.7565
G1 X102.123 Y135.987 E5.7581
G1 X101.961 Y135.667 E5.7760
G1 X101.948 Y135.639 E5.7776
G1 X101.540 Y134.689 E5.8291
G1 X101.527 Y134.653 E5.8311
G1 X101.384 Y134.235 E5.8531
G1 X101.373 Y134.198 E5.8550
G1 X101.068 Y133.004 E5.9165
G1 X101.059 Y132.966 E5.9184
G1 X100.983 Y132.527 E5.9407
G1 X100.978 Y132.489 E5.9426
G1 X100.876 Y131.412 E5.9966
G1 X100.873 Y131.373 E5.9985
G1 X100.867 Y130.922 E6.0210
G1 X100.867 Y130.882 E6.0230
G1 X100.945 Y129.670 E6.0836
G1 X100.948 Y129.635 E6.0854
G1 X101.002 Y129.239 E6.1053
G1 X101.008 Y129.204 E6.1071
G1 X101.036 Y129.065 E6.1142
G1 X101.035 Y128.961 E6.1193
G1 X101.145 Y128.538 E6.1411
G1 X101.184 Y128.350 E6.1507
G1 X101.192 Y128.317 E6.1524
G1 X101.298 Y127.938 E6.1721
G1 X101.309 Y127.905 E6.1738
G1 X101.314 Y127.889 E6.1746
G1 X101.589 Y126.834 E6.2290
G1 X101.623 Y126.742 E6.2339
G1 X102.111 Y125.735 E6.2897
G1 X102.162 Y125.651 E6.2946
G1 X103.320 Y124.117 E6.3905
G1 X103.339 Y124.093 E6.3920
G1 X103.567 Y123.827 E6.4096
G1 X103.588 Y123.804 E6.4111
G1 X103.792 Y123.594 E6.4257
G1 X102.806 Y123.317 E6.4767
G1 X102.785 Y123.311 E6.4778
G1 X102.547 Y123.233 E6.4903
G1 X102.526 Y123.226 E6.4914
G1 X101.217 Y122.731 E6.5613
G1 X101.201 Y122.724 E6.5621
G1 X101.023 Y122.650 E6.5718
G1 X101.007 Y122.643 E6.5726
G1 X99.732 Y122.060 E6.6426
G1 X99.712 Y122.050 E6.6437
G1 X99.486 Y121.934 E6.6564
G1 X99.466 Y121.923 E6.6575
G1 X97.715 Y120.925 E6.7581
G1 X97.697 Y120.914 E6.7591
