; G-Code generated by Simplify3D(R) Version 4.0.0
; Jun 23, 2020 at 11:18:45 AM
; Settings Summary
;   processName,Process1
;   applyToModels,Board Mount Side,Bearing Outer,Bearing Inner
;   profileName,Cat_Fast (modified)
;   profileVersion,2020-01-05 00:41:03
;   baseProfile,Default (modified)
;   printMaterial,PLA
;   printQuality,Fast
;   printExtruders,
;   extruderName,Primary Extruder
;   extruderToolheadNumber,0
;   extruderDiameter,0.4
;   extruderAutoWidth,0
;   extruderWidth,0.4
;   extrusionMultiplier,1
;   extruderUseRetract,1
;   extruderRetractionDistance,10
;   extruderExtraRestartDistance,0
;   extruderRetractionZLift,0.3
;   extruderRetractionSpeed,6000
;   extruderUseCoasting,0
;   extruderCoastingDistance,0.2
;   extruderUseWipe,1
;   extruderWipeDistance,2
;   primaryExtruder,0
;   layerHeight,0.3
;   topSolidLayers,3
;   bottomSolidLayers,3
;   perimeterOutlines,3
;   printPerimetersInsideOut,1
;   startPointOption,3
;   startPointOriginX,100
;   startPointOriginY,150
;   sequentialIslands,1
;   spiralVaseMode,0
;   firstLayerHeightPercentage,90
;   firstLayerWidthPercentage,100
;   firstLayerUnderspeed,0.5
;   useRaft,0
;   raftExtruder,0
;   raftTopLayers,3
;   raftBaseLayers,2
;   raftOffset,3
;   raftSeparationDistance,0.14
;   raftTopInfill,100
;   aboveRaftSpeedMultiplier,0.3
;   useSkirt,0
;   skirtExtruder,0
;   skirtLayers,1
;   skirtOutlines,3
;   skirtOffset,5.2
;   usePrimePillar,0
;   primePillarExtruder,999
;   primePillarWidth,12
;   primePillarLocation,7
;   primePillarSpeedMultiplier,1
;   useOozeShield,0
;   oozeShieldExtruder,999
;   oozeShieldOffset,2
;   oozeShieldOutlines,1
;   oozeShieldSidewallShape,1
;   oozeShieldSidewallAngle,30
;   oozeShieldSpeedMultiplier,1
;   infillExtruder,0
;   internalInfillPattern,Rectilinear
;   externalInfillPattern,Rectilinear
;   infillPercentage,15
;   outlineOverlapPercentage,30
;   infillExtrusionWidthPercentage,100
;   minInfillLength,5
;   infillLayerInterval,1
;   internalInfillAngles,45,-45
;   overlapInternalInfillAngles,0
;   externalInfillAngles,45,-45
;   generateSupport,1
;   supportExtruder,0
;   supportInfillPercentage,25
;   supportExtraInflation,0
;   supportBaseLayers,0
;   denseSupportExtruder,0
;   denseSupportLayers,0
;   denseSupportInfillPercentage,70
;   supportLayerInterval,1
;   supportHorizontalPartOffset,0.3
;   supportUpperSeparationLayers,1
;   supportLowerSeparationLayers,1
;   supportType,1
;   supportGridSpacing,4
;   maxOverhangAngle,40
;   supportAngles,0
;   temperatureName,Primary Extruder,Bed
;   temperatureNumber,0,0
;   temperatureSetpointCount,1,1
;   temperatureSetpointLayers,1,1
;   temperatureSetpointTemperatures,205,60
;   temperatureStabilizeAtStartup,1,1
;   temperatureHeatedBed,0,1
;   temperatureRelayBetweenLayers,0,0
;   temperatureRelayBetweenLoops,0,0
;   fanLayers,1,2
;   fanSpeeds,0,100
;   blipFanToFullPower,0
;   adjustSpeedForCooling,1
;   minSpeedLayerTime,15
;   minCoolingSpeedSlowdown,20
;   increaseFanForCooling,0
;   minFanLayerTime,30
;   maxCoolingFanSpeed,100
;   increaseFanForBridging,0
;   bridgingFanSpeed,100
;   use5D,1
;   relativeEdistances,0
;   allowEaxisZeroing,1
;   independentExtruderAxes,0
;   includeM10123,0
;   stickySupport,1
;   applyToolheadOffsets,0
;   gcodeXoffset,0
;   gcodeYoffset,0
;   gcodeZoffset,0
;   overrideMachineDefinition,1
;   machineTypeOverride,0
;   strokeXoverride,220
;   strokeYoverride,220
;   strokeZoverride,250
;   originOffsetXoverride,0
;   originOffsetYoverride,0
;   originOffsetZoverride,0
;   homeXdirOverride,-1
;   homeYdirOverride,-1
;   homeZdirOverride,-1
;   flipXoverride,1
;   flipYoverride,-1
;   flipZoverride,1
;   toolheadOffsets,0,0|0,0|0,0|0,0|0,0|0,0
;   overrideFirmwareConfiguration,0
;   firmwareTypeOverride,RepRap (Marlin/Repetier/Sprinter)
;   GPXconfigOverride,r2
;   baudRateOverride,115200
;   overridePrinterModels,0
;   printerModelsOverride
;   startingGcode,G28 ; home all axes,G29; BLTOUCH mesh generation,G92 E0.0,G1 Z5;,G1 X10 Y10 Z0 F6000;,G1 X60.0 E9.0  F1000.0 ; intro line,G1 X100.0 E12.5  F1000.0 ; intro line,G92 E0.0
;   layerChangeGcode,G4 P1
;   retractionGcode,
;   toolChangeGcode,
;   endingGcode,G28 X0 Y0 ; home X axis and y axis,;G1 Z180 F300 ; lower platform to bottom,M104 S0 ; kill extruder temperature,M140 S0 ; kill bed temperature,M107; kill fan,M84 ; disable motors
;   exportFileFormat,gcode
;   celebration,0
;   celebrationSong,Funky Town
;   postProcessing,curl -k -H "X-Api-Key: B48F0C35933E47C49712EE720641ACF0" -F "select=false" -F "print=false" -F "file=@[output_filepath]" "http://192.168.0.5/api/files/local" {STRIP "; postProcessing"}
;   defaultSpeed,4200
;   outlineUnderspeed,0.5
;   solidInfillUnderspeed,0.8
;   supportUnderspeed,0.8
;   rapidXYspeed,4800
;   rapidZspeed,1002
;   minBridgingArea,50
;   bridgingExtraInflation,1
;   bridgingExtrusionMultiplier,1
;   bridgingSpeedMultiplier,1
;   useFixedBridgingAngle,0
;   fixedBridgingAngle,0
;   applyBridgingToPerimeters,0
;   filamentDiameters,1.75|1.75|1.75|1.75|1.75|1.75
;   filamentPricesPerKg,25.99|46|46|46|46|46
;   filamentDensities,1.25|1.25|1.25|1.25|1.25|1.25
;   useMinPrintHeight,0
;   minPrintHeight,0
;   useMaxPrintHeight,0
;   maxPrintHeight,5
;   useDiaphragm,0
;   diaphragmLayerInterval,20
;   robustSlicing,1
;   mergeAllIntoSolid,0
;   onlyRetractWhenCrossingOutline,1
;   retractBetweenLayers,1
;   useRetractionMinTravel,0
;   retractionMinTravel,3
;   retractWhileWiping,0
;   onlyWipeOutlines,1
;   avoidCrossingOutline,1
;   maxMovementDetourFactor,3
;   toolChangeRetractionDistance,12
;   toolChangeExtraRestartDistance,-0.5
;   toolChangeRetractionSpeed,600
;   externalThinWallType,0
;   internalThinWallType,2
;   thinWallAllowedOverlapPercentage,10
;   singleExtrusionMinLength,1
;   singleExtrusionMinPrintingWidthPercentage,50
;   singleExtrusionMaxPrintingWidthPercentage,200
;   singleExtrusionEndpointExtension,0.2
;   horizontalSizeCompensation,0
G90
M82
M106 S0
M140 S60
M190 S60
M104 S205 T0
M109 S205 T0
G28 ; home all axes
G29; BLTOUCH mesh generation
G92 E0.0
G1 Z5;
G1 X10 Y10 Z0 F6000;
G1 X60.0 E9.0  F1000.0 ; intro line
G1 X100.0 E12.5  F1000.0 ; intro line
G92 E0.0
G92 E0
G1 E-10.0000 F6000
G1 Z0.570 F1002
; process Process1
; layer 1, Z = 0.270
G4 P1
T0
; tool H0.300 W0.400
; inner perimeter
G1 X99.898 Y129.394 F4800
G1 Z0.270 F1002
G1 E0.0000 F1800
G92 E0
G1 X99.395 Y129.350 E0.0252 F1575
G1 X98.908 Y129.219 E0.0503
G1 X98.451 Y129.006 E0.0755
G1 X98.038 Y128.717 E0.1007
G1 X97.681 Y128.360 E0.1258
G1 X97.392 Y127.947 E0.1510
G1 X97.178 Y127.490 E0.1762
G1 X97.048 Y127.003 E0.2013
G1 X97.004 Y126.500 E0.2265
G1 X97.048 Y125.997 E0.2517
G1 X97.178 Y125.510 E0.2768
G1 X97.392 Y125.053 E0.3020
G1 X97.681 Y124.640 E0.3272
G1 X98.038 Y124.283 E0.3523
G1 X98.451 Y123.994 E0.3775
G1 X98.908 Y123.781 E0.4027
G1 X99.395 Y123.650 E0.4278
G1 X99.898 Y123.606 E0.4530
G1 X100.400 Y123.650 E0.4782
G1 X100.888 Y123.781 E0.5033
G1 X101.345 Y123.994 E0.5285
G1 X101.758 Y124.283 E0.5537
G1 X102.115 Y124.640 E0.5788
G1 X102.404 Y125.053 E0.6040
G1 X102.617 Y125.510 E0.6292
G1 X102.748 Y125.997 E0.6543
G1 X102.792 Y126.500 E0.6795
G1 X102.748 Y127.003 E0.7047
G1 X102.617 Y127.490 E0.7298
G1 X102.404 Y127.947 E0.7550
G1 X102.115 Y128.360 E0.7802
G1 X101.758 Y128.717 E0.8054
G1 X101.345 Y129.006 E0.8305
G1 X100.888 Y129.219 E0.8557
G1 X100.400 Y129.350 E0.8808
G1 X99.898 Y129.394 E0.9060
G1 X99.898 Y129.795 F4800
G92 E0
G1 X99.326 Y129.745 E0.0287 F1575
G1 X98.771 Y129.597 E0.0573
G1 X98.250 Y129.354 E0.0860
G1 X97.780 Y129.025 E0.1146
G1 X97.373 Y128.618 E0.1433
G1 X97.044 Y128.148 E0.1720
G1 X96.801 Y127.627 E0.2006
G1 X96.652 Y127.072 E0.2293
G1 X96.602 Y126.500 E0.2579
G1 X96.652 Y125.928 E0.2866
G1 X96.801 Y125.373 E0.3152
G1 X97.044 Y124.852 E0.3439
G1 X97.373 Y124.382 E0.3726
G1 X97.779 Y123.975 E0.4012
G1 X98.250 Y123.646 E0.4299
G1 X98.771 Y123.403 E0.4585
G1 X99.326 Y123.255 E0.4872
G1 X99.898 Y123.204 E0.5159
G1 X100.470 Y123.255 E0.5445
G1 X101.025 Y123.403 E0.5732
G1 X101.546 Y123.646 E0.6018
G1 X102.016 Y123.975 E0.6305
G1 X102.422 Y124.382 E0.6592
G1 X102.752 Y124.852 E0.6878
G1 X102.995 Y125.373 E0.7165
G1 X103.143 Y125.928 E0.7451
G1 X103.193 Y126.500 E0.7738
G1 X103.143 Y127.072 E0.8025
G1 X102.995 Y127.627 E0.8311
G1 X102.752 Y128.148 E0.8598
G1 X102.422 Y128.618 E0.8884
G1 X102.016 Y129.024 E0.9171
G1 X101.546 Y129.354 E0.9457
G1 X101.025 Y129.597 E0.9744
G1 X100.470 Y129.745 E1.0031
G1 X99.898 Y129.795 E1.0317
; outer perimeter
G1 X99.898 Y130.197 F4800
G92 E0
G1 X99.256 Y130.141 E0.0322 F1050
G1 X98.633 Y129.974 E0.0643
G1 X98.049 Y129.702 E0.0965
G1 X97.521 Y129.332 E0.1286
G1 X97.066 Y128.876 E0.1608
G1 X96.696 Y128.348 E0.1929
G1 X96.424 Y127.764 E0.2251
G1 X96.257 Y127.142 E0.2572
G1 X96.201 Y126.500 E0.2894
G1 X96.257 Y125.858 E0.3215
G1 X96.424 Y125.236 E0.3537
G1 X96.696 Y124.652 E0.3858
G1 X97.066 Y124.124 E0.4180
G1 X97.521 Y123.668 E0.4501
G1 X98.049 Y123.298 E0.4823
G1 X98.633 Y123.026 E0.5144
G1 X99.256 Y122.859 E0.5466
G1 X99.898 Y122.803 E0.5787
G1 X100.540 Y122.859 E0.6109
G1 X101.162 Y123.026 E0.6430
G1 X101.746 Y123.298 E0.6752
G1 X102.274 Y123.668 E0.7073
G1 X102.730 Y124.124 E0.7395
G1 X103.100 Y124.652 E0.7716
G1 X103.372 Y125.236 E0.8038
G1 X103.539 Y125.858 E0.8359
G1 X103.595 Y126.500 E0.8681
G1 X103.539 Y127.142 E0.9002
G1 X103.372 Y127.764 E0.9324
G1 X103.100 Y128.348 E0.9645
G1 X102.730 Y128.876 E0.9967
G1 X102.274 Y129.332 E1.0288
G1 X101.746 Y129.702 E1.0610
G1 X101.162 Y129.974 E1.0931
G1 X100.540 Y130.141 E1.1253
G1 X99.898 Y130.197 E1.1574
G1 X99.256 Y130.141 F4200
G1 X98.633 Y129.974 F4200
G1 X98.049 Y129.702 F4200
G1 X97.995 Y129.663 F4200
; solid layer
G1 X98.948 Y128.929 F4800
G92 E0
G1 X97.469 Y127.450 E0.1043 F1680
G1 X97.442 Y127.394 E0.1075
G1 X97.325 Y126.954 E0.1302
G1 X97.304 Y126.720 E0.1419
G1 X99.678 Y129.094 E0.3094
G1 X99.898 Y129.113 E0.3204
G1 X100.234 Y129.084 E0.3372
G1 X97.314 Y126.164 E0.5432
G1 X97.325 Y126.046 E0.5491
G1 X97.417 Y125.701 E0.5669
G1 X100.696 Y128.981 E0.7983
G1 X100.791 Y128.955 E0.8032
G1 X101.095 Y128.814 E0.8199
G1 X97.584 Y125.303 E1.0676
G1 X97.635 Y125.194 E1.0736
G1 X97.802 Y124.955 E1.0882
G1 X101.443 Y128.596 E1.3451
G1 X101.577 Y128.502 E1.3532
G1 X101.746 Y128.333 E1.3651
G1 X98.065 Y124.652 E1.6249
G1 X98.218 Y124.498 E1.6357
G1 X98.370 Y124.392 E1.6450
G1 X102.006 Y128.027 E1.9015
G1 X102.161 Y127.806 E1.9149
G1 X102.221 Y127.677 E1.9220
G1 X98.721 Y124.177 E2.1690
G1 X99.004 Y124.045 E2.1846
G1 X99.123 Y124.013 E2.1907
G1 X102.385 Y127.275 E2.4209
G1 X102.471 Y126.954 E2.4375
G1 X102.484 Y126.808 E2.4448
G1 X99.590 Y123.914 E2.6490
G1 X99.898 Y123.887 E2.6644
G1 X100.150 Y123.909 E2.6770
G1 X102.489 Y126.247 E2.8420
G1 X102.471 Y126.046 E2.8521
G1 X102.353 Y125.606 E2.8748
G1 X102.301 Y125.494 E2.8810
G1 X100.904 Y124.097 E2.9795
G92 E0
G1 E-10.0000 F6000
G1 Z0.570 F1002
; inner perimeter
G1 X110.597 Y127.679 F4800
G1 Z0.270 F1002
G1 E0.0000 F6000
G92 E0
G1 X110.254 Y127.439 E0.0209 F1575
G1 X109.959 Y127.143 E0.0417
G1 X109.719 Y126.801 E0.0626
G1 X109.542 Y126.422 E0.0834
G1 X109.434 Y126.019 E0.1043
G1 X109.398 Y125.602 E0.1251
G1 X109.434 Y125.186 E0.1460
G1 X109.542 Y124.782 E0.1668
G1 X109.719 Y124.403 E0.1877
G1 X109.959 Y124.061 E0.2085
G1 X110.254 Y123.765 E0.2294
G1 X110.597 Y123.526 E0.2502
G1 X110.975 Y123.349 E0.2711
G1 X111.379 Y123.241 E0.2919
G1 X111.796 Y123.204 E0.3128
G1 X112.212 Y123.241 E0.3336
G1 X112.616 Y123.349 E0.3545
G1 X112.994 Y123.526 E0.3753
G1 X113.337 Y123.765 E0.3962
G1 X113.632 Y124.061 E0.4170
G1 X113.872 Y124.403 E0.4379
G1 X114.049 Y124.782 E0.4587
G1 X114.157 Y125.186 E0.4796
G1 X114.193 Y125.602 E0.5004
G1 X114.157 Y126.019 E0.5213
G1 X114.049 Y126.422 E0.5421
G1 X113.872 Y126.801 E0.5630
G1 X113.632 Y127.143 E0.5838
G1 X113.337 Y127.439 E0.6047
G1 X112.994 Y127.679 E0.6255
G1 X112.616 Y127.855 E0.6464
G1 X112.212 Y127.963 E0.6672
G1 X111.796 Y128.000 E0.6881
G1 X111.379 Y127.963 E0.7090
G1 X110.976 Y127.855 E0.7298
G1 X110.597 Y127.679 E0.7507
; outer perimeter
G1 X110.396 Y128.026 F4800
G92 E0
G1 X109.996 Y127.747 E0.0243 F1050
G1 X109.651 Y127.402 E0.0487
G1 X109.371 Y127.002 E0.0730
G1 X109.165 Y126.560 E0.0974
G1 X109.039 Y126.088 E0.1217
G1 X108.996 Y125.602 E0.1461
G1 X109.039 Y125.116 E0.1704
G1 X109.165 Y124.645 E0.1947
G1 X109.371 Y124.203 E0.2191
G1 X109.651 Y123.803 E0.2434
G1 X109.996 Y123.458 E0.2678
G1 X110.396 Y123.178 E0.2921
G1 X110.838 Y122.972 E0.3165
G1 X111.309 Y122.846 E0.3408
G1 X111.796 Y122.803 E0.3651
G1 X112.282 Y122.846 E0.3895
G1 X112.753 Y122.972 E0.4138
G1 X113.195 Y123.178 E0.4382
G1 X113.595 Y123.458 E0.4625
G1 X113.940 Y123.803 E0.4869
G1 X114.220 Y124.203 E0.5112
G1 X114.426 Y124.645 E0.5356
G1 X114.552 Y125.116 E0.5599
G1 X114.595 Y125.602 E0.5842
G1 X114.552 Y126.088 E0.6086
G1 X114.426 Y126.560 E0.6329
G1 X114.220 Y127.002 E0.6573
G1 X113.940 Y127.402 E0.6816
G1 X113.595 Y127.747 E0.7060
G1 X113.195 Y128.026 E0.7303
G1 X112.753 Y128.233 E0.7546
G1 X112.282 Y128.359 E0.7790
G1 X111.796 Y128.401 E0.8033
G1 X111.309 Y128.359 E0.8277
G1 X110.838 Y128.233 E0.8520
G1 X110.396 Y128.026 E0.8764
G1 X109.996 Y127.747 F4200
G1 X109.651 Y127.402 F4200
G1 X109.371 Y127.002 F4200
G1 X109.165 Y126.560 F4200
G1 X109.153 Y126.513 F4200
; inner perimeter
G1 X110.869 Y127.206 F4800
G92 E0
G1 X111.162 Y127.343 E0.0161 F1575
G1 X111.474 Y127.426 E0.0322
G1 X111.796 Y127.454 E0.0483
G1 X112.117 Y127.426 E0.0644
G1 X112.429 Y127.343 E0.0805
G1 X112.722 Y127.206 E0.0966
G1 X112.986 Y127.021 E0.1128
G1 X113.215 Y126.793 E0.1289
G1 X113.400 Y126.528 E0.1450
G1 X113.536 Y126.236 E0.1611
G1 X113.620 Y125.924 E0.1772
G1 X113.648 Y125.602 E0.1933
G1 X113.620 Y125.281 E0.2094
G1 X113.536 Y124.969 E0.2255
G1 X113.400 Y124.676 E0.2416
G1 X113.215 Y124.412 E0.2577
G1 X112.986 Y124.183 E0.2738
G1 X112.722 Y123.998 E0.2899
G1 X112.429 Y123.862 E0.3061
G1 X112.117 Y123.778 E0.3222
G1 X111.796 Y123.750 E0.3383
G1 X111.474 Y123.778 E0.3544
G1 X111.162 Y123.862 E0.3705
G1 X110.869 Y123.998 E0.3866
G1 X110.605 Y124.183 E0.4027
G1 X110.377 Y124.412 E0.4188
G1 X110.191 Y124.676 E0.4349
G1 X110.055 Y124.969 E0.4510
G1 X109.971 Y125.281 E0.4671
G1 X109.943 Y125.604 E0.4833
G1 X109.973 Y125.931 E0.4997
G1 X110.055 Y126.236 E0.5155
G1 X110.191 Y126.528 E0.5316
G1 X110.377 Y126.793 E0.5477
G1 X110.605 Y127.021 E0.5638
G1 X110.869 Y127.206 E0.5799
; outer perimeter
G1 X111.070 Y126.859 F4800
G92 E0
G1 X111.299 Y126.966 E0.0126 F1050
G1 X111.544 Y127.031 E0.0252
G1 X111.796 Y127.053 E0.0378
G1 X112.047 Y127.031 E0.0505
G1 X112.292 Y126.966 E0.0631
G1 X112.521 Y126.859 E0.0757
G1 X112.728 Y126.714 E0.0883
G1 X112.907 Y126.535 E0.1009
G1 X113.052 Y126.328 E0.1135
G1 X113.159 Y126.098 E0.1262
G1 X113.224 Y125.854 E0.1388
G1 X113.246 Y125.602 E0.1514
G1 X113.224 Y125.350 E0.1640
G1 X113.159 Y125.106 E0.1766
G1 X113.052 Y124.877 E0.1892
G1 X112.907 Y124.670 E0.2019
G1 X112.728 Y124.491 E0.2145
G1 X112.521 Y124.346 E0.2271
G1 X112.292 Y124.239 E0.2397
G1 X112.047 Y124.174 E0.2523
G1 X111.796 Y124.151 E0.2649
G1 X111.544 Y124.174 E0.2776
G1 X111.299 Y124.239 E0.2902
G1 X111.070 Y124.346 E0.3028
G1 X110.863 Y124.491 E0.3154
G1 X110.684 Y124.670 E0.3280
G1 X110.539 Y124.877 E0.3406
G1 X110.432 Y125.106 E0.3533
G1 X110.367 Y125.350 E0.3659
G1 X110.345 Y125.603 E0.3785
G1 X110.368 Y125.860 E0.3914
G1 X110.432 Y126.098 E0.4037
G1 X110.539 Y126.328 E0.4163
G1 X110.684 Y126.535 E0.4290
G1 X110.863 Y126.714 E0.4416
G1 X111.070 Y126.859 E0.4542
G92 E0
G1 E-10.0000 F6000
G1 X111.299 Y126.966 F4200
G1 X111.544 Y127.031 F4200
G1 X111.796 Y127.053 F4200
G1 X112.047 Y127.031 F4200
G1 X112.292 Y126.966 F4200
G1 X112.521 Y126.859 F4200
G1 X112.728 Y126.714 F4200
G1 X112.891 Y126.551 F4200
G1 Z0.570 F1002
; inner perimeter
G1 X112.889 Y126.547 F4800
G1 X112.904 Y126.532 F4800
G1 X113.048 Y126.326 F4800
G1 X113.155 Y126.097 F4800
G1 X113.220 Y125.853 F4800
G1 X113.242 Y125.602 F4800
G1 X113.220 Y125.351 F4800
G1 X113.155 Y125.107 F4800
G1 X113.048 Y124.879 F4800
G1 X112.904 Y124.672 F4800
