; G-Code generated by Simplify3D(R) Version 4.0.0
; Jun 19, 2020 at 2:57:00 PM
; Settings Summary
;   processName,Process1
;   applyToModels,Pot Axle Test(2)
;   profileName,Cat_Fast (modified)
;   profileVersion,2020-01-05 00:41:03
;   baseProfile,Default (modified)
;   printMaterial,PLA
;   printQuality,Fast
;   printExtruders,
;   extruderName,Primary Extruder
;   extruderToolheadNumber,0
;   extruderDiameter,0.4
;   extruderAutoWidth,0
;   extruderWidth,0.4
;   extrusionMultiplier,1
;   extruderUseRetract,1
;   extruderRetractionDistance,10
;   extruderExtraRestartDistance,0
;   extruderRetractionZLift,0.3
;   extruderRetractionSpeed,6000
;   extruderUseCoasting,0
;   extruderCoastingDistance,0.2
;   extruderUseWipe,1
;   extruderWipeDistance,2
;   primaryExtruder,0
;   layerHeight,0.3
;   topSolidLayers,3
;   bottomSolidLayers,3
;   perimeterOutlines,3
;   printPerimetersInsideOut,1
;   startPointOption,3
;   startPointOriginX,100
;   startPointOriginY,150
;   sequentialIslands,1
;   spiralVaseMode,0
;   firstLayerHeightPercentage,90
;   firstLayerWidthPercentage,100
;   firstLayerUnderspeed,0.5
;   useRaft,0
;   raftExtruder,0
;   raftTopLayers,3
;   raftBaseLayers,2
;   raftOffset,3
;   raftSeparationDistance,0.14
;   raftTopInfill,100
;   aboveRaftSpeedMultiplier,0.3
;   useSkirt,0
;   skirtExtruder,0
;   skirtLayers,1
;   skirtOutlines,3
;   skirtOffset,5.2
;   usePrimePillar,0
;   primePillarExtruder,999
;   primePillarWidth,12
;   primePillarLocation,7
;   primePillarSpeedMultiplier,1
;   useOozeShield,0
;   oozeShieldExtruder,999
;   oozeShieldOffset,2
;   oozeShieldOutlines,1
;   oozeShieldSidewallShape,1
;   oozeShieldSidewallAngle,30
;   oozeShieldSpeedMultiplier,1
;   infillExtruder,0
;   internalInfillPattern,Rectilinear
;   externalInfillPattern,Rectilinear
;   infillPercentage,15
;   outlineOverlapPercentage,30
;   infillExtrusionWidthPercentage,100
;   minInfillLength,5
;   infillLayerInterval,1
;   internalInfillAngles,45,-45
;   overlapInternalInfillAngles,0
;   externalInfillAngles,45,-45
;   generateSupport,1
;   supportExtruder,0
;   supportInfillPercentage,25
;   supportExtraInflation,0
;   supportBaseLayers,0
;   denseSupportExtruder,0
;   denseSupportLayers,0
;   denseSupportInfillPercentage,70
;   supportLayerInterval,1
;   supportHorizontalPartOffset,0.3
;   supportUpperSeparationLayers,1
;   supportLowerSeparationLayers,1
;   supportType,1
;   supportGridSpacing,4
;   maxOverhangAngle,40
;   supportAngles,0
;   temperatureName,Primary Extruder,Bed
;   temperatureNumber,0,0
;   temperatureSetpointCount,1,1
;   temperatureSetpointLayers,1,1
;   temperatureSetpointTemperatures,205,60
;   temperatureStabilizeAtStartup,1,1
;   temperatureHeatedBed,0,1
;   temperatureRelayBetweenLayers,0,0
;   temperatureRelayBetweenLoops,0,0
;   fanLayers,1,2
;   fanSpeeds,0,100
;   blipFanToFullPower,0
;   adjustSpeedForCooling,1
;   minSpeedLayerTime,15
;   minCoolingSpeedSlowdown,20
;   increaseFanForCooling,0
;   minFanLayerTime,30
;   maxCoolingFanSpeed,100
;   increaseFanForBridging,0
;   bridgingFanSpeed,100
;   use5D,1
;   relativeEdistances,0
;   allowEaxisZeroing,1
;   independentExtruderAxes,0
;   includeM10123,0
;   stickySupport,1
;   applyToolheadOffsets,0
;   gcodeXoffset,0
;   gcodeYoffset,0
;   gcodeZoffset,0
;   overrideMachineDefinition,1
;   machineTypeOverride,0
;   strokeXoverride,220
;   strokeYoverride,220
;   strokeZoverride,250
;   originOffsetXoverride,0
;   originOffsetYoverride,0
;   originOffsetZoverride,0
;   homeXdirOverride,-1
;   homeYdirOverride,-1
;   homeZdirOverride,-1
;   flipXoverride,1
;   flipYoverride,-1
;   flipZoverride,1
;   toolheadOffsets,0,0|0,0|0,0|0,0|0,0|0,0
;   overrideFirmwareConfiguration,0
;   firmwareTypeOverride,RepRap (Marlin/Repetier/Sprinter)
;   GPXconfigOverride,r2
;   baudRateOverride,115200
;   overridePrinterModels,0
;   printerModelsOverride
;   startingGcode,G28 ; home all axes,G29; BLTOUCH mesh generation,G92 E0.0,G1 Z5;,G1 X10 Y10 Z0 F6000;,G1 X60.0 E9.0  F1000.0 ; intro line,G1 X100.0 E12.5  F1000.0 ; intro line,G92 E0.0
;   layerChangeGcode,G4 P1
;   retractionGcode,
;   toolChangeGcode,
;   endingGcode,G28 X0 Y0 ; home X axis and y axis,;G1 Z180 F300 ; lower platform to bottom,M104 S0 ; kill extruder temperature,M140 S0 ; kill bed temperature,M107; kill fan,M84 ; disable motors
;   exportFileFormat,gcode
;   celebration,0
;   celebrationSong,Funky Town
;   postProcessing,curl -k -H "X-Api-Key: B48F0C35933E47C49712EE720641ACF0" -F "select=false" -F "print=false" -F "file=@[output_filepath]" "http://192.168.0.5/api/files/local" {STRIP "; postProcessing"}
;   defaultSpeed,4200
;   outlineUnderspeed,0.5
;   solidInfillUnderspeed,0.8
;   supportUnderspeed,0.8
;   rapidXYspeed,4800
;   rapidZspeed,1002
;   minBridgingArea,50
;   bridgingExtraInflation,1
;   bridgingExtrusionMultiplier,1
;   bridgingSpeedMultiplier,1
;   useFixedBridgingAngle,0
;   fixedBridgingAngle,0
;   applyBridgingToPerimeters,0
;   filamentDiameters,1.75|1.75|1.75|1.75|1.75|1.75
;   filamentPricesPerKg,25.99|46|46|46|46|46
;   filamentDensities,1.25|1.25|1.25|1.25|1.25|1.25
;   useMinPrintHeight,0
;   minPrintHeight,0
;   useMaxPrintHeight,0
;   maxPrintHeight,5
;   useDiaphragm,0
;   diaphragmLayerInterval,20
;   robustSlicing,1
;   mergeAllIntoSolid,0
;   onlyRetractWhenCrossingOutline,1
;   retractBetweenLayers,1
;   useRetractionMinTravel,0
;   retractionMinTravel,3
;   retractWhileWiping,0
;   onlyWipeOutlines,1
;   avoidCrossingOutline,1
;   maxMovementDetourFactor,3
;   toolChangeRetractionDistance,12
;   toolChangeExtraRestartDistance,-0.5
;   toolChangeRetractionSpeed,600
;   externalThinWallType,0
;   internalThinWallType,2
;   thinWallAllowedOverlapPercentage,10
;   singleExtrusionMinLength,1
;   singleExtrusionMinPrintingWidthPercentage,50
;   singleExtrusionMaxPrintingWidthPercentage,200
;   singleExtrusionEndpointExtension,0.2
;   horizontalSizeCompensation,0
G90
M82
M106 S0
M140 S60
M190 S60
M104 S205 T0
M109 S205 T0
G28 ; home all axes
G29; BLTOUCH mesh generation
G92 E0.0
G1 Z5;
G1 X10 Y10 Z0 F6000;
G1 X60.0 E9.0  F1000.0 ; intro line
G1 X100.0 E12.5  F1000.0 ; intro line
G92 E0.0
G92 E0
G1 E-10.0000 F6000
G1 Z0.570 F1002
; process Process1
; layer 1, Z = 0.270
G4 P1
T0
; tool H0.300 W0.400
; inner perimeter
G1 X108.360 Y116.801 F4800
G1 Z0.270 F1002
G1 E0.0000 F1800
G92 E0
G1 X107.204 Y116.413 E0.0608 F1575
G1 X106.133 Y115.830 E0.1217
G1 X105.179 Y115.070 E0.1825
G1 X104.372 Y114.156 E0.2434
G1 X103.736 Y113.116 E0.3042
G1 X103.290 Y111.981 E0.3650
G1 X103.048 Y110.785 E0.4259
G1 X103.017 Y109.566 E0.4867
G1 X103.199 Y108.360 E0.5476
G1 X103.587 Y107.204 E0.6084
G1 X104.170 Y106.133 E0.6693
G1 X104.930 Y105.179 E0.7301
G1 X105.844 Y104.372 E0.7909
G1 X106.884 Y103.736 E0.8518
G1 X108.019 Y103.290 E0.9126
G1 X109.215 Y103.048 E0.9735
G1 X110.434 Y103.017 E1.0343
G1 X111.640 Y103.199 E1.0951
G1 X112.796 Y103.587 E1.1560
G1 X113.867 Y104.170 E1.2168
G1 X114.821 Y104.930 E1.2777
G1 X115.628 Y105.844 E1.3385
G1 X116.264 Y106.884 E1.3994
G1 X116.710 Y108.020 E1.4602
G1 X116.952 Y109.215 E1.5210
G1 X116.983 Y110.434 E1.5819
G1 X116.801 Y111.640 E1.6427
G1 X116.413 Y112.796 E1.7036
G1 X115.830 Y113.867 E1.7644
G1 X115.070 Y114.821 E1.8253
G1 X114.156 Y115.628 E1.8861
G1 X113.115 Y116.264 E1.9469
G1 X111.980 Y116.710 E2.0078
G1 X110.785 Y116.952 E2.0686
G1 X109.566 Y116.983 E2.1295
G1 X108.360 Y116.801 E2.1903
G1 X108.266 Y117.192 F4800
G92 E0
G1 X107.043 Y116.781 E0.0643 F1575
G1 X105.911 Y116.165 E0.1287
G1 X104.902 Y115.361 E0.1930
G1 X104.049 Y114.395 E0.2573
G1 X103.376 Y113.294 E0.3217
G1 X102.905 Y112.094 E0.3860
G1 X102.649 Y110.830 E0.4503
G1 X102.616 Y109.541 E0.5147
G1 X102.808 Y108.266 E0.5790
G1 X103.219 Y107.044 E0.6433
G1 X103.835 Y105.911 E0.7077
G1 X104.639 Y104.903 E0.7720
G1 X105.605 Y104.049 E0.8363
G1 X106.706 Y103.376 E0.9007
G1 X107.906 Y102.905 E0.9650
G1 X109.170 Y102.649 E1.0293
G1 X110.459 Y102.617 E1.0937
G1 X111.734 Y102.808 E1.1580
G1 X112.956 Y103.219 E1.2223
G1 X114.089 Y103.835 E1.2867
G1 X115.097 Y104.639 E1.3510
G1 X115.951 Y105.606 E1.4153
G1 X116.624 Y106.706 E1.4797
G1 X117.095 Y107.906 E1.5440
G1 X117.351 Y109.170 E1.6083
G1 X117.383 Y110.459 E1.6727
G1 X117.192 Y111.734 E1.7370
G1 X116.781 Y112.957 E1.8013
G1 X116.165 Y114.089 E1.8657
G1 X115.361 Y115.098 E1.9300
G1 X114.394 Y115.951 E1.9943
G1 X113.294 Y116.624 E2.0587
G1 X112.094 Y117.095 E2.1230
G1 X110.830 Y117.351 E2.1873
G1 X109.541 Y117.384 E2.2517
G1 X108.266 Y117.192 E2.3160
; outer perimeter
G1 X108.172 Y117.582 F4800
G92 E0
G1 X106.883 Y117.149 E0.0678 F1050
G1 X105.689 Y116.500 E0.1356
G1 X104.626 Y115.652 E0.2035
G1 X103.726 Y114.633 E0.2713
G1 X103.017 Y113.473 E0.3391
G1 X102.520 Y112.208 E0.4070
G1 X102.250 Y110.875 E0.4748
G1 X102.216 Y109.516 E0.5426
G1 X102.418 Y108.172 E0.6104
G1 X102.851 Y106.883 E0.6783
G1 X103.500 Y105.689 E0.7461
G1 X104.348 Y104.626 E0.8139
G1 X105.367 Y103.726 E0.8817
G1 X106.527 Y103.017 E0.9496
G1 X107.792 Y102.520 E1.0174
G1 X109.125 Y102.250 E1.0852
G1 X110.484 Y102.216 E1.1530
G1 X111.828 Y102.418 E1.2209
G1 X113.117 Y102.851 E1.2887
G1 X114.311 Y103.501 E1.3565
G1 X115.374 Y104.348 E1.4243
G1 X116.274 Y105.367 E1.4922
G1 X116.983 Y106.527 E1.5600
G1 X117.480 Y107.792 E1.6278
G1 X117.750 Y109.125 E1.6956
G1 X117.784 Y110.484 E1.7635
G1 X117.582 Y111.828 E1.8313
G1 X117.149 Y113.117 E1.8991
G1 X116.499 Y114.311 E1.9669
G1 X115.652 Y115.374 E2.0348
G1 X114.633 Y116.274 E2.1026
G1 X113.473 Y116.983 E2.1704
G1 X112.208 Y117.480 E2.2382
G1 X110.875 Y117.750 E2.3061
G1 X109.516 Y117.784 E2.3739
G1 X108.172 Y117.582 E2.4417
G1 X106.883 Y117.149 F4200
G1 X106.320 Y116.843 F4200
; inner perimeter
G1 X108.810 Y114.936 F4800
G92 E0
G1 X110.570 Y115.045 E0.0880 F1575
G1 X112.261 Y114.546 E0.1759
G1 X113.679 Y113.499 E0.2639
G1 X114.654 Y112.029 E0.3519
G1 X115.067 Y110.315 E0.4398
G1 X114.869 Y108.563 E0.5278
G1 X114.084 Y106.984 E0.6158
G1 X112.806 Y105.769 E0.7038
G1 X111.190 Y105.064 E0.7917
G1 X109.430 Y104.955 E0.8797
G1 X107.739 Y105.454 E0.9677
G1 X106.321 Y106.502 E1.0556
G1 X105.346 Y107.971 E1.1436
G1 X104.933 Y109.685 E1.2316
G1 X105.130 Y111.437 E1.3195
G1 X105.916 Y113.016 E1.4075
G1 X107.194 Y114.231 E1.4955
G1 X108.810 Y114.936 E1.5834
G1 X108.599 Y114.408 F4800
G92 E0
G1 X108.918 Y113.977 E0.0268 F1575
G1 X109.150 Y114.033 E0.0387
G1 X109.238 Y114.562 E0.0654
G1 X110.191 Y114.621 E0.1131
G1 X110.344 Y114.107 E0.1398
G1 X110.581 Y114.080 E0.1517
G1 X110.844 Y114.547 E0.1785
G1 X111.760 Y114.277 E0.2261
G1 X111.728 Y113.741 E0.2529
G1 X111.941 Y113.635 E0.2648
G1 X112.348 Y113.984 E0.2915
G1 X113.117 Y113.417 E0.3392
G1 X112.903 Y112.925 E0.3659
G1 X113.067 Y112.752 E0.3778
G1 X113.569 Y112.941 E0.4046
G1 X114.097 Y112.145 E0.4522
G1 X113.728 Y111.756 E0.4790
G1 X113.824 Y111.537 E0.4909
G1 X114.360 Y111.543 E0.5177
G1 X114.584 Y110.614 E0.5653
G1 X114.104 Y110.375 E0.5921
G1 X114.119 Y110.137 E0.6040
G1 X114.624 Y109.958 E0.6307
G1 X114.517 Y109.009 E0.6784
G1 X113.984 Y108.948 E0.7051
G1 X113.917 Y108.720 E0.7170
G1 X114.331 Y108.379 E0.7438
G1 X113.906 Y107.524 E0.7914
G1 X113.384 Y107.649 E0.8182
G1 X113.243 Y107.457 E0.8301
G1 X113.516 Y106.996 E0.8568
G1 X112.823 Y106.337 E0.9045
G1 X112.376 Y106.633 E0.9313
G1 X112.177 Y106.501 E0.9431
G1 X112.276 Y105.974 E0.9699
G1 X111.400 Y105.593 E1.0176
G1 X111.081 Y106.024 E1.0443
G1 X110.850 Y105.968 E1.0562
G1 X110.762 Y105.439 E1.0830
G1 X109.809 Y105.379 E1.1306
G1 X109.656 Y105.894 E1.1574
G1 X109.419 Y105.920 E1.1693
G1 X109.156 Y105.453 E1.1960
G1 X108.240 Y105.723 E1.2437
G1 X108.272 Y106.259 E1.2704
G1 X108.059 Y106.365 E1.2823
G1 X107.651 Y106.016 E1.3091
G1 X106.883 Y106.583 E1.3567
G1 X107.097 Y107.075 E1.3835
G1 X106.933 Y107.248 E1.3954
G1 X106.430 Y107.059 E1.4222
G1 X105.903 Y107.855 E1.4698
G1 X106.272 Y108.245 E1.4966
G1 X106.176 Y108.463 E1.5085
G1 X105.640 Y108.458 E1.5352
G1 X105.416 Y109.386 E1.5829
G1 X105.896 Y109.626 E1.6096
G1 X105.881 Y109.864 E1.6215
G1 X105.375 Y110.042 E1.6483
G1 X105.483 Y110.991 E1.6959
G1 X106.015 Y111.052 E1.7227
G1 X106.083 Y111.281 E1.7346
G1 X105.669 Y111.621 E1.7613
G1 X106.094 Y112.476 E1.8090
G1 X106.615 Y112.351 E1.8357
G1 X106.757 Y112.543 E1.8476
G1 X106.484 Y113.005 E1.8744
G1 X107.176 Y113.663 E1.9221
G1 X107.624 Y113.367 E1.9488
G1 X107.822 Y113.499 E1.9607
G1 X107.724 Y114.026 E1.9875
G1 X108.599 Y114.408 E2.0351
; outer perimeter
G1 X108.467 Y113.914 F4800
G92 E0
G1 X109.341 Y112.734 E0.0732 F1050
G1 X109.581 Y114.182 E0.1464
G1 X109.898 Y114.202 E0.1623
G1 X110.316 Y112.795 E0.2355
G1 X111.036 Y114.073 E0.3087
G1 X111.342 Y113.983 E0.3246
G1 X111.252 Y112.518 E0.3978
G1 X112.367 Y113.473 E0.4711
G1 X112.623 Y113.284 E0.4869
G1 X112.038 Y111.938 E0.5602
G1 X113.412 Y112.454 E0.6334
G1 X113.588 Y112.189 E0.6493
G1 X112.578 Y111.124 E0.7225
G1 X114.046 Y111.139 E0.7957
G1 X114.120 Y110.830 E0.8116
G1 X112.807 Y110.175 E0.8848
G1 X114.191 Y109.687 E0.9580
G1 X114.155 Y109.371 E0.9739
G1 X112.697 Y109.204 E1.0471
G1 X113.831 Y108.272 E1.1203
G1 X113.690 Y107.987 E1.1362
G1 X112.262 Y108.329 E1.2094
G1 X113.009 Y107.066 E1.2826
G1 X112.779 Y106.847 E1.2985
G1 X111.555 Y107.656 E1.3717
G1 X111.824 Y106.214 E1.4449
G1 X111.532 Y106.086 E1.4608
G1 X110.659 Y107.266 E1.5340
G1 X110.419 Y105.818 E1.6072
G1 X110.102 Y105.798 E1.6231
G1 X109.684 Y107.205 E1.6963
G1 X108.964 Y105.927 E1.7696
G1 X108.658 Y106.017 E1.7854
G1 X108.747 Y107.482 E1.8587
G1 X107.633 Y106.527 E1.9319
G1 X107.377 Y106.716 E1.9478
G1 X107.962 Y108.062 E2.0210
G1 X106.588 Y107.546 E2.0942
G1 X106.412 Y107.811 E2.1101
G1 X107.422 Y108.876 E2.1833
G1 X105.954 Y108.861 E2.2565
G1 X105.880 Y109.170 E2.2724
G1 X107.193 Y109.826 E2.3456
G1 X105.809 Y110.313 E2.4188
G1 X105.844 Y110.630 E2.4347
G1 X107.302 Y110.796 E2.5079
G1 X106.168 Y111.728 E2.5811
G1 X106.310 Y112.013 E2.5970
G1 X107.737 Y111.671 E2.6702
G1 X106.990 Y112.934 E2.7434
G1 X107.221 Y113.154 E2.7593
G1 X108.445 Y112.344 E2.8325
G1 X108.175 Y113.787 E2.9057
G1 X108.467 Y113.914 E2.9216
G1 X109.341 Y112.734 F4200
G1 X109.428 Y113.260 F4200
; gap fill
G1 X109.062 Y113.588 F4800
G92 E0
G1 X109.220 Y113.746 E0.0112 F1680
G1 X108.867 Y114.524 F4800
G92 E0
G1 X108.959 Y114.616 E0.0065 F1680
G92 E0
G1 E-10.0000 F6000
G1 Z0.570 F1002
G1 X110.335 Y113.729 F4800
G1 Z0.270 F1002
G1 E0.0000 F6000
G92 E0
G1 X110.418 Y113.812 E0.0059 F1680
G1 X110.796 Y113.640 F4800
G1 X111.038 Y114.069 F4800
G1 X111.337 Y113.980 F4800
G1 X111.303 Y113.409 F4800
G1 X111.583 Y113.280 F4800
G92 E0
G1 X111.727 Y113.424 E0.0102 F1680
G1 X112.047 Y114.309 F4800
G92 E0
G1 X112.050 Y114.312 E0.0002 F1680
G92 E0
G1 E-10.0000 F6000
G1 Z0.570 F1002
G1 X112.713 Y112.713 F4800
G1 Z0.270 F1002
G1 E0.0000 F6000
G92 E0
G1 X112.663 Y112.662 E0.0035 F1680
G1 X112.848 Y112.238 F4800
G1 X113.410 Y112.449 F4800
G1 X113.583 Y112.189 F4800
G1 X113.094 Y111.674 F4800
G1 X113.332 Y111.128 F4800
G1 X114.042 Y111.135 F4800
G1 X114.116 Y110.832 F4800
G1 X113.578 Y110.564 F4800
G1 X113.694 Y110.300 F4800
G92 E0
G1 X113.593 Y110.199 E0.0071 F1680
G1 X114.743 Y110.218 F4800
G92 E0
G1 X114.774 Y110.248 E0.0022 F1680
G92 E0
G1 E-10.0000 F6000
G1 Z0.570 F1002
G1 X113.540 Y109.014 F4800
G1 Z0.270 F1002
G1 E0.0000 F6000
G92 E0
G1 X113.466 Y108.940 E0.0052 F1680
G1 X113.339 Y108.672 F4800
G1 X113.826 Y108.271 F4800
G1 X113.687 Y107.992 F4800
G1 X113.086 Y108.136 F4800
G1 X112.961 Y107.870 F4800
G92 E0
G1 X112.900 Y107.809 E0.0043 F1680
G1 X112.690 Y107.599 F4800
G1 X113.004 Y107.067 F4800
G1 X112.778 Y106.852 F4800
G1 X112.275 Y107.184 F4800
G1 X112.068 Y106.976 F4800
G92 E0
G1 X111.986 Y106.895 E0.0058 F1680
G1 X111.716 Y106.771 F4800
G1 X111.820 Y106.216 F4800
G1 X111.534 Y106.091 F4800
G1 X111.205 Y106.535 F4800
G1 X110.938 Y106.412 F4800
G92 E0
G1 X110.779 Y106.254 E0.0112 F1680
G1 X111.133 Y105.476 F4800
G92 E0
G1 X111.041 Y105.384 E0.0065 F1680
G92 E0
G1 E-10.0000 F6000
G1 Z0.570 F1002
G1 X109.665 Y106.271 F4800
G1 Z0.270 F1002
G1 E0.0000 F6000
G92 E0
G1 X109.582 Y106.188 E0.0059 F1680
G1 X109.203 Y106.360 F4800
