; G-Code generated by Simplify3D(R) Version 4.0.0
; Jun 24, 2020 at 10:01:02 AM
; Settings Summary
;   processName,Process1
;   applyToModels,Side 1
;   profileName,Cat_Fast (modified)
;   profileVersion,2020-01-05 00:41:03
;   baseProfile,Default (modified)
;   printMaterial,PLA
;   printQuality,Fast
;   printExtruders,
;   extruderName,Primary Extruder
;   extruderToolheadNumber,0
;   extruderDiameter,0.4
;   extruderAutoWidth,0
;   extruderWidth,0.4
;   extrusionMultiplier,1
;   extruderUseRetract,1
;   extruderRetractionDistance,10
;   extruderExtraRestartDistance,0
;   extruderRetractionZLift,0.3
;   extruderRetractionSpeed,6000
;   extruderUseCoasting,0
;   extruderCoastingDistance,0.2
;   extruderUseWipe,1
;   extruderWipeDistance,2
;   primaryExtruder,0
;   layerHeight,0.3
;   topSolidLayers,3
;   bottomSolidLayers,3
;   perimeterOutlines,3
;   printPerimetersInsideOut,1
;   startPointOption,3
;   startPointOriginX,100
;   startPointOriginY,150
;   sequentialIslands,1
;   spiralVaseMode,0
;   firstLayerHeightPercentage,90
;   firstLayerWidthPercentage,100
;   firstLayerUnderspeed,0.5
;   useRaft,1
;   raftExtruder,0
;   raftTopLayers,3
;   raftBaseLayers,2
;   raftOffset,3
;   raftSeparationDistance,0.14
;   raftTopInfill,100
;   aboveRaftSpeedMultiplier,0.3
;   useSkirt,0
;   skirtExtruder,0
;   skirtLayers,1
;   skirtOutlines,3
;   skirtOffset,5.2
;   usePrimePillar,0
;   primePillarExtruder,999
;   primePillarWidth,12
;   primePillarLocation,7
;   primePillarSpeedMultiplier,1
;   useOozeShield,0
;   oozeShieldExtruder,999
;   oozeShieldOffset,2
;   oozeShieldOutlines,1
;   oozeShieldSidewallShape,1
;   oozeShieldSidewallAngle,30
;   oozeShieldSpeedMultiplier,1
;   infillExtruder,0
;   internalInfillPattern,Rectilinear
;   externalInfillPattern,Rectilinear
;   infillPercentage,15
;   outlineOverlapPercentage,30
;   infillExtrusionWidthPercentage,100
;   minInfillLength,5
;   infillLayerInterval,1
;   internalInfillAngles,45,-45
;   overlapInternalInfillAngles,0
;   externalInfillAngles,45,-45
;   generateSupport,1
;   supportExtruder,0
;   supportInfillPercentage,25
;   supportExtraInflation,0
;   supportBaseLayers,0
;   denseSupportExtruder,0
;   denseSupportLayers,0
;   denseSupportInfillPercentage,70
;   supportLayerInterval,1
;   supportHorizontalPartOffset,0.3
;   supportUpperSeparationLayers,1
;   supportLowerSeparationLayers,1
;   supportType,0
;   supportGridSpacing,4
;   maxOverhangAngle,40
;   supportAngles,0
;   temperatureName,Primary Extruder,Bed
;   temperatureNumber,0,0
;   temperatureSetpointCount,1,1
;   temperatureSetpointLayers,1,1
;   temperatureSetpointTemperatures,205,60
;   temperatureStabilizeAtStartup,1,1
;   temperatureHeatedBed,0,1
;   temperatureRelayBetweenLayers,0,0
;   temperatureRelayBetweenLoops,0,0
;   fanLayers,1,2
;   fanSpeeds,0,100
;   blipFanToFullPower,0
;   adjustSpeedForCooling,1
;   minSpeedLayerTime,15
;   minCoolingSpeedSlowdown,20
;   increaseFanForCooling,0
;   minFanLayerTime,30
;   maxCoolingFanSpeed,100
;   increaseFanForBridging,0
;   bridgingFanSpeed,100
;   use5D,1
;   relativeEdistances,0
;   allowEaxisZeroing,1
;   independentExtruderAxes,0
;   includeM10123,0
;   stickySupport,1
;   applyToolheadOffsets,0
;   gcodeXoffset,0
;   gcodeYoffset,0
;   gcodeZoffset,0
;   overrideMachineDefinition,1
;   machineTypeOverride,0
;   strokeXoverride,220
;   strokeYoverride,220
;   strokeZoverride,250
;   originOffsetXoverride,0
;   originOffsetYoverride,0
;   originOffsetZoverride,0
;   homeXdirOverride,-1
;   homeYdirOverride,-1
;   homeZdirOverride,-1
;   flipXoverride,1
;   flipYoverride,-1
;   flipZoverride,1
;   toolheadOffsets,0,0|0,0|0,0|0,0|0,0|0,0
;   overrideFirmwareConfiguration,0
;   firmwareTypeOverride,RepRap (Marlin/Repetier/Sprinter)
;   GPXconfigOverride,r2
;   baudRateOverride,115200
;   overridePrinterModels,0
;   printerModelsOverride
;   startingGcode,G28 ; home all axes,G29; BLTOUCH mesh generation,G92 E0.0,G1 Z5;,G1 X10 Y10 Z0 F6000;,G1 X60.0 E9.0  F1000.0 ; intro line,G1 X100.0 E12.5  F1000.0 ; intro line,G92 E0.0
;   layerChangeGcode,G4 P1
;   retractionGcode,
;   toolChangeGcode,
;   endingGcode,G28 X0 Y0 ; home X axis and y axis,;G1 Z180 F300 ; lower platform to bottom,M104 S0 ; kill extruder temperature,M140 S0 ; kill bed temperature,M107; kill fan,M84 ; disable motors
;   exportFileFormat,gcode
;   celebration,0
;   celebrationSong,Funky Town
;   postProcessing,curl -k -H "X-Api-Key: B48F0C35933E47C49712EE720641ACF0" -F "select=false" -F "print=false" -F "file=@[output_filepath]" "http://192.168.0.5/api/files/local" {STRIP "; postProcessing"}
;   defaultSpeed,4200
;   outlineUnderspeed,0.5
;   solidInfillUnderspeed,0.8
;   supportUnderspeed,0.8
;   rapidXYspeed,4800
;   rapidZspeed,1002
;   minBridgingArea,50
;   bridgingExtraInflation,1
;   bridgingExtrusionMultiplier,1
;   bridgingSpeedMultiplier,1
;   useFixedBridgingAngle,0
;   fixedBridgingAngle,0
;   applyBridgingToPerimeters,0
;   filamentDiameters,1.75|1.75|1.75|1.75|1.75|1.75
;   filamentPricesPerKg,25.99|46|46|46|46|46
;   filamentDensities,1.25|1.25|1.25|1.25|1.25|1.25
;   useMinPrintHeight,0
;   minPrintHeight,0
;   useMaxPrintHeight,0
;   maxPrintHeight,5
;   useDiaphragm,0
;   diaphragmLayerInterval,20
;   robustSlicing,1
;   mergeAllIntoSolid,0
;   onlyRetractWhenCrossingOutline,1
;   retractBetweenLayers,1
;   useRetractionMinTravel,0
;   retractionMinTravel,3
;   retractWhileWiping,0
;   onlyWipeOutlines,1
;   avoidCrossingOutline,1
;   maxMovementDetourFactor,3
;   toolChangeRetractionDistance,12
;   toolChangeExtraRestartDistance,-0.5
;   toolChangeRetractionSpeed,600
;   externalThinWallType,0
;   internalThinWallType,2
;   thinWallAllowedOverlapPercentage,10
;   singleExtrusionMinLength,1
;   singleExtrusionMinPrintingWidthPercentage,50
;   singleExtrusionMaxPrintingWidthPercentage,200
;   singleExtrusionEndpointExtension,0.2
;   horizontalSizeCompensation,0
G90
M82
M106 S0
M140 S60
M190 S60
M104 S205 T0
M109 S205 T0
G28 ; home all axes
G29; BLTOUCH mesh generation
G92 E0.0
G1 Z5;
G1 X10 Y10 Z0 F6000;
G1 X60.0 E9.0  F1000.0 ; intro line
G1 X100.0 E12.5  F1000.0 ; intro line
G92 E0.0
G92 E0
G1 E-10.0000 F6000
G1 Z0.750 F1002
; process Process1
; layer 1, Z = 0.450
G4 P1
T0
; tool H0.500 W0.800
; raft
G1 X79.856 Y68.099 F4800
G1 Z0.450 F1002
G1 E0.0000 F1800
G92 E0
G1 X79.874 Y68.079 E0.0045 F525
G1 X80.743 Y67.134 E0.2180
G1 X80.761 Y67.114 E0.2225
G1 X81.651 Y66.186 E0.4364
G1 X81.671 Y66.166 E0.4410
G1 X82.578 Y65.260 E0.6543
G1 X82.599 Y65.239 E0.6592
G1 X83.527 Y64.351 E0.8729
G1 X83.547 Y64.333 E0.8773
G1 X84.494 Y63.464 E1.0910
G1 X84.514 Y63.446 E1.0954
G1 X85.475 Y62.600 E1.3084
G1 X85.496 Y62.582 E1.3130
G1 X86.476 Y61.754 E1.5263
G1 X86.495 Y61.738 E1.5305
G1 X87.492 Y60.929 E1.7441
G1 X87.517 Y60.909 E1.7494
G1 X88.534 Y60.124 E1.9630
G1 X88.555 Y60.109 E1.9673
G1 X89.585 Y59.345 E2.1805
G1 X89.608 Y59.328 E2.1853
G1 X90.654 Y58.585 E2.3986
G1 X90.678 Y58.569 E2.4035
G1 X91.739 Y57.849 E2.6168
G1 X91.760 Y57.835 E2.6210
G1 X92.838 Y57.134 E2.8347
G1 X92.862 Y57.119 E2.8395
G1 X93.954 Y56.443 E3.0531
G1 X93.977 Y56.429 E3.0576
G1 X95.082 Y55.777 E3.2708
G1 X95.104 Y55.764 E3.2752
G1 X96.224 Y55.134 E3.4888
G1 X96.249 Y55.120 E3.4937
G1 X97.379 Y54.516 E3.7068
G1 X97.402 Y54.504 E3.7110
G1 X98.545 Y53.921 E3.9243
G1 X98.571 Y53.908 E3.9292
G1 X99.728 Y53.349 E4.1429
G1 X99.754 Y53.337 E4.1477
G1 X100.921 Y52.804 E4.3611
G1 X100.944 Y52.794 E4.3651
G1 X102.125 Y52.283 E4.5792
G1 X102.151 Y52.272 E4.5838
G1 X103.340 Y51.788 E4.7974
G1 X103.364 Y51.779 E4.8017
G1 X104.563 Y51.320 E5.0151
G1 X104.587 Y51.311 E5.0194
G1 X105.799 Y50.875 E5.2335
G1 X105.823 Y50.867 E5.2379
G1 X107.039 Y50.459 E5.4512
G1 X107.062 Y50.451 E5.4551
G1 X108.290 Y50.066 E5.6691
G1 X108.320 Y50.056 E5.6744
G1 X109.552 Y49.701 E5.8877
G1 X109.576 Y49.695 E5.8917
G1 X110.815 Y49.363 E6.1051
G1 X110.842 Y49.356 E6.1097
G1 X112.088 Y49.050 E6.3231
G1 X112.116 Y49.044 E6.3278
G1 X113.368 Y48.765 E6.5412
G1 X113.397 Y48.759 E6.5460
G1 X114.654 Y48.506 E6.7592
G1 X114.679 Y48.502 E6.7635
G1 X115.942 Y48.273 E6.9769
G1 X115.970 Y48.269 E6.9817
G1 X117.241 Y48.069 E7.1956
G1 X117.268 Y48.065 E7.2002
G1 X118.537 Y47.892 E7.4132
G1 X118.562 Y47.889 E7.4174
G1 X119.838 Y47.740 E7.6311
G1 X119.870 Y47.737 E7.6363
G1 X121.149 Y47.619 E7.8499
G1 X121.174 Y47.617 E7.8542
G1 X122.452 Y47.524 E8.0673
G1 X122.479 Y47.522 E8.0717
G1 X123.762 Y47.456 E8.2853
G1 X123.788 Y47.455 E8.2896
G1 X125.037 Y47.415 E8.4974
G1 X125.063 Y47.414 E8.5019
G1 X126.359 Y47.400 E8.7174
G1 X126.388 Y47.400 E8.7222
G1 X127.671 Y47.415 E8.9355
G1 X127.698 Y47.415 E8.9401
G1 X128.984 Y47.456 E9.1540
G1 X129.010 Y47.457 E9.1584
G1 X130.291 Y47.525 E9.3716
G1 X130.318 Y47.527 E9.3763
G1 X131.596 Y47.621 E9.5893
G1 X131.620 Y47.623 E9.5933
G1 X132.901 Y47.742 E9.8072
G1 X132.932 Y47.745 E9.8124
G1 X134.207 Y47.894 E10.0259
G1 X134.232 Y47.898 E10.0301
G1 X135.506 Y48.072 E10.2440
G1 X135.533 Y48.076 E10.2485
G1 X136.803 Y48.277 E10.4623
G1 X136.832 Y48.282 E10.4672
G1 X138.096 Y48.511 E10.6809
G1 X138.123 Y48.516 E10.6854
G1 X139.380 Y48.769 E10.8987
G1 X139.408 Y48.775 E10.9034
G1 X140.661 Y49.056 E11.1169
G1 X140.687 Y49.062 E11.1214
G1 X141.932 Y49.368 E11.3345
G1 X141.958 Y49.375 E11.3391
G1 X143.197 Y49.708 E11.5524
G1 X143.221 Y49.715 E11.5566
G1 X144.453 Y50.070 E11.7698
G1 X144.483 Y50.079 E11.7750
G1 X145.706 Y50.465 E11.9883
G1 X145.729 Y50.472 E11.9924
G1 X146.946 Y50.882 E12.2058
G1 X146.972 Y50.891 E12.2104
G1 X148.186 Y51.328 E12.4249
G1 X148.218 Y51.340 E12.4306
G1 X149.406 Y51.804 E12.6427
G1 X154.713 Y51.804 E13.5253
G1 X156.236 Y53.327 E13.8835
G1 X156.236 Y166.755 E32.7466
G1 X154.713 Y168.278 E33.1048
G1 X149.203 Y168.278 E34.0212
G1 X148.195 Y168.671 E34.2011
G1 X148.161 Y168.683 E34.2071
G1 X146.949 Y169.117 E34.4212
G1 X146.927 Y169.125 E34.4251
G1 X145.711 Y169.535 E34.6385
G1 X145.684 Y169.544 E34.6431
G1 X144.457 Y169.928 E34.8570
G1 X144.431 Y169.936 E34.8615
G1 X143.199 Y170.294 E35.0749
G1 X143.174 Y170.301 E35.0792
G1 X141.934 Y170.633 E35.2926
G1 X141.907 Y170.640 E35.2973
G1 X140.660 Y170.947 E35.5109
G1 X140.633 Y170.953 E35.5154
G1 X139.381 Y171.232 E35.7288
G1 X139.354 Y171.238 E35.7335
G1 X138.095 Y171.491 E35.9469
G1 X138.070 Y171.496 E35.9512
G1 X136.805 Y171.725 E36.1650
G1 X136.774 Y171.730 E36.1703
G1 X135.506 Y171.928 E36.3837
G1 X135.481 Y171.932 E36.3878
G1 X134.210 Y172.105 E36.6012
G1 X134.185 Y172.108 E36.6053
G1 X132.910 Y172.257 E36.8188
G1 X132.881 Y172.260 E36.8237
G1 X131.601 Y172.381 E37.0375
G1 X131.575 Y172.383 E37.0418
G1 X130.296 Y172.477 E37.2551
G1 X130.268 Y172.478 E37.2597
G1 X128.988 Y172.545 E37.4729
G1 X128.960 Y172.547 E37.4775
G1 X127.675 Y172.587 E37.6914
G1 X127.645 Y172.588 E37.6963
G1 X126.363 Y172.600 E37.9095
G1 X126.338 Y172.600 E37.9137
G1 X125.055 Y172.587 E38.1271
G1 X125.027 Y172.587 E38.1317
G1 X123.742 Y172.546 E38.3456
G1 X123.716 Y172.545 E38.3498
G1 X122.432 Y172.477 E38.5637
G1 X122.406 Y172.475 E38.5681
G1 X121.127 Y172.381 E38.7813
G1 X121.100 Y172.379 E38.7859
G1 X119.820 Y172.258 E38.9997
G1 X119.791 Y172.255 E39.0044
G1 X118.517 Y172.105 E39.2179
G1 X118.491 Y172.102 E39.2221
G1 X117.222 Y171.929 E39.4352
G1 X117.198 Y171.925 E39.4392
G1 X115.927 Y171.726 E39.6531
G1 X115.897 Y171.721 E39.6581
G1 X114.632 Y171.492 E39.8719
G1 X114.608 Y171.487 E39.8760
G1 X113.351 Y171.234 E40.0894
G1 X113.323 Y171.228 E40.0940
G1 X112.070 Y170.948 E40.3076
G1 X112.044 Y170.941 E40.3121
G1 X110.797 Y170.635 E40.5256
G1 X110.770 Y170.628 E40.5302
G1 X109.530 Y170.294 E40.7438
G1 X109.505 Y170.287 E40.7481
G1 X108.273 Y169.930 E40.9614
G1 X108.247 Y169.922 E40.9660
G1 X107.021 Y169.537 E41.1797
G1 X106.993 Y169.528 E41.1846
G1 X105.778 Y169.117 E41.3979
G1 X105.756 Y169.110 E41.4017
G1 X104.546 Y168.676 E41.6155
G1 X104.517 Y168.665 E41.6206
G1 X103.319 Y168.203 E41.8342
G1 X103.296 Y168.194 E41.8382
G1 X102.109 Y167.710 E42.0514
G1 X102.084 Y167.700 E42.0560
G1 X100.904 Y167.191 E42.2697
G1 X100.877 Y167.178 E42.2746
G1 X99.711 Y166.643 E42.4880
G1 X99.688 Y166.632 E42.4922
G1 X98.531 Y166.074 E42.7058
G1 X98.504 Y166.061 E42.7108
G1 X97.360 Y165.476 E42.9244
G1 X97.338 Y165.465 E42.9286
G1 X96.209 Y164.860 E43.1416
G1 X96.183 Y164.846 E43.1466
G1 X95.042 Y164.202 E43.3644
G1 X95.018 Y164.188 E43.3690
G1 X93.915 Y163.534 E43.5822
G1 X93.893 Y163.520 E43.5866
G1 X92.803 Y162.844 E43.7999
G1 X92.780 Y162.829 E43.8044
G1 X91.705 Y162.130 E44.0177
G1 X91.681 Y162.114 E44.0224
G1 X90.619 Y161.393 E44.2360
G1 X90.596 Y161.377 E44.2406
G1 X89.551 Y160.632 E44.4540
G1 X89.528 Y160.616 E44.4587
G1 X88.498 Y159.850 E44.6722
G1 X88.476 Y159.834 E44.6767
G1 X87.461 Y159.046 E44.8904
G1 X87.438 Y159.028 E44.8952
G1 X86.443 Y158.220 E45.1084
G1 X86.422 Y158.203 E45.1128
G1 X85.442 Y157.373 E45.3264
G1 X85.422 Y157.356 E45.3308
G1 X84.461 Y156.508 E45.5440
G1 X84.442 Y156.491 E45.5483
G1 X83.495 Y155.621 E45.7620
G1 X83.475 Y155.602 E45.7666
G1 X82.548 Y154.712 E45.9803
G1 X82.527 Y154.692 E45.9853
G1 X81.620 Y153.782 E46.1987
G1 X81.603 Y153.764 E46.2030
G1 X80.714 Y152.838 E46.4164
G1 X80.695 Y152.817 E46.4211
G1 X79.826 Y151.870 E46.6349
G1 X79.809 Y151.850 E46.6393
G1 X78.962 Y150.888 E46.8524
G1 X78.944 Y150.868 E46.8568
G1 X78.116 Y149.887 E47.0703
G1 X78.100 Y149.868 E47.0746
G1 X77.290 Y148.868 E47.2885
G1 X77.271 Y148.845 E47.2934
G1 X76.487 Y147.831 E47.5066
G1 X76.471 Y147.810 E47.5110
G1 X75.706 Y146.779 E47.7245
G1 X75.690 Y146.757 E47.7291
G1 X74.947 Y145.709 E47.9426
G1 X74.931 Y145.687 E47.9471
G1 X74.210 Y144.624 E48.1609
G1 X74.197 Y144.604 E48.1648
G1 X73.496 Y143.526 E48.3787
G1 X73.481 Y143.503 E48.3832
G1 X72.805 Y142.410 E48.5969
G1 X72.792 Y142.388 E48.6011
G1 X72.138 Y141.284 E48.8145
G1 X72.123 Y141.258 E48.8195
G1 X71.494 Y140.137 E49.0333
G1 X71.482 Y140.114 E49.0376
G1 X70.876 Y138.983 E49.2510
G1 X70.863 Y138.959 E49.2555
G1 X70.281 Y137.814 E49.4691
G1 X70.271 Y137.792 E49.4731
G1 X69.711 Y136.637 E49.6866
G1 X69.699 Y136.610 E49.6916
G1 X69.166 Y135.443 E49.9049
G1 X69.155 Y135.419 E49.9092
G1 X68.645 Y134.239 E50.1230
G1 X68.634 Y134.213 E50.1277
G1 X68.150 Y133.023 E50.3413
G1 X68.141 Y132.999 E50.3456
G1 X67.682 Y131.802 E50.5588
G1 X67.672 Y131.776 E50.5635
G1 X67.238 Y130.567 E50.7772
G1 X67.229 Y130.542 E50.7814
G1 X66.819 Y129.326 E50.9949
G1 X66.810 Y129.297 E51.0000
G1 X66.428 Y128.069 E51.2139
G1 X66.421 Y128.046 E51.2179
G1 X66.064 Y126.815 E51.4310
G1 X66.058 Y126.791 E51.4351
G1 X65.723 Y125.551 E51.6487
G1 X65.716 Y125.520 E51.6540
G1 X65.411 Y124.272 E51.8677
G1 X65.406 Y124.247 E51.8718
G1 X65.127 Y122.995 E52.0852
G1 X65.121 Y122.969 E52.0897
G1 X64.868 Y121.709 E52.3033
G1 X64.864 Y121.685 E52.3074
G1 X64.635 Y120.422 E52.5208
G1 X64.631 Y120.393 E52.5257
G1 X64.431 Y119.123 E52.7396
G1 X64.427 Y119.096 E52.7440
G1 X64.254 Y117.824 E52.9576
G1 X64.251 Y117.800 E52.9616
G1 X64.102 Y116.525 E53.1750
G1 X64.099 Y116.495 E53.1801
G1 X63.981 Y115.212 E53.3944
G1 X63.979 Y115.188 E53.3983
G1 X63.886 Y113.910 E53.6115
G1 X63.884 Y113.883 E53.6159
G1 X63.818 Y112.601 E53.8293
G1 X63.817 Y112.576 E53.8336
G1 X63.776 Y111.289 E54.0477
G1 X63.776 Y111.263 E54.0520
G1 X63.762 Y109.979 E54.2656
G1 X63.762 Y109.950 E54.2704
G1 X63.777 Y108.666 E54.4839
G1 X63.778 Y108.640 E54.4883
G1 X63.820 Y107.356 E54.7019
G1 X63.821 Y107.330 E54.7061
G1 X63.889 Y106.049 E54.9196
G1 X63.891 Y106.022 E54.9241
G1 X63.985 Y104.743 E55.1374
G1 X63.987 Y104.717 E55.1417
G1 X64.107 Y103.437 E55.3554
G1 X64.110 Y103.407 E55.3605
G1 X64.260 Y102.130 E55.5743
G1 X64.263 Y102.106 E55.5783
G1 X64.437 Y100.835 E55.7917
G1 X64.441 Y100.809 E55.7960
G1 X64.642 Y99.539 E56.0098
G1 X64.647 Y99.510 E56.0147
G1 X64.877 Y98.247 E56.2282
G1 X64.881 Y98.223 E56.2323
G1 X65.135 Y96.965 E56.4458
G1 X65.141 Y96.938 E56.4504
G1 X65.422 Y95.686 E56.6636
G1 X65.428 Y95.661 E56.6680
G1 X65.733 Y94.414 E56.8815
G1 X65.741 Y94.383 E56.8868
G1 X66.077 Y93.142 E57.1006
G1 X66.083 Y93.119 E57.1045
G1 X66.441 Y91.890 E57.3174
G1 X66.448 Y91.866 E57.3217
