; G-Code generated by Simplify3D(R) Version 4.0.0
; Jun 24, 2020 at 10:00:43 AM
; Settings Summary
;   processName,Process1
;   applyToModels,Side 2
;   profileName,Cat_Fast (modified)
;   profileVersion,2020-01-05 00:41:03
;   baseProfile,Default (modified)
;   printMaterial,PLA
;   printQuality,Fast
;   printExtruders,
;   extruderName,Primary Extruder
;   extruderToolheadNumber,0
;   extruderDiameter,0.4
;   extruderAutoWidth,0
;   extruderWidth,0.4
;   extrusionMultiplier,1
;   extruderUseRetract,1
;   extruderRetractionDistance,10
;   extruderExtraRestartDistance,0
;   extruderRetractionZLift,0.3
;   extruderRetractionSpeed,6000
;   extruderUseCoasting,0
;   extruderCoastingDistance,0.2
;   extruderUseWipe,1
;   extruderWipeDistance,2
;   primaryExtruder,0
;   layerHeight,0.3
;   topSolidLayers,3
;   bottomSolidLayers,3
;   perimeterOutlines,3
;   printPerimetersInsideOut,1
;   startPointOption,3
;   startPointOriginX,100
;   startPointOriginY,150
;   sequentialIslands,1
;   spiralVaseMode,0
;   firstLayerHeightPercentage,90
;   firstLayerWidthPercentage,100
;   firstLayerUnderspeed,0.5
;   useRaft,1
;   raftExtruder,0
;   raftTopLayers,3
;   raftBaseLayers,2
;   raftOffset,3
;   raftSeparationDistance,0.14
;   raftTopInfill,100
;   aboveRaftSpeedMultiplier,0.3
;   useSkirt,0
;   skirtExtruder,0
;   skirtLayers,1
;   skirtOutlines,3
;   skirtOffset,5.2
;   usePrimePillar,0
;   primePillarExtruder,999
;   primePillarWidth,12
;   primePillarLocation,7
;   primePillarSpeedMultiplier,1
;   useOozeShield,0
;   oozeShieldExtruder,999
;   oozeShieldOffset,2
;   oozeShieldOutlines,1
;   oozeShieldSidewallShape,1
;   oozeShieldSidewallAngle,30
;   oozeShieldSpeedMultiplier,1
;   infillExtruder,0
;   internalInfillPattern,Rectilinear
;   externalInfillPattern,Rectilinear
;   infillPercentage,15
;   outlineOverlapPercentage,30
;   infillExtrusionWidthPercentage,100
;   minInfillLength,5
;   infillLayerInterval,1
;   internalInfillAngles,45,-45
;   overlapInternalInfillAngles,0
;   externalInfillAngles,45,-45
;   generateSupport,1
;   supportExtruder,0
;   supportInfillPercentage,25
;   supportExtraInflation,0
;   supportBaseLayers,0
;   denseSupportExtruder,0
;   denseSupportLayers,0
;   denseSupportInfillPercentage,70
;   supportLayerInterval,1
;   supportHorizontalPartOffset,0.3
;   supportUpperSeparationLayers,1
;   supportLowerSeparationLayers,1
;   supportType,0
;   supportGridSpacing,4
;   maxOverhangAngle,40
;   supportAngles,0
;   temperatureName,Primary Extruder,Bed
;   temperatureNumber,0,0
;   temperatureSetpointCount,1,1
;   temperatureSetpointLayers,1,1
;   temperatureSetpointTemperatures,205,60
;   temperatureStabilizeAtStartup,1,1
;   temperatureHeatedBed,0,1
;   temperatureRelayBetweenLayers,0,0
;   temperatureRelayBetweenLoops,0,0
;   fanLayers,1,2
;   fanSpeeds,0,100
;   blipFanToFullPower,0
;   adjustSpeedForCooling,1
;   minSpeedLayerTime,15
;   minCoolingSpeedSlowdown,20
;   increaseFanForCooling,0
;   minFanLayerTime,30
;   maxCoolingFanSpeed,100
;   increaseFanForBridging,0
;   bridgingFanSpeed,100
;   use5D,1
;   relativeEdistances,0
;   allowEaxisZeroing,1
;   independentExtruderAxes,0
;   includeM10123,0
;   stickySupport,1
;   applyToolheadOffsets,0
;   gcodeXoffset,0
;   gcodeYoffset,0
;   gcodeZoffset,0
;   overrideMachineDefinition,1
;   machineTypeOverride,0
;   strokeXoverride,220
;   strokeYoverride,220
;   strokeZoverride,250
;   originOffsetXoverride,0
;   originOffsetYoverride,0
;   originOffsetZoverride,0
;   homeXdirOverride,-1
;   homeYdirOverride,-1
;   homeZdirOverride,-1
;   flipXoverride,1
;   flipYoverride,-1
;   flipZoverride,1
;   toolheadOffsets,0,0|0,0|0,0|0,0|0,0|0,0
;   overrideFirmwareConfiguration,0
;   firmwareTypeOverride,RepRap (Marlin/Repetier/Sprinter)
;   GPXconfigOverride,r2
;   baudRateOverride,115200
;   overridePrinterModels,0
;   printerModelsOverride
;   startingGcode,G28 ; home all axes,G29; BLTOUCH mesh generation,G92 E0.0,G1 Z5;,G1 X10 Y10 Z0 F6000;,G1 X60.0 E9.0  F1000.0 ; intro line,G1 X100.0 E12.5  F1000.0 ; intro line,G92 E0.0
;   layerChangeGcode,G4 P1
;   retractionGcode,
;   toolChangeGcode,
;   endingGcode,G28 X0 Y0 ; home X axis and y axis,;G1 Z180 F300 ; lower platform to bottom,M104 S0 ; kill extruder temperature,M140 S0 ; kill bed temperature,M107; kill fan,M84 ; disable motors
;   exportFileFormat,gcode
;   celebration,0
;   celebrationSong,Funky Town
;   postProcessing,curl -k -H "X-Api-Key: B48F0C35933E47C49712EE720641ACF0" -F "select=false" -F "print=false" -F "file=@[output_filepath]" "http://192.168.0.5/api/files/local" {STRIP "; postProcessing"}
;   defaultSpeed,4200
;   outlineUnderspeed,0.5
;   solidInfillUnderspeed,0.8
;   supportUnderspeed,0.8
;   rapidXYspeed,4800
;   rapidZspeed,1002
;   minBridgingArea,50
;   bridgingExtraInflation,1
;   bridgingExtrusionMultiplier,1
;   bridgingSpeedMultiplier,1
;   useFixedBridgingAngle,0
;   fixedBridgingAngle,0
;   applyBridgingToPerimeters,0
;   filamentDiameters,1.75|1.75|1.75|1.75|1.75|1.75
;   filamentPricesPerKg,25.99|46|46|46|46|46
;   filamentDensities,1.25|1.25|1.25|1.25|1.25|1.25
;   useMinPrintHeight,0
;   minPrintHeight,0
;   useMaxPrintHeight,0
;   maxPrintHeight,5
;   useDiaphragm,0
;   diaphragmLayerInterval,20
;   robustSlicing,1
;   mergeAllIntoSolid,0
;   onlyRetractWhenCrossingOutline,1
;   retractBetweenLayers,1
;   useRetractionMinTravel,0
;   retractionMinTravel,3
;   retractWhileWiping,0
;   onlyWipeOutlines,1
;   avoidCrossingOutline,1
;   maxMovementDetourFactor,3
;   toolChangeRetractionDistance,12
;   toolChangeExtraRestartDistance,-0.5
;   toolChangeRetractionSpeed,600
;   externalThinWallType,0
;   internalThinWallType,2
;   thinWallAllowedOverlapPercentage,10
;   singleExtrusionMinLength,1
;   singleExtrusionMinPrintingWidthPercentage,50
;   singleExtrusionMaxPrintingWidthPercentage,200
;   singleExtrusionEndpointExtension,0.2
;   horizontalSizeCompensation,0
G90
M82
M106 S0
M140 S60
M190 S60
M104 S205 T0
M109 S205 T0
G28 ; home all axes
G29; BLTOUCH mesh generation
G92 E0.0
G1 Z5;
G1 X10 Y10 Z0 F6000;
G1 X60.0 E9.0  F1000.0 ; intro line
G1 X100.0 E12.5  F1000.0 ; intro line
G92 E0.0
G92 E0
G1 E-10.0000 F6000
G1 Z0.750 F1002
; process Process1
; layer 1, Z = 0.450
G4 P1
T0
; tool H0.500 W0.800
; raft
G1 X70.572 Y51.802 F4800
G1 Z0.450 F1002
G1 E0.0000 F1800
G92 E0
G1 X71.797 Y51.333 E0.2181 F525
G1 X71.822 Y51.323 E0.2226
G1 X73.030 Y50.890 E0.4359
G1 X73.053 Y50.882 E0.4401
G1 X74.269 Y50.472 E0.6534
G1 X74.295 Y50.463 E0.6580
G1 X75.518 Y50.078 E0.8712
G1 X75.546 Y50.070 E0.8760
G1 X76.780 Y49.712 E1.0898
G1 X76.805 Y49.705 E1.0940
G1 X78.044 Y49.372 E1.3074
G1 X78.072 Y49.365 E1.3122
G1 X79.318 Y49.059 E1.5256
G1 X79.344 Y49.052 E1.5301
G1 X80.598 Y48.772 E1.7437
G1 X80.625 Y48.766 E1.7483
G1 X81.884 Y48.513 E1.9619
G1 X81.910 Y48.508 E1.9664
G1 X83.174 Y48.281 E2.1800
G1 X83.199 Y48.276 E2.1841
G1 X84.466 Y48.074 E2.3975
G1 X84.495 Y48.070 E2.4023
G1 X85.769 Y47.896 E2.6162
G1 X85.795 Y47.892 E2.6206
G1 X87.071 Y47.745 E2.8342
G1 X87.097 Y47.742 E2.8386
G1 X88.373 Y47.622 E3.0516
G1 X88.398 Y47.619 E3.0558
G1 X89.680 Y47.523 E3.2697
G1 X89.711 Y47.521 E3.2748
G1 X90.996 Y47.455 E3.4887
G1 X91.019 Y47.454 E3.4926
G1 X92.303 Y47.413 E3.7063
G1 X92.331 Y47.413 E3.7110
G1 X93.614 Y47.400 E3.9243
G1 X93.639 Y47.400 E3.9285
G1 X94.899 Y47.412 E4.1379
G1 X94.928 Y47.413 E4.1428
G1 X96.242 Y47.454 E4.3615
G1 X96.269 Y47.455 E4.3659
G1 X97.551 Y47.520 E4.5794
G1 X97.582 Y47.522 E4.5846
G1 X98.864 Y47.618 E4.7983
G1 X98.889 Y47.621 E4.8026
G1 X100.166 Y47.741 E5.0159
G1 X100.194 Y47.744 E5.0205
G1 X101.468 Y47.891 E5.2338
G1 X101.495 Y47.894 E5.2384
G1 X102.769 Y48.068 E5.4522
G1 X102.798 Y48.072 E5.4571
G1 X104.065 Y48.275 E5.6705
G1 X104.090 Y48.279 E5.6746
G1 X105.354 Y48.506 E5.8882
G1 X105.381 Y48.511 E5.8927
G1 X106.638 Y48.764 E6.1060
G1 X106.665 Y48.770 E6.1105
G1 X107.917 Y49.050 E6.3240
G1 X107.944 Y49.056 E6.3285
G1 X109.192 Y49.363 E6.5423
G1 X109.220 Y49.370 E6.5471
G1 X110.458 Y49.703 E6.7602
G1 X110.483 Y49.710 E6.7646
G1 X111.716 Y50.067 E6.9781
G1 X111.743 Y50.075 E6.9828
G1 X112.969 Y50.460 E7.1965
G1 X112.994 Y50.468 E7.2008
G1 X114.212 Y50.879 E7.4146
G1 X114.235 Y50.887 E7.4187
G1 X115.442 Y51.320 E7.6319
G1 X115.469 Y51.329 E7.6366
G1 X116.669 Y51.790 E7.8504
G1 X116.696 Y51.800 E7.8553
G1 X117.884 Y52.287 E8.0688
G1 X117.906 Y52.296 E8.0726
G1 X119.084 Y52.804 E8.2860
G1 X119.109 Y52.816 E8.2906
G1 X120.277 Y53.350 E8.5042
G1 X120.303 Y53.362 E8.5089
G1 X121.460 Y53.922 E8.7227
G1 X121.485 Y53.935 E8.7274
G1 X122.628 Y54.518 E8.9408
G1 X122.650 Y54.529 E8.9448
G1 X123.782 Y55.134 E9.1583
G1 X123.808 Y55.149 E9.1633
G1 X124.927 Y55.781 E9.3770
G1 X124.950 Y55.794 E9.3814
G1 X126.054 Y56.447 E9.5948
G1 X126.077 Y56.461 E9.5993
G1 X127.169 Y57.138 E9.8128
G1 X127.192 Y57.152 E9.8174
G1 X128.267 Y57.851 E10.0306
G1 X128.289 Y57.866 E10.0350
G1 X129.351 Y58.587 E10.2485
G1 X129.374 Y58.603 E10.2531
G1 X130.420 Y59.347 E10.4666
G1 X130.442 Y59.363 E10.4712
G1 X131.474 Y60.129 E10.6849
G1 X131.496 Y60.146 E10.6894
G1 X132.510 Y60.933 E10.9029
G1 X132.530 Y60.948 E10.9071
G1 X133.527 Y61.756 E11.1206
G1 X133.547 Y61.773 E11.1249
G1 X134.528 Y62.600 E11.3383
G1 X134.550 Y62.619 E11.3430
G1 X135.514 Y63.468 E11.5568
G1 X135.535 Y63.487 E11.5615
G1 X136.480 Y64.357 E11.7750
G1 X136.499 Y64.375 E11.7794
G1 X137.428 Y65.266 E11.9935
G1 X137.446 Y65.284 E11.9977
G1 X138.352 Y66.191 E12.2109
G1 X138.371 Y66.210 E12.2154
G1 X139.260 Y67.135 E12.4287
G1 X139.279 Y67.156 E12.4335
G1 X140.147 Y68.100 E12.6467
G1 X140.167 Y68.121 E12.6515
G1 X141.017 Y69.086 E12.8653
G1 X141.034 Y69.106 E12.8698
G1 X141.863 Y70.088 E13.0834
G1 X141.877 Y70.106 E13.0872
G1 X142.677 Y71.091 E13.2983
G1 X142.696 Y71.114 E13.3032
G1 X143.492 Y72.142 E13.5194
G1 X143.509 Y72.164 E13.5241
G1 X144.273 Y73.193 E13.7372
G1 X144.288 Y73.215 E13.7416
G1 X145.032 Y74.261 E13.9551
G1 X145.048 Y74.284 E13.9598
G1 X145.769 Y75.346 E14.1733
G1 X145.784 Y75.368 E14.1777
G1 X146.482 Y76.442 E14.3907
G1 X146.496 Y76.464 E14.3950
G1 X147.175 Y77.556 E14.6089
G1 X147.190 Y77.581 E14.6137
G1 X147.845 Y78.690 E14.8279
G1 X147.858 Y78.713 E14.8323
G1 X148.487 Y79.829 E15.0453
G1 X148.499 Y79.852 E15.0497
G1 X149.106 Y80.983 E15.2631
G1 X149.120 Y81.010 E15.2682
G1 X149.702 Y82.155 E15.4818
G1 X149.713 Y82.177 E15.4858
G1 X150.273 Y83.331 E15.6992
G1 X150.285 Y83.357 E15.7040
G1 X150.819 Y84.526 E15.9177
G1 X150.831 Y84.551 E15.9223
G1 X151.339 Y85.729 E16.1356
G1 X151.349 Y85.753 E16.1398
G1 X151.835 Y86.941 E16.3534
G1 X151.845 Y86.967 E16.3580
G1 X152.305 Y88.165 E16.5714
G1 X152.315 Y88.191 E16.5760
G1 X152.750 Y89.401 E16.7898
G1 X152.759 Y89.427 E16.7945
G1 X153.167 Y90.642 E17.0075
G1 X153.175 Y90.665 E17.0116
G1 X153.561 Y91.892 E17.2256
G1 X153.570 Y91.922 E17.2308
G1 X153.926 Y93.155 E17.4442
G1 X153.933 Y93.179 E17.4483
G1 X154.265 Y94.417 E17.6614
G1 X154.272 Y94.444 E17.6662
G1 X154.579 Y95.691 E17.8797
G1 X154.585 Y95.717 E17.8842
G1 X154.865 Y96.970 E18.0976
G1 X154.870 Y96.995 E18.1018
G1 X155.126 Y98.254 E18.3155
G1 X155.131 Y98.283 E18.3204
G1 X155.358 Y99.549 E18.5344
G1 X155.363 Y99.574 E18.5386
G1 X155.563 Y100.842 E18.7521
G1 X155.567 Y100.869 E18.7565
G1 X155.741 Y102.140 E18.9700
G1 X155.744 Y102.167 E18.9745
G1 X155.891 Y103.444 E19.1882
G1 X155.894 Y103.470 E19.1926
G1 X156.014 Y104.746 E19.4057
G1 X156.017 Y104.772 E19.4101
G1 X156.113 Y106.053 E19.6237
G1 X156.115 Y106.084 E19.6289
G1 X156.180 Y107.366 E19.8423
G1 X156.181 Y107.391 E19.8465
G1 X156.222 Y108.674 E20.0599
G1 X156.223 Y108.699 E20.0641
G1 X156.237 Y109.984 E20.2779
G1 X156.237 Y110.012 E20.2825
G1 X156.223 Y111.299 E20.4966
G1 X156.222 Y111.325 E20.5008
G1 X156.181 Y112.607 E20.7142
G1 X156.180 Y112.633 E20.7184
G1 X156.115 Y113.914 E20.9318
G1 X156.113 Y113.945 E20.9370
G1 X156.017 Y115.227 E21.1507
G1 X156.015 Y115.251 E21.1548
G1 X155.894 Y116.530 E21.3685
G1 X155.891 Y116.557 E21.3730
G1 X155.744 Y117.829 E21.5859
G1 X155.741 Y117.857 E21.5905
G1 X155.567 Y119.129 E21.8040
G1 X155.563 Y119.156 E21.8087
G1 X155.363 Y120.425 E22.0222
G1 X155.358 Y120.452 E22.0269
G1 X155.131 Y121.716 E22.2403
G1 X155.126 Y121.745 E22.2453
G1 X154.870 Y123.003 E22.4588
G1 X154.865 Y123.029 E22.4632
G1 X154.585 Y124.280 E22.6764
G1 X154.579 Y124.308 E22.6811
G1 X154.272 Y125.554 E22.8945
G1 X154.266 Y125.581 E22.8991
G1 X153.933 Y126.820 E23.1125
G1 X153.927 Y126.842 E23.1164
G1 X153.571 Y128.078 E23.3302
G1 X153.561 Y128.109 E23.3356
G1 X153.175 Y129.334 E23.5492
G1 X153.167 Y129.357 E23.5532
G1 X152.759 Y130.572 E23.7663
G1 X152.750 Y130.597 E23.7709
G1 X152.315 Y131.808 E23.9847
G1 X152.305 Y131.833 E23.9893
G1 X151.845 Y133.031 E24.2027
G1 X151.835 Y133.057 E24.2073
G1 X151.348 Y134.246 E24.4210
G1 X151.338 Y134.271 E24.4254
G1 X150.830 Y135.446 E24.6382
G1 X150.820 Y135.469 E24.6425
G1 X150.286 Y136.639 E24.8564
G1 X150.273 Y136.666 E24.8613
G1 X149.714 Y137.822 E25.0750
G1 X149.702 Y137.846 E25.0794
G1 X149.119 Y138.991 E25.2930
G1 X149.106 Y139.015 E25.2976
G1 X148.499 Y140.146 E25.5110
G1 X148.487 Y140.169 E25.5153
G1 X147.857 Y141.286 E25.7286
G1 X147.844 Y141.309 E25.7331
G1 X147.190 Y142.416 E25.9469
G1 X147.174 Y142.442 E25.9519
G1 X146.497 Y143.531 E26.1652
G1 X146.483 Y143.553 E26.1695
G1 X145.785 Y144.629 E26.3828
G1 X145.769 Y144.652 E26.3874
G1 X145.048 Y145.714 E26.6008
G1 X145.032 Y145.738 E26.6057
G1 X144.288 Y146.784 E26.8191
G1 X144.273 Y146.805 E26.8235
G1 X143.509 Y147.834 E27.0366
G1 X143.492 Y147.856 E27.0412
G1 X142.706 Y148.872 E27.2549
G1 X142.687 Y148.895 E27.2599
G1 X141.878 Y149.892 E27.4733
G1 X141.862 Y149.912 E27.4775
G1 X141.035 Y150.892 E27.6908
G1 X141.017 Y150.912 E27.6953
G1 X140.166 Y151.878 E27.9093
G1 X140.148 Y151.898 E27.9139
G1 X139.279 Y152.843 E28.1274
G1 X139.260 Y152.863 E28.1319
G1 X138.372 Y153.788 E28.3453
G1 X138.355 Y153.805 E28.3493
G1 X137.447 Y154.715 E28.5630
G1 X137.426 Y154.736 E28.5679
G1 X136.498 Y155.625 E28.7815
G1 X136.479 Y155.643 E28.7860
G1 X135.535 Y156.511 E28.9993
G1 X135.513 Y156.531 E29.0042
G1 X134.549 Y157.379 E29.2177
G1 X134.530 Y157.395 E29.2219
G1 X133.549 Y158.225 E29.4355
G1 X133.527 Y158.243 E29.4402
G1 X132.531 Y159.049 E29.6533
G1 X132.512 Y159.064 E29.6574
G1 X131.498 Y159.853 E29.8711
G1 X131.472 Y159.873 E29.8765
G1 X130.441 Y160.637 E30.0899
G1 X130.420 Y160.652 E30.0942
G1 X129.374 Y161.395 E30.3075
G1 X129.350 Y161.412 E30.3124
G1 X128.289 Y162.132 E30.5258
G1 X128.267 Y162.147 E30.5301
G1 X127.192 Y162.846 E30.7433
G1 X127.169 Y162.861 E30.7480
G1 X126.078 Y163.537 E30.9613
G1 X126.056 Y163.550 E30.9655
G1 X124.981 Y164.188 E31.1735
G1 X124.955 Y164.203 E31.1784
G1 X123.816 Y164.845 E31.3960
G1 X123.790 Y164.860 E31.4009
G1 X122.658 Y165.465 E31.6143
G1 X122.637 Y165.476 E31.6183
G1 X121.493 Y166.060 E31.8318
G1 X121.466 Y166.073 E31.8369
G1 X120.310 Y166.631 E32.0503
G1 X120.288 Y166.642 E32.0545
G1 X119.122 Y167.177 E32.2678
G1 X119.097 Y167.188 E32.2724
G1 X117.917 Y167.700 E32.4862
G1 X117.892 Y167.710 E32.4908
G1 X116.703 Y168.195 E32.7043
G1 X116.678 Y168.205 E32.7087
G1 X115.478 Y168.665 E32.9225
G1 X115.454 Y168.674 E32.9267
G1 X114.247 Y169.109 E33.1401
G1 X114.222 Y169.118 E33.1446
G1 X113.004 Y169.529 E33.3583
G1 X112.975 Y169.539 E33.3633
G1 X111.751 Y169.921 E33.5767
G1 X111.724 Y169.929 E33.5812
G1 X110.492 Y170.286 E33.7946
G1 X110.467 Y170.293 E33.7989
G1 X109.230 Y170.626 E34.0119
G1 X109.203 Y170.633 E34.0167
G1 X107.953 Y170.940 E34.2306
G1 X107.927 Y170.946 E34.2351
G1 X106.674 Y171.227 E34.4487
G1 X106.648 Y171.232 E34.4530
G1 X105.391 Y171.486 E34.6663
G1 X105.363 Y171.491 E34.6710
G1 X104.100 Y171.718 E34.8845
G1 X104.075 Y171.722 E34.8887
G1 X102.808 Y171.925 E35.1021
G1 X102.779 Y171.929 E35.1069
G1 X101.505 Y172.103 E35.3208
G1 X101.478 Y172.106 E35.3252
G1 X100.203 Y172.254 E35.5388
G1 X100.177 Y172.256 E35.5431
G1 X98.898 Y172.377 E35.7567
G1 X98.874 Y172.379 E35.7607
G1 X97.592 Y172.475 E35.9745
G1 X97.564 Y172.477 E35.9792
G1 X96.282 Y172.545 E36.1927
G1 X96.251 Y172.546 E36.1978
